P3
256 256
255
0 0 0
0 0 0
0 0 0
0 0 0
0 0 0
0 0 0
0 0 0
0 0 0
0 0 0
0 0 0
0 0 0
0 0 0
0 0 0
0 0 0
0 0 0
0 0 0
0 0 0
0 0 0
0 0 0
0 0 0
0 0 0
0 0 0
0 0 0
0 0 0
0 0 0
0 0 0
0 0 0
0 0 0
0 0 0
0 0 0
0 0 0
0 0 0
0 0 0
0 0 0
0 0 0
0 0 0
0 0 0
0 0 0
0 0 0
0 0 0
0 0 0
0 0 0
0 0 0
0 0 0
0 0 0
0 0 0
0 0 0
0 0 0
0 0 0
0 0 0
0 0 0
0 0 0
0 0 0
0 0 0
0 0 0
0 0 0
0 0 0
0 0 0
0 0 0
0 0 0
0 0 0
0 0 0
0 0 0
0 0 0
0 0 0
0 0 0
0 0 0
0 0 0
0 0 0
0 0 0
0 0 0
0 0 0
0 0 0
0 0 0
0 0 0
0 0 0
0 0 0
0 0 0
0 0 0
0 0 0
0 0 0
0 0 0
0 0 0
0 0 0
0 0 0
0 0 0
0 0 0
0 0 0
0 0 0
0 0 0
0 0 0
0 0 0
0 0 0
0 0 0
0 0 0
0 0 0
0 0 0
0 0 0
0 0 0
0 0 0
0 0 0
0 0 0
0 0 0
0 0 0
0 0 0
0 0 0
0 0 0
0 0 0
0 0 0
0 0 0
0 0 0
0 0 0
0 0 0
0 0 0
0 0 0
0 0 0
0 0 0
0 0 0
0 0 0
0 0 0
0 0 0
0 0 0
0 0 0
0 0 0
0 0 0
0 0 0
0 0 0
0 0 0
0 0 0
0 0 0
0 0 0
0 0 0
0 0 0
0 0 0
0 0 0
0 0 0
0 0 0
0 0 0
0 0 0
0 0 0
0 0 0
0 0 0
0 0 0
0 0 0
0 0 0
0 0 0
0 0 0
0 0 0
0 0 0
0 0 0
0 0 0
0 0 0
0 0 0
0 0 0
0 0 0
0 0 0
0 0 0
0 0 0
0 0 0
0 0 0
0 0 0
0 0 0
0 0 0
0 0 0
0 0 0
0 0 0
0 0 0
0 0 0
0 0 0
0 0 0
0 0 0
0 0 0
0 0 0
0 0 0
0 0 0
0 0 0
0 0 0
0 0 0
0 0 0
0 0 0
0 0 0
0 0 0
0 0 0
0 0 0
0 0 0
0 0 0
0 0 0
0 0 0
0 0 0
0 0 0
0 0 0
0 0 0
0 0 0
0 0 0
0 0 0
0 0 0
0 0 0
0 0 0
0 0 0
0 0 0
0 0 0
0 0 0
0 0 0
0 0 0
0 0 0
0 0 0
0 0 0
0 0 0
0 0 0
0 0 0
0 0 0
0 0 0
0 0 0
0 0 0
0 0 0
0 0 0
0 0 0
0 0 0
0 0 0
0 0 0
0 0 0
0 0 0
0 0 0
0 0 0
0 0 0
0 0 0
0 0 0
0 0 0
0 0 0
0 0 0
0 0 0
0 0 0
0 0 0
0 0 0
0 0 0
0 0 0
0 0 0
0 0 0
0 0 0
0 0 0
0 0 0
0 0 0
0 0 0
0 0 0
0 0 0
0 0 0
0 0 0
0 0 0
0 0 0
0 0 0
0 0 0
0 0 0
0 0 0
0 0 0
0 0 0
0 0 0
0 0 0
0 0 0
0 0 0
0 0 0
0 0 0
0 0 0
0 0 0
0 0 0
0 0 0
0 0 0
0 0 0
0 0 0
0 0 0
0 0 0
0 0 0
0 0 0
0 0 0
0 0 0
0 0 0
0 0 0
0 0 0
0 0 0
0 0 0
0 0 0
0 0 0
0 0 0
0 0 0
0 0 0
0 0 0
0 0 0
0 0 0
0 0 0
0 0 0
0 0 0
0 0 0
0 0 0
0 0 0
0 0 0
0 0 0
0 0 0
0 0 0
0 0 0
0 0 0
0 0 0
0 0 0
0 0 0
0 0 0
0 0 0
0 0 0
0 0 0
0 0 0
0 0 0
0 0 0
0 0 0
0 0 0
0 0 0
0 0 0
0 0 0
0 0 0
0 0 0
0 0 0
0 0 0
0 0 0
0 0 0
0 0 0
0 0 0
0 0 0
0 0 0
0 0 0
0 0 0
0 0 0
0 0 0
0 0 0
0 0 0
0 0 0
0 0 0
0 0 0
0 0 0
0 0 0
0 0 0
0 0 0
0 0 0
0 0 0
0 0 0
0 0 0
0 0 0
0 0 0
0 0 0
0 0 0
0 0 0
0 0 0
0 0 0
0 0 0
0 0 0
0 0 0
0 0 0
0 0 0
0 0 0
0 0 0
0 0 0
0 0 0
0 0 0
0 0 0
0 0 0
0 0 0
0 0 0
0 0 0
0 0 0
0 0 0
0 0 0
0 0 0
0 0 0
0 0 0
0 0 0
0 0 0
0 0 0
0 0 0
0 0 0
0 0 0
0 0 0
0 0 0
0 0 0
0 0 0
0 0 0
0 0 0
0 0 0
0 0 0
0 0 0
0 0 0
0 0 0
0 0 0
0 0 0
0 0 0
0 0 0
0 0 0
0 0 0
0 0 0
0 0 0
0 0 0
0 0 0
0 0 0
0 0 0
0 0 0
0 0 0
0 0 0
0 0 0
0 0 0
0 0 0
0 0 0
0 0 0
0 0 0
0 0 0
0 0 0
0 0 0
0 0 0
0 0 0
0 0 0
0 0 0
0 0 0
0 0 0
0 0 0
0 0 0
0 0 0
0 0 0
0 0 0
0 0 0
0 0 0
0 0 0
0 0 0
0 0 0
0 0 0
0 0 0
0 0 0
0 0 0
0 0 0
0 0 0
0 0 0
0 0 0
0 0 0
0 0 0
0 0 0
0 0 0
0 0 0
0 0 0
0 0 0
0 0 0
0 0 0
0 0 0
0 0 0
0 0 0
0 0 0
0 0 0
0 0 0
0 0 0
0 0 0
0 0 0
0 0 0
0 0 0
0 0 0
0 0 0
0 0 0
0 0 0
0 0 0
0 0 0
0 0 0
0 0 0
0 0 0
0 0 0
0 0 0
0 0 0
0 0 0
0 0 0
0 0 0
0 0 0
0 0 0
0 0 0
0 0 0
0 0 0
0 0 0
0 0 0
0 0 0
0 0 0
0 0 0
0 0 0
0 0 0
0 0 0
0 0 0
0 0 0
0 0 0
0 0 0
0 0 0
0 0 0
0 0 0
0 0 0
0 0 0
0 0 0
0 0 0
0 0 0
0 0 0
0 0 0
0 0 0
0 0 0
0 0 0
0 0 0
0 0 0
0 0 0
0 0 0
0 0 0
0 0 0
0 0 0
0 0 0
0 0 0
0 0 0
0 0 0
0 0 0
0 0 0
0 0 0
0 0 0
0 0 0
0 0 0
0 0 0
0 0 0
0 0 0
0 0 0
0 0 0
0 0 0
0 0 0
0 0 0
0 0 0
0 0 0
0 0 0
0 0 0
0 0 0
0 0 0
0 0 0
0 0 0
0 0 0
0 0 0
0 0 0
0 0 0
0 0 0
0 0 0
0 0 0
0 0 0
0 0 0
0 0 0
0 0 0
0 0 0
0 0 0
0 0 0
0 0 0
0 0 0
0 0 0
0 0 0
0 0 0
0 0 0
0 0 0
0 0 0
0 0 0
0 0 0
0 0 0
0 0 0
0 0 0
0 0 0
0 0 0
0 0 0
0 0 0
0 0 0
0 0 0
0 0 0
0 0 0
0 0 0
0 0 0
0 0 0
0 0 0
0 0 0
0 0 0
0 0 0
0 0 0
0 0 0
0 0 0
0 0 0
0 0 0
0 0 0
0 0 0
0 0 0
0 0 0
0 0 0
0 0 0
0 0 0
0 0 0
0 0 0
0 0 0
0 0 0
0 0 0
0 0 0
0 0 0
0 0 0
0 0 0
0 0 0
0 0 0
0 0 0
0 0 0
0 0 0
0 0 0
0 0 0
0 0 0
0 0 0
0 0 0
0 0 0
0 0 0
0 0 0
0 0 0
0 0 0
0 0 0
0 0 0
0 0 0
0 0 0
0 0 0
0 0 0
0 0 0
0 0 0
0 0 0
0 0 0
0 0 0
0 0 0
0 0 0
0 0 0
0 0 0
0 0 0
0 0 0
0 0 0
0 0 0
0 0 0
0 0 0
0 0 0
0 0 0
0 0 0
0 0 0
0 0 0
0 0 0
0 0 0
0 0 0
0 0 0
0 0 0
0 0 0
0 0 0
0 0 0
0 0 0
0 0 0
0 0 0
0 0 0
0 0 0
0 0 0
0 0 0
0 0 0
0 0 0
0 0 0
0 0 0
0 0 0
0 0 0
0 0 0
0 0 0
0 0 0
0 0 0
0 0 0
0 0 0
0 0 0
0 0 0
0 0 0
0 0 0
0 0 0
0 0 0
0 0 0
0 0 0
0 0 0
0 0 0
0 0 0
0 0 0
0 0 0
0 0 0
0 0 0
0 0 0
0 0 0
0 0 0
0 0 0
0 0 0
0 0 0
0 0 0
0 0 0
0 0 0
0 0 0
0 0 0
0 0 0
0 0 0
0 0 0
0 0 0
0 0 0
0 0 0
0 0 0
0 0 0
0 0 0
0 0 0
0 0 0
0 0 0
0 0 0
0 0 0
0 0 0
0 0 0
0 0 0
0 0 0
0 0 0
0 0 0
0 0 0
0 0 0
0 0 0
0 0 0
0 0 0
0 0 0
0 0 0
0 0 0
0 0 0
0 0 0
0 0 0
0 0 0
0 0 0
0 0 0
0 0 0
0 0 0
0 0 0
0 0 0
0 0 0
0 0 0
0 0 0
0 0 0
0 0 0
0 0 0
0 0 0
0 0 0
0 0 0
0 0 0
0 0 0
0 0 0
0 0 0
0 0 0
0 0 0
0 0 0
0 0 0
0 0 0
0 0 0
0 0 0
0 0 0
0 0 0
0 0 0
0 0 0
0 0 0
0 0 0
0 0 0
0 0 0
0 0 0
0 0 0
0 0 0
0 0 0
0 0 0
0 0 0
0 0 0
0 0 0
0 0 0
0 0 0
0 0 0
0 0 0
0 0 0
0 0 0
0 0 0
0 0 0
0 0 0
0 0 0
0 0 0
0 0 0
0 0 0
0 0 0
0 0 0
0 0 0
0 0 0
0 0 0
0 0 0
0 0 0
0 0 0
0 0 0
0 0 0
0 0 0
0 0 0
0 0 0
0 0 0
0 0 0
0 0 0
0 0 0
0 0 0
0 0 0
0 0 0
0 0 0
0 0 0
0 0 0
0 0 0
0 0 0
0 0 0
0 0 0
0 0 0
0 0 0
0 0 0
0 0 0
0 0 0
0 0 0
0 0 0
0 0 0
0 0 0
0 0 0
0 0 0
0 0 0
0 0 0
0 0 0
0 0 0
0 0 0
0 0 0
0 0 0
0 0 0
0 0 0
0 0 0
0 0 0
0 0 0
0 0 0
0 0 0
0 0 0
0 0 0
0 0 0
0 0 0
0 0 0
0 0 0
0 0 0
0 0 0
0 0 0
0 0 0
0 0 0
0 0 0
0 0 0
0 0 0
0 0 0
0 0 0
0 0 0
0 0 0
0 0 0
0 0 0
0 0 0
0 0 0
0 0 0
0 0 0
0 0 0
0 0 0
0 0 0
0 0 0
0 0 0
0 0 0
0 0 0
0 0 0
0 0 0
0 0 0
0 0 0
0 0 0
0 0 0
0 0 0
0 0 0
0 0 0
0 0 0
0 0 0
0 0 0
0 0 0
0 0 0
0 0 0
0 0 0
0 0 0
0 0 0
0 0 0
0 0 0
0 0 0
0 0 0
0 0 0
0 0 0
0 0 0
0 0 0
0 0 0
0 0 0
0 0 0
0 0 0
0 0 0
0 0 0
0 0 0
0 0 0
0 0 0
0 0 0
0 0 0
0 0 0
0 0 0
0 0 0
0 0 0
0 0 0
0 0 0
0 0 0
0 0 0
0 0 0
0 0 0
0 0 0
0 0 0
0 0 0
0 0 0
0 0 0
0 0 0
0 0 0
0 0 0
0 0 0
0 0 0
0 0 0
0 0 0
0 0 0
0 0 0
0 0 0
0 0 0
0 0 0
0 0 0
0 0 0
0 0 0
0 0 0
0 0 0
0 0 0
0 0 0
0 0 0
0 0 0
0 0 0
0 0 0
0 0 0
0 0 0
0 0 0
0 0 0
0 0 0
0 0 0
0 0 0
0 0 0
0 0 0
0 0 0
0 0 0
0 0 0
0 0 0
0 0 0
0 0 0
0 0 0
0 0 0
0 0 0
0 0 0
0 0 0
0 0 0
0 0 0
0 0 0
0 0 0
0 0 0
0 0 0
0 0 0
0 0 0
0 0 0
0 0 0
0 0 0
0 0 0
0 0 0
0 0 0
0 0 0
0 0 0
0 0 0
0 0 0
0 0 0
0 0 0
0 0 0
0 0 0
0 0 0
0 0 0
0 0 0
0 0 0
0 0 0
0 0 0
0 0 0
0 0 0
0 0 0
0 0 0
0 0 0
0 0 0
0 0 0
0 0 0
0 0 0
0 0 0
0 0 0
0 0 0
0 0 0
0 0 0
0 0 0
0 0 0
0 0 0
0 0 0
0 0 0
0 0 0
0 0 0
0 0 0
0 0 0
0 0 0
0 0 0
0 0 0
0 0 0
0 0 0
0 0 0
0 0 0
0 0 0
0 0 0
0 0 0
0 0 0
0 0 0
0 0 0
0 0 0
0 0 0
0 0 0
0 0 0
0 0 0
0 0 0
0 0 0
0 0 0
0 0 0
0 0 0
0 0 0
0 0 0
0 0 0
0 0 0
0 0 0
0 0 0
0 0 0
0 0 0
0 0 0
0 0 0
0 0 0
0 0 0
0 0 0
0 0 0
0 0 0
0 0 0
0 0 0
0 0 0
0 0 0
0 0 0
0 0 0
0 0 0
0 0 0
0 0 0
0 0 0
0 0 0
0 0 0
0 0 0
0 0 0
0 0 0
0 0 0
0 0 0
0 0 0
0 0 0
0 0 0
0 0 0
0 0 0
0 0 0
0 0 0
0 0 0
0 0 0
0 0 0
0 0 0
0 0 0
0 0 0
0 0 0
0 0 0
0 0 0
0 0 0
0 0 0
0 0 0
0 0 0
0 0 0
0 0 0
0 0 0
0 0 0
0 0 0
0 0 0
0 0 0
0 0 0
0 0 0
0 0 0
0 0 0
0 0 0
0 0 0
0 0 0
0 0 0
0 0 0
0 0 0
0 0 0
0 0 0
0 0 0
0 0 0
0 0 0
0 0 0
0 0 0
0 0 0
0 0 0
0 0 0
0 0 0
0 0 0
0 0 0
0 0 0
0 0 0
0 0 0
0 0 0
0 0 0
0 0 0
0 0 0
0 0 0
0 0 0
0 0 0
0 0 0
0 0 0
0 0 0
0 0 0
0 0 0
0 0 0
0 0 0
0 0 0
0 0 0
0 0 0
0 0 0
0 0 0
0 0 0
0 0 0
0 0 0
0 0 0
0 0 0
0 0 0
0 0 0
0 0 0
0 0 0
0 0 0
0 0 0
0 0 0
0 0 0
0 0 0
0 0 0
0 0 0
0 0 0
0 0 0
0 0 0
0 0 0
0 0 0
0 0 0
0 0 0
0 0 0
0 0 0
0 0 0
0 0 0
0 0 0
0 0 0
0 0 0
0 0 0
0 0 0
0 0 0
0 0 0
0 0 0
0 0 0
0 0 0
0 0 0
0 0 0
0 0 0
0 0 0
0 0 0
0 0 0
0 0 0
0 0 0
0 0 0
0 0 0
0 0 0
0 0 0
0 0 0
0 0 0
0 0 0
0 0 0
0 0 0
0 0 0
0 0 0
0 0 0
0 0 0
0 0 0
0 0 0
0 0 0
0 0 0
0 0 0
0 0 0
0 0 0
0 0 0
0 0 0
0 0 0
0 0 0
0 0 0
0 0 0
0 0 0
0 0 0
0 0 0
0 0 0
0 0 0
0 0 0
0 0 0
0 0 0
0 0 0
0 0 0
0 0 0
0 0 0
0 0 0
0 0 0
0 0 0
0 0 0
0 0 0
0 0 0
0 0 0
0 0 0
0 0 0
0 0 0
0 0 0
0 0 0
0 0 0
0 0 0
0 0 0
0 0 0
0 0 0
0 0 0
0 0 0
0 0 0
0 0 0
0 0 0
0 0 0
0 0 0
0 0 0
0 0 0
0 0 0
0 0 0
0 0 0
0 0 0
0 0 0
0 0 0
0 0 0
0 0 0
0 0 0
0 0 0
0 0 0
0 0 0
0 0 0
0 0 0
0 0 0
0 0 0
0 0 0
0 0 0
0 0 0
0 0 0
0 0 0
0 0 0
0 0 0
0 0 0
0 0 0
0 0 0
0 0 0
0 0 0
0 0 0
0 0 0
0 0 0
0 0 0
0 0 0
0 0 0
0 0 0
0 0 0
0 0 0
0 0 0
0 0 0
0 0 0
0 0 0
0 0 0
0 0 0
0 0 0
15 6 3
34 26 21
45 32 29
47 41 40
34 29 25
52 50 44
43 41 38
40 31 27
51 47 45
48 34 33
43 33 31
51 46 42
59 49 46
51 45 42
48 38 37
40 40 33
60 58 53
51 42 41
53 45 39
59 45 44
42 34 27
51 44 39
51 36 34
61 49 47
69 64 62
58 40 39
53 41 40
54 40 40
47 45 40
60 58 55
42 36 32
47 32 29
72 64 62
48 42 41
53 42 40
65 54 50
52 36 32
60 53 50
53 44 41
55 41 40
33 27 25
51 49 41
49 41 37
57 32 29
49 35 30
52 48 45
51 43 37
44 29 27
57 45 42
65 50 49
50 44 42
48 37 34
49 44 39
45 31 24
49 39 34
36 32 26
57 51 48
47 42 37
67 56 51
44 41 37
51 37 32
45 31 28
54 45 42
39 33 27
44 40 33
59 51 48
42 40 30
61 54 49
48 50 41
53 51 47
46 43 37
48 37 34
55 46 43
54 41 38
70 70 66
51 44 40
50 45 41
70 62 58
36 35 27
73 56 51
63 52 50
41 41 34
52 45 38
61 53 47
56 49 43
56 49 46
53 46 40
66 55 50
44 33 29
61 57 52
45 45 40
62 58 56
48 42 36
57 42 36
60 51 50
70 66 62
55 51 47
46 40 35
51 44 39
57 50 45
55 54 47
57 56 49
46 43 39
56 56 48
61 57 53
65 59 55
68 62 56
57 46 45
48 40 38
52 44 41
59 44 41
46 42 37
57 54 49
60 55 51
50 45 40
54 45 43
54 48 43
56 43 40
53 52 47
51 51 42
37 37 30
60 56 51
58 54 47
48 40 37
75 74 69
43 44 38
48 43 39
50 41 38
51 50 43
58 56 51
57 48 43
49 53 45
60 59 53
52 53 47
52 57 49
57 55 51
59 58 54
53 50 46
59 62 55
65 60 56
56 57 50
56 53 47
40 44 34
46 48 40
55 47 40
52 50 44
59 57 51
55 54 49
42 43 38
61 66 58
54 51 45
62 65 61
47 49 38
59 57 52
58 54 49
53 52 46
52 48 45
72 69 63
45 42 39
64 63 58
61 65 60
62 60 54
45 45 39
37 37 29
39 43 35
51 49 44
55 53 50
48 43 38
62 63 54
50 51 43
48 54 43
56 52 45
46 52 44
49 52 45
44 49 40
55 55 47
55 54 48
44 44 38
63 63 60
54 53 47
48 54 43
54 57 52
42 47 34
64 59 56
39 42 34
43 40 37
53 57 49
51 57 48
51 54 45
45 45 36
40 40 34
58 58 53
61 65 59
49 47 38
40 44 35
44 43 35
60 65 53
48 50 39
25 35 25
44 46 41
42 44 38
39 52 38
41 42 33
36 40 33
44 43 33
51 43 37
54 61 52
40 47 34
38 46 36
58 49 42
50 52 45
55 56 49
44 44 37
49 50 43
46 46 39
54 52 48
41 40 35
42 44 34
48 49 42
36 44 34
45 51 43
45 46 41
53 58 51
47 50 42
35 43 32
44 44 38
46 50 42
45 42 38
35 33 29
45 38 32
47 50 42
26 34 27
37 35 26
51 49 43
34 41 34
42 40 37
46 50 42
44 44 38
37 37 31
60 63 58
32 35 31
36 34 30
30 33 27
40 42 35
12 22 13
0 0 0
0 0 0
0 0 0
0 0 0
0 0 0
0 0 0
0 0 0
0 0 0
0 0 0
0 0 0
0 0 0
14 5 4
57 25 24
42 38 32
55 42 40
47 38 32
44 44 38
52 46 44
58 53 48
42 37 33
43 30 23
58 50 46
66 56 54
46 37 30
63 56 52
50 41 36
56 52 45
70 61 56
54 45 40
51 45 39
54 43 38
62 57 51
58 36 33
74 56 52
43 36 29
65 59 56
63 53 49
55 42 39
52 50 44
60 53 48
57 46 42
77 60 54
70 62 59
62 48 46
64 47 42
54 44 41
62 60 56
63 49 47
62 54 51
57 48 44
65 56 50
61 60 53
66 60 56
50 38 33
55 43 40
69 46 44
62 53 48
67 49 45
63 52 47
64 48 44
61 50 44
62 52 47
65 53 48
73 57 55
67 45 43
63 54 51
51 49 42
57 52 46
63 52 48
67 56 53
58 51 49
66 54 52
51 51 45
52 46 40
59 50 46
61 50 44
71 61 58
57 47 43
65 58 54
65 54 50
67 64 60
57 56 51
50 39 31
64 51 46
72 66 62
60 53 47
69 50 46
72 66 59
67 67 58
57 53 40
75 63 60
60 56 49
59 44 38
55 48 42
58 46 41
62 53 47
64 57 54
63 60 55
56 56 51
57 49 42
80 81 73
72 61 53
63 58 53
70 59 56
77 69 66
67 65 59
73 65 59
54 49 41
66 61 56
59 52 46
67 61 56
76 66 60
56 48 44
63 58 54
54 45 40
63 55 49
65 65 59
72 69 63
65 56 51
69 60 52
63 54 52
61 54 44
59 57 49
57 53 47
58 59 49
61 52 46
63 61 54
53 55 48
66 62 57
59 55 48
60 58 51
51 49 43
49 42 36
54 52 41
61 59 50
57 43 38
53 49 41
64 64 56
62 57 50
62 56 48
61 62 57
60 57 52
71 68 61
69 64 58
60 60 54
55 50 47
61 62 56
60 60 51
68 68 60
63 57 50
51 53 46
53 61 51
62 57 49
69 70 64
60 56 51
65 63 59
59 63 52
58 60 52
64 65 58
62 58 52
58 56 49
65 62 55
69 72 66
65 66 58
56 58 49
68 68 62
54 55 46
64 60 52
66 67 61
67 63 57
60 62 52
59 54 46
56 51 45
65 60 54
52 58 45
63 57 50
67 63 56
66 67 59
68 63 56
54 60 48
54 56 47
61 60 50
70 53 48
72 70 65
52 55 46
57 57 48
59 51 42
66 71 61
64 62 55
62 59 54
63 61 53
54 55 48
44 53 42
56 63 50
57 61 53
60 63 51
65 69 56
61 61 55
61 65 56
57 58 49
54 56 47
61 62 56
61 63 53
61 65 55
59 64 54
61 62 55
56 57 48
44 46 34
53 56 48
57 60 51
55 60 53
55 57 49
55 60 52
54 55 47
58 65 55
55 51 42
58 62 54
51 56 49
48 52 43
61 64 52
53 49 44
51 55 48
46 45 38
44 53 42
56 62 53
57 57 50
61 61 54
57 56 50
53 57 46
48 50 42
55 57 49
61 62 54
53 57 49
58 63 55
60 58 50
46 48 41
60 63 55
61 60 53
61 64 57
43 52 41
49 50 41
46 45 36
53 53 42
52 51 45
53 57 51
45 52 42
50 52 46
45 49 39
57 52 46
50 52 48
61 55 50
40 41 36
52 44 40
57 60 54
20 28 17
19 28 15
0 0 0
0 0 0
0 0 0
0 0 0
0 0 0
0 0 0
0 0 0
0 0 0
0 0 0
0 0 0
0 0 0
20 4 4
35 11 9
49 27 24
47 37 33
48 39 33
59 47 43
53 43 39
53 46 43
56 47 41
58 51 47
64 57 54
51 38 37
46 38 34
56 43 39
70 56 52
47 40 36
54 39 36
57 37 33
58 48 42
57 46 39
55 51 45
54 41 38
78 67 65
68 57 51
67 60 56
50 44 38
60 47 42
49 34 30
58 45 42
66 56 52
61 54 47
50 49 41
75 59 55
69 51 47
71 56 52
61 47 44
62 46 44
57 43 39
70 62 59
62 46 43
65 53 51
66 56 54
77 75 69
67 57 54
62 54 52
53 42 37
62 58 52
80 73 67
67 52 49
60 54 47
64 55 46
61 43 40
60 51 46
64 59 53
52 45 40
63 53 50
58 52 46
58 47 41
55 49 46
55 46 42
69 54 50
73 64 60
69 54 52
61 46 39
65 58 53
70 60 57
73 64 58
69 51 48
82 73 70
78 65 62
68 62 54
71 57 50
60 55 50
69 59 56
63 56 49
72 66 63
71 63 60
55 52 47
72 50 50
68 59 56
70 58 54
65 62 54
62 55 50
64 58 53
69 64 58
52 56 44
63 54 48
78 74 71
76 65 62
67 55 49
58 50 45
63 53 48
61 45 41
68 61 57
70 63 59
61 55 51
72 64 57
65 55 49
66 54 49
61 52 46
79 71 65
59 60 53
76 69 65
61 57 50
61 56 51
67 56 53
79 67 61
58 54 48
70 65 60
55 46 43
77 72 66
68 60 53
72 59 52
71 63 60
58 53 45
70 68 62
69 67 61
71 70 65
61 53 49
57 51 45
58 47 41
74 69 62
65 62 55
62 55 49
57 52 47
67 62 56
69 61 57
60 59 53
62 58 51
51 55 46
60 55 48
58 52 44
61 61 53
61 57 49
63 63 55
64 58 55
69 67 64
64 67 57
59 56 46
57 44 38
58 57 48
55 49 44
54 50 44
44 47 36
62 60 52
67 64 59
64 56 48
67 66 55
74 71 67
66 50 45
52 56 49
51 56 47
58 63 55
53 48 46
52 55 44
77 78 72
73 69 64
49 51 44
61 61 55
53 50 44
66 65 58
52 52 45
60 67 59
72 74 67
59 60 52
71 67 62
51 58 48
67 66 62
57 59 50
61 57 51
61 61 52
64 63 55
57 57 48
52 51 39
52 50 44
50 53 46
65 67 59
62 63 54
56 64 53
62 64 56
73 71 65
46 49 38
52 53 48
60 64 55
58 59 51
52 53 43
64 65 56
57 59 51
49 50 43
55 64 52
53 56 46
60 65 58
56 67 55
49 52 41
58 64 54
65 63 57
54 58 46
44 53 40
41 42 35
60 56 50
60 64 56
63 67 61
59 56 47
61 64 58
49 49 42
60 60 53
40 48 38
60 65 56
56 62 51
51 52 47
59 53 45
47 52 43
51 52 44
63 63 54
71 74 68
51 50 42
60 64 57
50 59 49
55 61 50
57 58 50
46 60 46
55 50 40
47 41 31
61 62 53
49 54 43
58 61 54
52 54 43
55 55 49
54 63 51
44 44 39
58 62 55
46 50 43
50 58 47
46 51 40
41 46 36
47 51 41
52 53 46
43 48 39
50 56 45
56 50 44
44 46 39
50 51 44
36 40 31
19 31 16
21 36 19
0 0 0
0 0 0
0 0 0
0 0 0
0 0 0
0 0 0
0 0 0
0 0 0
0 0 0
0 0 0
0 0 0
11 3 2
38 12 9
56 15 14
43 20 19
45 37 33
58 50 47
58 40 38
62 53 49
58 41 38
50 38 35
51 40 35
52 40 36
66 57 54
63 47 47
58 50 47
59 45 43
54 43 38
63 52 49
71 62 56
57 48 44
45 34 30
61 40 38
75 67 62
65 55 51
57 49 46
60 50 46
62 51 47
49 41 35
70 55 53
67 58 55
54 43 38
66 49 48
72 51 49
61 52 47
62 38 36
64 57 51
68 52 48
61 49 44
67 64 56
61 45 42
65 49 45
63 52 47
69 58 54
71 56 51
62 58 51
65 54 53
50 43 39
60 53 48
57 51 47
63 51 44
57 44 40
60 52 45
69 64 58
69 63 55
61 44 39
67 63 56
65 61 57
70 58 53
71 62 58
76 66 63
68 54 50
63 47 43
72 70 65
61 53 49
71 60 55
66 60 56
65 51 50
68 58 54
65 55 50
64 46 42
70 59 51
72 58 53
82 70 67
66 60 54
59 55 49
68 51 47
76 65 62
82 73 68
68 56 54
55 47 41
74 61 57
55 45 40
74 68 63
68 56 47
66 59 52
59 55 50
60 45 41
51 46 42
57 48 41
66 51 46
61 52 49
71 58 55
70 61 54
56 52 43
64 51 43
69 64 59
72 69 65
61 54 51
71 62 55
59 54 48
59 51 46
66 64 58
81 73 69
71 66 60
76 70 63
71 63 59
57 58 53
63 57 52
61 54 48
58 55 46
61 54 47
70 54 50
60 50 45
71 68 61
73 66 60
69 62 56
62 54 48
80 75 68
57 48 42
57 55 47
64 51 47
68 61 57
67 58 54
65 48 41
65 61 56
79 76 71
59 55 47
70 67 61
76 64 59
61 61 54
71 69 63
53 57 49
66 58 52
60 52 47
62 52 46
60 50 43
68 68 57
66 68 61
67 61 55
55 56 50
73 71 65
71 64 60
57 59 51
73 69 64
66 66 56
55 55 51
70 70 64
48 48 41
51 55 43
44 39 34
57 59 48
60 60 53
68 56 50
65 59 53
68 68 61
70 66 62
61 60 54
64 63 59
58 61 52
62 58 50
70 71 64
49 56 42
59 54 47
50 49 43
53 55 46
68 65 58
58 54 46
60 58 51
68 67 59
59 53 47
53 60 51
55 60 47
55 56 47
63 61 53
67 62 57
49 55 45
87 84 80
56 55 50
54 57 48
61 62 53
57 60 51
49 48 39
52 60 48
64 66 56
62 60 55
61 57 50
81 74 70
64 63 55
56 56 50
67 66 58
67 70 61
65 62 56
51 57 44
64 69 62
59 61 50
65 67 62
43 50 40
59 64 56
73 69 63
56 56 46
55 62 54
46 48 40
56 52 47
52 51 43
54 57 48
56 59 50
59 62 51
48 51 36
70 69 61
56 62 53
60 65 55
65 66 60
60 62 53
66 66 58
54 53 45
53 56 45
54 57 49
65 67 62
56 57 50
57 58 49
49 52 42
63 67 61
50 52 43
59 60 54
55 56 48
63 67 61
61 59 50
54 58 50
60 57 50
45 48 39
54 57 48
52 52 44
53 59 48
57 62 57
53 58 51
54 58 52
52 61 51
44 44 37
43 47 37
53 52 48
53 56 49
31 33 25
26 41 22
25 41 22
26 42 23
0 0 0
0 0 0
0 0 0
0 0 0
0 0 0
0 0 0
0 0 0
0 0 0
0 0 0
0 0 0
0 0 0
31 8 7
52 14 13
48 13 11
59 15 14
52 22 19
55 41 37
49 32 31
58 52 46
59 49 42
49 41 35
50 44 39
60 47 46
69 60 57
55 44 41
52 35 33
61 46 40
68 52 50
53 41 36
60 55 52
66 56 53
57 38 35
65 46 43
56 42 39
70 54 51
51 44 38
74 61 58
61 53 50
70 63 59
66 49 46
64 62 53
65 56 52
70 56 52
65 49 47
69 57 54
63 50 47
65 58 53
54 44 40
66 54 48
66 54 51
66 53 46
56 40 38
63 51 43
73 59 53
60 40 37
67 56 53
67 57 51
66 56 49
75 59 56
59 52 46
77 55 52
67 50 47
74 63 59
65 56 53
56 46 40
58 48 43
72 58 56
73 64 61
66 63 56
78 69 65
75 65 60
71 60 55
61 48 46
69 56 52
74 63 62
64 60 55
76 66 62
52 41 33
60 53 47
69 50 43
73 56 53
71 54 51
66 61 56
72 65 61
63 54 49
80 65 60
78 65 61
66 57 51
52 46 41
63 60 53
63 55 49
81 64 62
63 48 44
78 70 65
60 54 49
72 63 58
57 44 38
82 72 70
69 64 58
66 58 53
72 62 57
55 45 38
61 41 37
59 53 48
73 71 64
70 59 53
74 63 54
60 57 49
69 57 52
68 65 58
67 66 60
53 47 40
54 50 39
66 52 48
61 56 51
63 57 50
72 67 62
77 71 64
63 57 50
59 59 51
64 55 52
72 67 61
65 61 55
58 57 53
58 55 48
61 55 48
63 55 50
65 54 51
65 65 56
66 65 59
59 51 46
76 73 66
66 60 53
66 67 60
67 59 52
82 71 67
79 73 70
61 58 51
61 52 46
68 59 52
46 46 39
57 61 50
59 56 46
73 69 64
74 68 60
73 70 63
73 71 68
67 65 58
68 67 57
73 69 62
54 54 43
52 55 44
73 64 55
64 67 56
68 64 58
68 62 58
59 61 50
66 65 56
57 55 49
60 62 53
67 61 57
57 58 51
69 69 61
75 74 68
57 57 47
65 67 60
51 52 43
56 55 49
51 56 46
64 61 54
63 63 54
66 64 58
45 56 45
63 61 53
55 53 47
72 71 64
69 65 58
62 63 57
64 66 60
54 54 44
59 54 47
61 68 58
66 64 56
64 63 57
66 65 55
74 68 63
56 55 47
55 53 45
57 58 48
69 65 60
72 74 68
62 68 60
60 57 50
61 64 55
67 71 60
62 64 56
56 55 45
42 49 38
58 60 54
54 51 45
54 56 46
63 63 53
54 60 49
59 56 49
62 69 58
61 59 53
43 54 41
53 52 43
56 64 52
49 61 47
59 58 51
66 70 63
59 56 49
54 57 46
60 66 58
62 70 60
52 53 43
49 54 41
66 68 61
53 56 48
49 56 45
62 73 61
47 51 41
66 61 53
53 61 50
46 48 35
44 48 37
52 58 49
51 60 49
37 49 37
56 61 52
43 54 41
52 59 45
49 57 48
52 59 47
55 59 52
51 56 50
54 58 49
60 55 49
61 63 57
58 57 51
50 60 49
68 67 60
49 49 42
56 54 44
57 60 55
47 49 41
42 45 36
49 51 42
53 55 50
52 53 48
30 32 23
21 38 20
24 45 23
21 35 19
26 45 25
0 0 0
0 0 0
0 0 0
0 0 0
0 0 0
0 0 0
0 0 0
0 0 0
0 0 0
0 0 0
0 0 0
16 5 4
51 14 13
48 13 11
56 14 13
54 14 13
39 16 15
58 47 43
63 56 53
62 48 46
62 48 45
58 48 45
55 52 44
54 47 42
62 49 47
54 41 38
58 46 42
65 52 47
55 43 38
61 49 46
63 44 42
62 42 36
54 34 32
57 38 35
45 36 31
64 46 43
74 61 59
81 70 67
62 59 55
66 47 45
60 47 42
70 62 58
61 47 41
67 52 48
59 36 34
76 61 58
64 54 51
74 61 58
66 57 48
64 51 46
54 46 37
69 57 54
62 54 48
69 64 58
74 61 59
68 50 45
68 59 56
65 51 48
69 60 55
85 72 71
70 66 59
67 55 51
54 48 44
69 51 50
62 48 44
65 60 55
76 68 60
61 48 47
73 60 56
64 62 56
79 57 52
66 52 47
60 54 48
69 56 53
76 69 67
61 44 37
74 62 59
67 60 55
69 57 53
66 61 57
66 56 50
66 57 54
60 48 46
74 59 55
68 62 57
80 72 69
56 51 46
66 65 56
65 56 50
58 54 48
58 44 37
61 55 50
76 64 59
67 56 48
90 90 84
76 63 60
77 67 62
57 43 37
70 64 56
72 65 60
59 50 45
70 62 56
70 64 60
64 54 47
66 61 55
60 57 49
63 55 50
72 71 66
65 57 52
61 56 51
51 52 45
70 60 57
62 57 51
65 57 49
69 57 54
70 60 55
66 53 49
75 70 64
82 71 66
66 69 61
65 62 55
60 48 45
58 59 50
77 61 57
69 64 57
64 61 53
69 67 59
66 59 53
77 68 63
68 66 59
55 55 47
70 68 62
66 62 56
70 65 58
57 52 44
63 62 56
62 56 47
64 64 55
71 65 62
68 64 57
83 73 66
70 64 59
64 58 53
69 64 58
66 66 56
69 63 57
62 60 52
65 62 55
72 71 64
59 62 57
64 63 56
59 48 39
62 66 55
67 69 62
79 75 67
66 66 55
64 63 57
60 55 49
52 56 44
64 64 58
60 56 49
61 59 54
60 56 49
74 74 64
61 56 50
70 60 55
63 56 49
69 68 59
61 63 55
66 67 62
63 66 58
56 54 47
68 70 64
61 59 52
67 67 59
52 54 42
53 65 51
74 71 64
55 53 43
66 59 56
51 56 44
65 66 60
62 57 50
68 65 57
58 57 49
62 59 52
54 57 49
63 49 44
64 63 54
66 70 60
54 56 49
64 64 55
68 69 61
66 69 58
52 54 44
61 64 52
52 54 46
48 55 42
59 62 51
54 61 46
75 75 66
65 68 60
59 61 52
46 48 38
64 66 58
54 62 49
54 50 43
60 61 51
61 62 50
61 65 56
63 66 55
42 56 42
60 63 55
49 60 45
50 56 46
61 62 51
58 61 54
62 57 47
56 58 50
56 60 51
67 69 61
66 63 56
65 67 59
54 54 44
45 51 42
62 68 55
44 54 42
58 58 52
50 54 42
61 69 59
56 65 53
52 58 46
61 65 54
48 47 38
57 56 48
60 62 54
47 55 46
48 51 43
50 58 48
64 63 55
58 64 54
51 57 45
58 63 52
58 64 57
55 57 49
50 56 46
44 49 42
64 60 52
53 53 46
50 53 46
35 46 34
25 42 22
27 44 24
24 41 22
23 40 22
18 28 15
0 0 0
0 0 0
0 0 0
0 0 0
0 0 0
0 0 0
0 0 0
0 0 0
0 0 0
0 0 0
0 0 0
23 6 5
51 15 13
44 14 11
51 14 12
49 13 11
51 14 12
44 13 11
60 49 48
58 42 40
52 43 38
66 48 45
68 58 53
70 60 56
65 56 53
60 52 48
58 44 42
58 47 41
59 50 45
59 47 42
71 57 55
67 56 49
61 49 43
73 56 51
57 40 35
73 57 54
77 59 56
66 50 42
59 52 46
63 46 44
57 50 46
70 60 57
67 56 51
66 56 52
71 54 50
69 50 44
63 53 48
47 38 33
78 61 59
72 62 56
64 53 51
71 52 51
69 50 44
65 52 48
62 47 45
69 59 55
67 55 50
75 58 57
64 56 51
72 57 55
72 56 52
73 59 57
61 41 37
62 55 48
72 55 52
71 59 52
69 49 46
68 63 54
59 53 48
52 42 35
55 46 38
72 52 48
71 63 58
66 53 47
75 65 62
69 56 53
77 64 60
61 44 39
69 57 52
68 57 53
74 68 63
59 53 49
70 55 50
62 54 46
66 53 50
69 59 52
80 69 65
76 73 68
68 56 52
63 58 48
66 63 58
66 59 54
65 63 55
76 58 55
70 56 51
70 68 64
73 67 62
58 45 42
62 50 46
74 66 63
85 76 72
70 60 53
66 61 52
72 68 59
70 67 61
72 66 62
75 65 61
64 60 49
75 62 58
73 69 66
69 61 54
54 50 45
68 63 57
68 69 62
77 74 68
67 62 54
63 59 49
65 57 52
70 66 59
67 62 55
75 71 65
66 59 54
78 72 69
60 48 43
74 70 64
59 59 48
70 61 53
55 46 45
77 79 73
71 71 61
70 63 57
68 62 57
71 65 59
69 61 57
77 67 61
70 60 56
64 63 53
63 57 52
61 60 51
71 57 52
63 54 50
66 56 48
73 76 68
63 60 51
63 65 56
62 66 59
69 70 62
58 58 51
66 62 53
75 79 69
73 71 64
58 50 43
59 66 59
60 69 55
56 55 46
56 56 49
68 66 60
70 67 57
64 65 56
62 57 51
62 63 57
74 72 68
68 57 52
53 55 44
62 60 51
65 67 60
50 52 42
52 52 45
69 69 60
82 80 73
64 58 52
68 74 63
80 81 75
74 72 67
70 72 63
52 55 45
67 64 56
61 54 47
61 61 52
62 57 49
52 55 46
59 59 49
68 67 58
69 70 65
50 57 43
64 61 53
58 57 48
58 67 52
58 62 54
59 59 51
66 67 60
55 58 50
71 71 64
72 67 59
65 58 50
63 58 52
59 65 56
71 73 64
52 56 47
48 55 40
60 62 52
58 63 56
74 73 67
57 46 40
74 74 67
52 55 44
55 59 50
68 71 61
60 63 57
57 59 48
52 51 41
61 60 50
58 65 53
48 58 46
60 66 53
54 52 43
64 69 59
63 66 55
59 58 51
66 72 64
57 57 47
58 57 47
53 55 45
45 49 33
56 62 51
58 61 52
55 62 50
48 54 44
68 69 59
66 64 55
53 61 50
56 52 44
44 50 38
60 66 57
60 57 51
63 65 58
65 61 54
63 61 50
54 61 53
47 50 40
49 57 42
65 74 61
58 58 51
54 56 48
59 61 54
55 63 53
39 50 39
55 58 50
34 36 29
38 47 34
24 44 23
25 40 21
22 36 18
26 44 24
25 46 25
20 30 16
0 0 0
0 0 0
0 0 0
0 0 0
0 0 0
0 0 0
0 0 0
0 0 0
0 0 0
0 0 0
0 0 0
20 6 4
57 17 15
47 14 12
44 13 11
54 13 12
48 13 11
51 15 12
50 21 17
69 46 44
54 45 40
56 46 42
61 46 42
72 60 57
72 56 53
73 57 53
56 38 33
59 45 44
64 53 48
68 40 39
62 50 47
64 46 45
56 46 38
64 52 48
60 41 40
60 41 36
74 55 53
74 56 55
79 60 58
69 58 55
67 47 42
65 56 52
71 59 58
61 46 39
76 63 62
66 54 49
64 54 48
66 55 51
67 52 48
64 58 53
67 53 51
74 59 54
71 55 51
68 47 44
84 71 68
70 48 46
62 55 49
72 57 54
73 59 56
75 63 60
73 60 57
70 54 49
71 59 58
59 45 37
67 56 52
74 55 53
69 53 51
60 43 39
69 63 57
67 55 49
65 51 46
78 65 62
70 57 55
70 48 43
64 57 54
69 66 60
63 49 44
77 64 61
67 56 49
59 49 44
57 56 49
66 61 56
75 70 64
67 52 49
60 49 40
66 56 49
79 52 49
74 70 63
60 49 43
62 59 51
71 56 52
80 74 67
72 61 56
71 66 60
70 57 53
58 44 38
69 69 62
73 65 61
77 67 62
60 51 45
51 44 38
63 57 53
68 66 61
70 59 55
64 53 47
78 73 66
80 74 69
65 57 50
60 58 52
72 61 59
53 48 45
59 41 40
66 56 52
69 55 49
67 54 51
68 69 61
67 65 60
73 58 53
65 54 51
76 73 68
79 77 72
76 68 60
68 62 56
77 72 67
51 45 35
71 67 62
67 63 58
66 63 54
70 69 62
78 72 66
69 65 55
68 60 55
67 65 60
66 61 54
78 73 66
65 58 50
75 67 64
77 78 72
61 61 50
67 64 55
61 61 54
66 66 57
66 59 54
74 71 65
56 53 46
68 69 62
55 52 45
70 67 63
77 68 64
55 56 44
55 56 42
57 57 49
54 55 44
73 71 63
73 76 69
52 56 47
67 65 59
61 60 51
59 54 48
79 79 74
71 63 59
60 60 52
71 70 65
74 72 62
64 59 52
45 49 37
65 65 54
64 55 48
55 55 40
63 55 50
58 56 50
60 61 51
61 62 54
54 54 48
70 68 63
49 54 44
64 68 58
60 62 51
62 63 53
67 71 63
62 61 54
55 51 46
69 76 66
56 61 52
58 55 47
63 64 56
55 58 51
70 71 66
63 68 59
64 66 57
61 68 56
71 71 62
64 67 57
63 63 56
60 60 51
59 65 54
57 59 50
64 69 58
56 63 53
57 60 52
63 68 55
60 64 55
59 62 53
62 66 57
61 66 56
47 56 41
59 61 50
67 74 61
59 64 54
47 51 40
54 64 50
60 65 56
53 61 51
57 56 46
65 64 56
61 69 58
53 61 48
58 56 50
59 61 53
59 69 55
49 58 45
51 60 49
46 45 34
60 62 54
56 64 55
59 66 54
50 56 43
52 64 51
65 66 59
57 63 52
64 67 59
62 66 54
50 61 48
63 64 58
49 56 45
61 69 59
59 66 58
50 52 42
47 54 39
58 56 51
59 64 56
54 59 52
65 68 59
63 71 61
46 51 41
38 42 34
59 56 46
47 46 40
49 58 46
28 50 27
21 34 17
23 40 22
23 41 22
24 42 21
24 42 23
23 44 24
0 0 0
0 0 0
0 0 0
0 0 0
0 0 0
0 0 0
0 0 0
0 0 0
0 0 0
0 0 0
0 0 0
22 6 5
50 14 12
54 16 13
52 14 13
54 16 14
51 14 12
57 18 15
55 15 13
64 18 16
62 57 53
54 39 36
77 68 67
54 53 45
69 56 54
56 39 36
57 47 41
70 61 57
69 46 45
71 59 55
64 51 48
54 39 36
64 43 42
63 49 46
64 50 47
73 54 49
63 46 41
81 65 61
72 61 54
70 55 52
68 55 53
75 56 54
67 57 52
61 48 43
74 61 57
65 56 50
68 45 42
64 54 50
69 60 55
66 57 54
70 57 54
64 57 52
73 51 49
62 51 47
70 57 54
83 59 57
77 66 62
58 44 39
66 56 54
61 46 42
66 55 51
67 52 48
71 61 56
68 60 57
65 55 48
54 49 42
67 46 41
76 64 58
63 43 40
80 62 60
63 53 48
57 46 42
70 68 59
70 61 57
64 54 49
83 67 64
75 71 68
70 54 51
69 57 50
66 50 48
72 62 58
64 49 45
67 50 46
87 82 76
48 42 36
70 61 57
73 56 54
80 67 61
63 48 45
78 76 70
75 65 60
65 57 51
68 58 53
75 65 63
73 56 53
76 67 64
67 63 58
81 77 73
79 67 65
56 48 43
71 64 60
68 63 58
65 58 51
72 60 56
84 68 64
64 54 50
87 79 76
73 57 49
71 59 54
81 79 74
70 65 60
69 62 56
70 54 49
67 58 50
68 61 53
59 52 46
66 62 56
70 63 54
79 73 70
67 62 58
70 65 56
72 54 49
62 62 55
60 59 50
69 67 59
69 63 61
61 62 56
72 59 53
68 62 58
67 65 57
84 79 75
69 59 52
65 67 59
74 69 64
70 62 57
77 65 62
54 48 41
49 53 41
64 52 44
68 60 54
58 53 48
81 73 66
69 72 66
62 58 51
67 66 60
60 69 59
72 74 67
67 63 53
67 63 56
66 64 57
57 53 47
66 70 60
78 78 69
78 76 69
76 75 68
65 68 59
55 57 51
63 53 48
69 67 61
67 59 55
56 56 47
65 64 56
74 71 64
71 71 64
67 61 57
64 67 59
64 60 54
72 70 62
76 74 69
43 53 40
77 72 65
62 61 52
66 64 56
70 70 61
55 56 48
61 64 54
68 67 61
65 64 57
61 55 49
58 62 52
49 49 39
59 64 56
50 62 50
52 53 43
54 61 50
69 72 62
59 68 56
66 69 60
66 66 57
71 64 58
63 67 58
63 59 49
73 74 68
59 60 53
65 67 55
61 58 51
58 62 50
65 66 51
60 62 53
62 69 58
64 70 62
65 68 62
63 64 55
50 53 42
56 63 51
66 66 58
53 53 47
57 64 54
53 57 45
53 60 51
61 66 54
64 66 56
61 64 56
75 78 71
54 65 52
64 71 60
53 57 47
62 63 51
46 50 39
58 63 53
65 66 57
67 72 62
72 68 63
64 67 57
57 66 55
60 64 58
53 61 48
54 58 48
75 74 67
71 72 61
56 61 53
55 61 51
43 56 41
58 64 56
57 64 51
54 54 46
46 52 38
57 63 53
46 55 43
49 49 40
51 55 46
38 46 35
58 61 53
61 62 53
48 52 41
66 69 63
55 58 50
40 53 38
22 37 20
29 48 26
25 40 22
24 40 21
34 64 35
27 45 25
21 38 21
15 22 11
0 0 0
0 0 0
0 0 0
0 0 0
0 0 0
0 0 0
0 0 0
0 0 0
0 0 0
0 0 0
0 0 0
20 5 5
56 16 14
54 16 14
60 15 15
47 14 11
58 15 14
48 14 12
54 15 12
46 12 10
53 14 12
49 36 33
62 56 51
71 59 55
68 54 51
55 41 35
57 46 43
63 49 47
71 62 59
56 41 39
70 58 54
63 47 43
64 46 42
63 46 44
54 44 34
68 50 48
66 45 41
64 45 43
73 57 54
68 53 48
74 54 50
72 59 55
67 50 46
72 50 47
72 61 57
69 45 43
62 43 38
72 58 49
72 58 54
74 63 61
71 62 59
65 51 48
76 62 60
74 54 48
79 63 57
75 59 53
79 62 59
70 64 60
67 59 56
76 63 60
72 55 51
69 59 53
80 72 69
80 61 59
63 47 42
69 48 44
75 63 59
66 58 51
78 56 51
61 47 42
78 68 66
72 67 61
66 55 49
80 68 66
60 52 48
68 62 56
68 59 52
77 64 60
70 59 54
78 67 62
77 60 55
81 67 62
77 64 60
79 67 63
72 63 55
78 71 66
79 71 65
61 54 44
72 62 58
71 62 57
76 66 63
66 52 45
83 68 64
70 67 60
68 58 55
74 60 53
69 56 52
61 52 50
85 81 76
72 64 59
76 75 69
72 62 58
72 61 55
76 68 65
75 75 67
68 65 57
69 57 52
70 58 54
64 61 57
70 61 54
63 56 50
65 59 53
58 48 42
76 67 62
79 73 68
79 68 61
69 70 63
73 74 66
69 62 55
64 58 50
61 54 49
61 54 49
80 71 65
72 68 60
70 68 62
77 56 52
69 57 52
72 57 52
65 61 57
75 68 63
67 58 51
74 72 67
75 65 59
77 68 63
69 65 59
64 54 47
61 63 55
67 59 52
80 79 76
68 70 62
66 58 52
65 58 50
73 76 65
64 62 55
61 62 52
75 72 64
81 77 71
69 65 57
65 68 60
71 64 57
73 69 60
73 67 63
64 54 49
74 74 66
77 76 71
56 55 50
68 62 56
85 82 76
63 61 55
77 77 71
67 68 61
74 77 71
78 78 71
72 72 66
69 68 61
54 58 49
64 61 55
70 67 61
61 60 50
54 63 49
56 60 51
55 55 44
65 70 59
74 74 62
71 71 63
78 77 72
53 56 46
56 59 46
60 60 50
62 69 56
72 73 66
57 55 49
64 65 57
67 68 62
70 68 63
68 68 57
66 67 59
68 73 62
46 54 42
57 64 52
64 62 51
52 53 42
71 76 65
79 81 70
65 68 58
69 63 59
62 70 59
57 67 55
71 72 63
65 68 61
53 55 43
67 67 59
65 72 61
67 71 60
56 61 49
65 60 51
61 61 51
59 67 57
59 63 52
64 71 61
61 64 53
53 61 51
60 64 58
74 77 70
64 73 59
75 71 65
57 63 52
68 74 65
59 65 55
70 75 65
64 66 56
55 61 48
56 60 48
58 67 55
62 66 57
57 62 52
60 67 58
57 61 52
56 63 50
60 67 54
57 63 53
59 63 54
50 58 47
55 60 47
59 68 58
54 65 52
55 62 51
79 80 74
55 64 52
59 60 51
58 60 52
56 65 55
55 58 49
63 70 60
57 57 52
52 59 51
36 42 29
23 37 19
26 49 26
23 41 22
28 42 23
27 46 25
30 51 27
26 46 24
22 36 20
21 36 20
0 0 0
0 0 0
0 0 0
0 0 0
0 0 0
0 0 0
0 0 0
0 0 0
0 0 0
0 0 0
0 0 0
19 6 5
48 14 12
50 15 13
53 14 13
66 16 16
69 18 17
49 14 12
56 13 12
58 17 15
51 14 12
54 38 36
56 44 41
60 48 43
65 47 44
62 51 47
63 52 46
62 40 31
70 56 54
75 65 62
65 46 41
63 55 52
70 54 49
59 46 40
74 59 55
69 49 46
71 52 50
79 64 61
72 57 53
73 54 50
73 54 52
66 48 43
70 53 49
70 60 58
56 40 34
69 50 45
67 42 40
73 59 56
65 46 38
83 58 56
73 54 50
82 71 68
65 45 43
66 53 50
66 50 45
71 52 47
66 52 45
74 61 57
66 55 51
82 72 68
63 46 40
80 69 63
66 51 44
78 61 59
83 61 59
67 56 53
74 68 64
68 55 50
70 54 48
65 50 43
86 67 62
68 54 49
67 59 52
74 67 61
83 71 68
75 60 54
70 58 53
77 67 64
83 69 66
66 55 51
77 70 63
66 54 50
77 53 50
71 56 51
81 73 68
73 61 57
69 63 57
67 61 53
84 67 62
58 45 39
65 46 43
69 62 57
68 56 52
79 71 67
68 61 55
74 63 59
66 61 53
78 73 66
68 57 52
69 60 54
70 64 60
83 70 67
83 75 70
76 58 53
65 53 46
77 66 60
73 65 58
81 69 66
75 64 59
64 59 52
64 60 54
67 62 54
74 66 60
70 66 60
55 55 47
74 67 64
54 56 43
69 62 57
74 64 56
78 74 68
68 57 53
79 69 65
70 70 64
76 66 61
56 57 47
58 58 50
70 69 60
75 76 67
74 65 58
68 66 59
67 61 56
74 65 59
80 76 69
75 68 60
64 63 54
56 56 48
57 49 42
72 70 63
64 50 45
72 70 62
72 71 61
74 77 69
61 66 56
74 71 63
68 68 62
76 70 64
68 65 56
63 64 56
76 73 65
69 58 54
73 70 63
79 77 70
58 59 50
74 74 68
72 68 61
60 65 55
64 57 53
66 58 51
77 73 62
72 71 63
68 58 53
75 84 74
66 68 58
57 61 52
80 80 72
67 71 63
61 61 53
71 72 64
64 63 58
78 71 66
59 64 51
62 59 50
66 67 57
68 74 60
53 50 45
81 75 70
62 69 58
74 73 68
69 69 60
64 68 57
62 72 60
55 59 51
67 69 61
69 65 59
62 64 55
61 62 51
74 76 68
66 70 57
59 55 47
65 60 50
63 61 55
60 64 52
64 71 58
77 77 70
65 63 55
67 68 59
61 59 49
64 75 61
65 71 62
65 74 62
72 72 64
63 63 58
77 79 69
69 65 53
64 65 56
73 78 67
66 75 62
66 73 61
65 68 59
57 67 51
62 65 56
73 77 69
54 65 53
53 59 50
57 63 50
58 68 55
59 64 51
51 58 47
48 51 40
62 68 58
61 69 56
68 68 57
63 65 56
66 75 62
47 60 46
56 64 49
51 61 44
65 73 61
45 48 33
61 66 57
59 69 56
62 67 58
54 61 48
57 67 55
52 61 51
52 63 50
51 58 48
52 53 39
62 63 54
54 57 49
59 63 55
61 64 55
49 53 45
52 55 49
47 55 42
24 28 15
29 44 24
27 48 25
24 41 21
27 40 22
26 43 23
27 47 26
25 43 23
26 47 26
26 44 24
21 40 22
0 0 0
0 0 0
0 0 0
0 0 0
0 0 0
0 0 0
0 0 0
0 0 0
0 0 0
0 0 0
0 0 0
24 6 6
54 16 14
51 14 13
55 16 14
49 14 12
64 16 15
50 14 12
58 15 13
48 14 11
63 19 16
43 12 10
48 17 13
58 46 42
56 38 36
51 37 32
59 46 41
62 54 49
72 56 54
71 59 57
68 55 53
76 57 53
66 39 37
69 57 49
64 40 36
73 43 38
64 48 43
63 41 36
67 45 40
72 49 47
55 37 36
72 54 49
80 66 63
79 65 63
68 52 48
71 55 52
77 63 58
78 64 60
72 51 48
76 58 54
73 53 51
77 57 53
69 50 48
78 61 58
76 63 60
78 65 62
61 55 49
77 57 53
75 63 59
71 58 53
74 64 60
86 71 66
69 58 53
69 56 52
76 64 58
65 54 50
77 56 54
79 67 60
80 68 65
83 73 67
70 59 54
66 50 44
92 81 77
84 72 67
72 55 52
83 70 67
73 52 50
71 58 53
76 60 56
68 56 50
72 68 60
74 65 62
81 72 66
76 67 63
67 62 54
65 62 54
75 64 59
64 55 49
70 64 58
75 60 56
72 66 61
73 64 58
65 57 52
75 65 58
76 69 63
60 50 46
73 63 58
62 45 41
69 57 53
70 61 55
72 62 55
78 68 63
70 62 57
67 55 50
85 75 70
82 76 70
67 65 60
70 52 46
68 58 48
57 58 50
69 67 59
64 58 50
80 72 68
69 63 58
83 79 74
81 70 68
64 59 51
75 75 68
79 70 64
72 70 63
80 73 67
61 64 56
70 68 60
72 69 62
59 57 49
58 55 48
72 68 60
58 57 49
84 72 68
73 64 58
63 59 49
68 71 59
76 76 68
74 67 59
70 69 61
75 69 63
65 64 57
77 69 66
83 71 66
71 64 58
66 62 57
77 74 67
76 79 69
64 54 45
80 70 64
70 72 63
72 75 65
76 77 71
70 66 60
69 66 58
69 61 56
56 63 50
73 64 58
59 59 48
71 63 57
65 60 51
58 58 51
65 63 53
72 72 60
79 79 71
71 75 66
69 65 54
83 80 74
71 75 67
67 67 58
71 73 64
64 58 48
59 54 44
60 59 50
62 66 57
60 68 56
65 71 56
64 63 52
77 75 67
76 71 63
65 70 60
74 72 62
79 83 74
73 75 67
71 74 64
61 62 52
60 66 54
68 71 65
70 74 63
64 67 60
60 59 53
68 66 55
80 83 76
73 78 68
62 67 55
60 67 57
61 62 51
60 66 54
67 68 58
67 68 56
60 66 56
68 77 63
74 69 62
60 64 58
48 52 41
56 59 51
65 65 57
67 73 62
47 53 42
67 74 62
54 57 46
66 69 60
54 62 50
71 78 67
66 71 59
61 64 54
72 81 69
63 66 55
72 75 68
58 63 54
59 61 51
58 66 54
55 62 49
64 71 60
48 52 42
54 64 49
67 70 58
75 80 72
66 71 61
71 75 67
35 50 34
54 60 50
62 68 58
57 64 52
50 58 43
49 57 47
61 68 58
76 78 72
50 55 43
47 58 46
39 45 34
54 59 52
59 61 51
65 67 61
63 61 54
63 67 56
58 62 52
53 59 48
56 58 51
42 45 31
23 33 17
22 36 19
27 44 24
25 41 21
33 55 30
25 48 26
26 39 21
29 47 26
22 35 19
26 41 23
25 45 25
0 0 0
0 0 0
0 0 0
0 0 0
0 0 0
0 0 0
0 0 0
0 0 0
0 0 0
0 0 0
0 0 0
23 7 6
56 16 14
51 14 13
60 16 14
65 18 16
49 14 12
58 16 14
69 19 17
60 17 14
56 15 14
70 19 17
54 15 13
59 16 13
62 48 44
59 43 42
68 58 55
58 46 44
70 56 55
60 51 45
64 52 49
67 53 48
65 53 49
75 61 56
77 65 61
72 53 52
64 50 49
74 68 63
73 61 54
74 48 44
63 46 39
72 59 56
72 61 57
65 49 43
71 48 44
72 50 46
77 65 62
68 47 43
74 50 44
62 46 38
77 70 64
77 52 51
81 70 67
79 56 52
69 41 38
60 49 42
67 54 49
84 69 66
71 57 49
69 50 45
69 51 47
63 54 51
77 70 64
67 44 39
73 58 53
79 69 64
68 60 55
66 57 54
72 49 47
59 42 34
92 76 73
89 75 72
68 56 52
79 62 58
75 53 49
83 73 70
67 63 51
68 57 48
73 63 56
76 60 55
79 74 70
85 74 71
58 48 42
79 60 55
66 57 51
79 67 64
79 70 64
68 55 52
73 63 58
67 52 50
76 60 55
77 67 63
69 58 51
76 61 58
77 61 57
81 74 71
77 67 60
72 61 55
77 64 58
84 75 70
67 60 50
76 65 59
82 65 58
70 62 56
76 69 64
77 72 64
64 55 47
64 65 54
67 62 56
79 68 64
62 55 48
77 72 67
65 59 53
89 86 81
64 61 54
79 78 68
75 70 62
77 63 59
76 57 52
80 75 71
79 78 72
83 80 75
71 71 64
89 83 79
69 60 55
69 62 56
62 55 49
72 68 62
69 62 58
76 72 66
76 65 60
59 57 47
86 81 74
73 68 59
67 64 59
68 69 61
68 75 65
71 69 61
77 70 67
77 72 68
68 73 64
63 59 51
65 66 58
79 76 72
64 62 54
69 72 61
68 61 50
65 64 52
81 81 74
65 55 47
79 78 72
69 66 57
65 63 53
72 71 68
67 67 61
73 78 68
65 68 59
67 63 56
75 76 69
60 57 49
74 77 68
61 58 53
77 75 67
74 71 63
70 69 62
58 69 55
70 63 57
73 76 70
70 70 62
67 60 52
61 69 56
74 74 65
65 67 57
57 65 53
59 62 54
64 66 60
59 66 55
69 70 60
71 73 63
69 68 59
80 74 65
72 62 56
63 70 59
75 76 68
83 83 76
65 68 59
60 67 53
64 73 61
68 75 66
75 82 69
85 80 69
66 70 59
70 73 64
71 77 68
67 69 59
68 71 62
74 78 69
63 72 58
68 67 60
49 58 45
64 63 50
59 70 55
73 77 63
66 70 61
62 67 54
60 59 49
55 64 49
57 64 55
69 73 66
62 73 61
69 73 65
69 71 62
67 68 58
60 70 58
66 68 58
57 66 53
58 62 51
66 71 63
55 63 52
53 59 49
73 80 70
61 63 54
62 61 53
58 60 51
68 71 60
54 65 51
66 65 57
51 55 45
60 64 57
59 68 56
62 59 48
68 67 58
51 63 49
61 68 57
47 55 44
51 56 47
54 60 48
53 53 42
60 64 55
47 61 44
60 59 50
63 67 60
44 52 40
45 53 43
30 53 28
25 42 22
29 42 23
21 37 19
27 45 23
29 51 27
30 47 25
23 40 22
26 45 24
29 47 26
23 42 23
21 39 21
0 0 0
0 0 0
0 0 0
0 0 0
0 0 0
0 0 0
0 0 0
0 0 0
0 0 0
0 0 0
0 0 0
27 6 5
58 16 15
65 19 17
66 19 17
65 17 16
55 15 14
57 15 14
62 16 15
68 18 17
71 19 18
54 15 13
56 14 13
60 16 15
56 15 13
69 48 45
61 52 47
66 51 47
59 44 41
72 61 59
74 64 62
77 63 60
80 55 53
57 43 38
61 43 40
69 58 53
78 63 59
71 56 51
71 57 53
72 59 54
79 57 51
79 65 63
69 47 43
80 69 66
74 52 46
65 48 45
69 52 47
78 61 58
70 61 57
78 60 58
74 54 51
78 62 58
81 57 53
72 65 58
81 60 57
70 52 45
75 57 53
70 55 48
78 63 59
82 65 62
74 60 56
89 78 76
75 65 61
79 61 57
69 48 42
67 63 54
71 54 52
77 48 45
89 78 75
74 58 53
71 66 60
70 60 52
83 75 72
71 53 48
78 67 62
79 68 64
75 67 62
69 57 53
78 61 58
74 66 62
80 69 64
67 53 45
70 60 54
75 70 67
61 51 47
80 69 64
79 73 66
78 65 62
68 60 54
66 57 52
80 64 60
66 55 51
63 53 44
98 91 86
76 63 60
68 58 49
65 65 55
77 71 63
87 72 70
71 63 57
69 62 56
78 61 58
63 53 49
78 62 58
72 60 55
75 77 68
78 68 64
76 66 60
73 66 59
77 75 67
67 65 58
82 73 67
77 71 63
66 64 56
81 76 71
85 75 70
82 79 74
60 55 43
72 66 61
85 77 72
73 61 54
67 58 50
61 61 52
87 79 73
70 61 55
73 70 64
63 60 53
77 71 64
85 78 70
72 67 61
81 78 71
69 65 60
68 66 58
67 59 52
67 62 55
72 63 57
75 70 63
73 74 68
82 68 63
69 58 52
81 70 64
77 80 73
71 71 62
88 87 81
70 68 61
70 70 64
73 70 65
68 68 58
69 68 60
76 72 68
70 72 62
72 67 61
71 72 63
71 70 64
72 73 64
68 64 58
60 70 57
64 58 51
63 62 56
68 71 60
82 81 77
73 76 66
67 68 58
67 70 56
61 65 54
75 74 67
74 71 64
70 68 57
69 72 61
62 56 49
67 66 59
56 64 52
75 71 63
67 72 62
74 73 64
67 66 54
72 69 60
66 75 62
77 82 72
63 68 57
65 65 56
67 73 63
67 64 58
75 79 71
76 79 70
73 79 68
73 71 64
71 73 63
73 71 62
76 83 73
61 66 57
55 59 48
57 61 48
53 62 49
64 68 57
59 65 54
60 72 59
65 73 62
61 58 49
64 70 58
62 61 54
54 70 52
71 64 53
64 69 57
58 68 56
64 70 59
52 60 48
57 66 54
66 74 62
63 69 58
56 64 52
61 71 59
66 63 56
55 62 51
56 65 51
69 75 63
63 68 57
63 66 54
61 62 51
68 75 63
60 67 51
47 54 42
51 57 45
65 74 60
61 65 55
56 66 53
68 76 61
61 67 55
56 60 51
55 58 45
67 72 63
55 65 50
51 57 44
54 63 51
56 63 51
65 70 60
57 62 49
59 61 52
52 56 47
57 57 51
57 64 54
68 69 62
42 50 35
25 37 19
29 49 27
27 44 24
21 40 22
27 53 28
27 45 24
28 50 27
29 49 27
29 54 29
26 50 26
26 46 25
27 54 29
27 45 24
0 0 0
0 0 0
0 0 0
0 0 0
0 0 0
0 0 0
0 0 0
0 0 0
0 0 0
0 0 0
0 0 0
25 7 6
56 15 13
49 15 13
58 16 15
61 16 15
61 17 15
66 18 17
59 16 15
70 18 17
63 16 15
65 18 16
60 16 14
62 16 14
55 12 11
49 21 17
55 39 37
57 39 35
72 51 48
79 50 49
66 52 47
62 51 47
55 45 39
70 63 59
68 48 44
81 63 58
85 69 67
81 62 58
74 57 54
67 46 44
70 43 41
84 57 53
75 57 53
67 46 42
76 52 50
72 51 41
72 59 57
69 58 51
78 58 54
72 50 44
82 59 55
85 64 62
91 69 67
80 59 58
67 41 36
71 59 55
77 62 59
76 63 60
71 49 45
67 55 50
69 49 43
63 46 40
77 62 57
77 66 62
77 65 61
70 58 54
76 57 54
77 61 58
74 67 62
68 43 36
75 57 55
66 56 50
62 54 49
83 66 64
70 56 51
81 63 57
63 46 40
75 61 57
91 73 71
81 65 60
71 66 60
84 80 73
65 50 43
70 59 55
76 65 61
72 62 58
70 61 56
84 75 68
82 61 57
68 65 59
74 62 57
93 84 79
72 57 52
74 58 56
76 67 61
85 73 69
86 77 75
66 59 52
73 70 62
93 83 80
63 64 53
79 69 64
71 55 49
75 63 58
76 68 64
75 58 54
69 63 55
71 69 62
72 65 59
80 77 69
78 68 62
78 68 64
59 54 47
82 71 65
72 63 57
75 75 63
71 67 58
76 67 59
75 66 61
86 81 74
76 67 59
72 70 65
74 71 63
77 67 63
82 81 74
69 58 51
77 78 71
78 74 67
68 71 60
78 68 59
80 76 71
67 64 54
81 72 67
74 67 61
76 68 61
71 70 62
76 71 66
75 71 65
65 61 53
72 71 63
85 86 80
70 64 58
66 63 55
70 74 66
75 74 68
75 67 59
60 60 51
69 62 56
74 73 64
73 70 63
69 72 60
76 75 66
74 73 64
74 66 63
75 70 63
49 50 41
78 83 71
76 77 67
73 68 62
58 60 48
69 68 59
78 81 72
72 69 62
73 76 70
63 69 58
70 71 61
79 88 78
67 75 63
64 68 60
73 75 67
74 75 69
60 61 50
67 64 57
66 66 53
72 75 66
70 76 64
70 80 69
55 55 45
51 47 39
75 75 66
66 70 59
66 68 58
65 67 58
62 62 52
73 71 64
60 69 54
72 68 61
73 76 66
71 73 64
71 74 65
65 69 58
71 74 62
66 67 58
73 76 68
64 58 49
75 73 66
68 77 67
67 73 62
65 68 60
69 71 59
59 67 56
60 72 56
61 68 53
69 73 60
69 74 60
66 69 58
64 73 61
68 75 63
71 76 67
63 73 62
69 73 62
75 77 66
57 65 51
55 62 50
63 68 57
58 64 54
58 59 49
66 66 55
57 61 51
54 64 48
63 69 59
65 72 61
54 64 50
67 72 62
49 65 47
59 60 51
57 70 52
52 58 44
67 69 61
51 68 52
50 59 47
44 52 41
58 64 55
61 68 58
57 63 52
64 70 61
62 64 55
47 51 44
50 51 43
58 56 49
53 43 33
54 64 51
28 50 28
24 45 23
30 53 29
27 45 24
26 44 23
24 42 22
26 44 24
25 44 23
28 51 28
29 49 26
29 50 27
25 45 24
26 46 26
25 44 25
0 0 0
0 0 0
0 0 0
0 0 0
0 0 0
0 0 0
0 0 0
0 0 0
0 0 0
0 0 0
0 0 0
24 7 5
62 18 16
66 17 16
54 14 13
58 18 15
55 15 13
68 18 17
62 17 15
68 18 17
50 14 12
64 18 16
66 17 16
63 18 16
54 14 12
59 14 13
51 16 14
60 45 40
64 52 47
60 45 43
51 41 33
73 54 51
59 53 44
75 59 58
78 58 55
85 71 69
69 48 44
74 61 59
78 56 52
77 58 54
72 51 46
74 56 52
62 44 41
80 57 54
77 66 57
88 69 65
76 62 56
62 54 45
81 64 61
79 64 61
62 42 39
80 66 64
81 71 63
74 56 51
84 62 59
87 71 67
70 54 52
83 70 66
77 58 53
72 56 50
83 60 57
67 53 47
79 64 59
80 52 51
75 61 58
83 67 62
75 60 56
75 65 61
68 56 51
71 54 50
80 71 67
78 55 52
79 66 62
73 55 49
84 62 58
74 58 56
79 68 61
64 41 35
79 66 60
71 63 56
81 63 56
80 63 58
79 64 62
86 71 67
83 66 60
76 64 55
70 62 56
83 73 67
89 74 70
75 71 64
65 49 43
78 63 57
66 60 55
86 68 64
78 75 69
79 61 58
79 70 63
75 58 56
70 61 55
75 72 65
80 66 64
84 68 64
88 83 76
83 63 60
85 81 72
78 69 64
68 68 56
87 81 72
86 72 67
64 58 51
85 76 73
80 77 71
87 70 66
86 85 81
76 69 62
69 60 54
78 68 62
71 61 56
77 76 70
79 67 60
78 73 66
71 67 60
70 68 57
81 73 68
70 67 60
84 79 73
85 78 73
73 64 57
85 76 69
79 69 63
77 68 63
81 75 67
75 67 61
90 81 77
77 70 63
80 64 59
74 67 61
71 69 62
61 65 55
59 58 49
73 69 59
85 81 72
85 75 68
82 71 65
70 69 61
74 71 64
77 71 66
88 86 79
84 78 71
83 77 72
93 87 82
69 68 59
80 76 70
72 75 66
82 79 72
84 82 73
55 53 42
71 69 61
87 83 78
72 71 63
78 75 69
74 72 65
66 73 62
74 77 70
78 71 64
75 72 64
71 74 65
72 74 62
67 66 58
64 67 57
75 76 68
65 63 56
75 80 70
55 57 45
75 75 66
65 69 57
76 79 70
81 78 73
76 78 69
69 72 63
73 77 68
67 67 59
71 74 65
58 64 50
76 75 68
71 76 66
63 70 59
79 84 74
68 72 61
59 67 55
70 75 65
63 71 60
75 73 65
70 64 59
66 72 60
72 74 64
64 69 59
61 68 55
70 79 67
70 69 61
65 72 60
61 62 51
65 72 61
58 65 53
64 75 61
61 69 60
69 72 61
62 69 57
63 71 58
63 71 61
64 71 58
72 81 69
61 66 54
59 72 58
69 78 65
56 67 52
66 68 56
58 67 56
58 69 56
65 70 59
65 69 58
75 79 67
57 71 53
53 64 51
57 64 53
54 60 45
59 67 56
65 70 58
73 72 67
63 74 62
53 58 47
59 68 55
57 59 51
52 60 48
54 58 48
52 55 44
39 44 35
60 68 58
56 59 50
48 53 41
44 53 41
22 35 18
31 50 27
24 47 24
25 45 24
29 51 27
26 48 24
33 56 30
28 50 27
26 44 24
26 44 23
31 53 30
29 47 25
24 42 23
28 51 27
24 37 20
0 0 0
0 0 0
0 0 0
0 0 0
0 0 0
0 0 0
0 0 0
0 0 0
0 0 0
0 0 0
0 0 0
21 6 5
55 15 14
66 19 18
61 17 15
64 18 17
54 16 14
58 16 15
60 17 15
58 16 14
65 17 16
60 17 15
49 12 11
59 16 14
50 14 12
56 16 14
65 16 15
62 25 22
74 63 59
60 59 50
66 43 41
67 56 53
65 52 46
68 48 44
78 58 54
74 52 48
70 50 45
75 56 52
72 59 56
76 62 59
64 43 35
74 48 44
76 59 57
80 63 61
73 60 55
75 61 56
76 60 56
86 69 64
76 63 58
71 51 48
69 64 56
78 66 61
82 62 54
75 61 57
71 63 58
86 61 59
82 65 61
81 67 64
79 55 49
72 60 56
75 61 55
70 55 52
66 50 44
79 64 59
75 55 52
85 62 58
73 55 48
85 72 67
74 60 54
78 67 62
69 53 47
73 64 59
87 72 69
70 64 57
83 67 61
81 54 46
76 54 49
87 74 68
79 68 59
79 65 59
68 59 51
75 58 53
69 58 51
85 77 71
87 73 70
78 69 63
73 61 54
82 69 63
71 60 54
80 71 67
87 84 78
88 75 71
75 55 53
83 62 61
82 70 69
91 78 74
74 64 58
77 65 59
94 80 75
73 67 63
74 71 62
83 73 67
81 73 65
77 57 50
74 55 50
78 72 69
81 76 70
85 78 73
67 55 48
73 62 55
73 56 50
80 68 63
77 69 60
77 70 62
88 80 75
76 68 61
72 73 65
76 70 64
81 73 69
85 74 70
69 68 59
72 61 55
89 83 75
88 76 70
66 59 55
94 82 77
78 65 59
79 69 63
83 78 72
78 73 66
77 66 62
81 74 67
69 63 54
70 64 56
76 73 65
86 81 75
79 76 69
82 78 73
86 82 75
68 68 58
72 67 58
77 74 67
84 81 73
80 78 72
89 79 75
80 76 68
82 79 71
71 72 65
73 70 63
76 77 70
67 66 60
67 70 61
77 79 68
59 62 52
64 63 57
73 71 63
73 75 67
73 69 57
80 73 66
72 77 70
61 62 52
76 74 66
65 69 58
78 77 73
62 64 54
71 72 65
81 78 70
68 69 59
79 75 68
73 74 66
64 69 58
68 71 61
68 73 60
75 79 68
49 55 44
72 78 69
70 78 66
82 89 78
81 83 74
64 71 58
83 85 75
74 73 64
78 85 72
67 63 55
61 67 57
56 62 52
78 79 68
66 69 60
67 76 65
78 80 71
68 76 63
53 56 42
59 64 51
67 79 66
70 63 54
64 72 62
76 73 67
61 59 50
63 73 59
56 65 50
63 69 55
71 70 60
59 68 56
74 74 67
64 65 55
65 68 57
58 71 55
66 77 61
60 69 57
48 58 41
56 70 52
62 73 61
71 79 68
59 64 53
64 68 56
62 74 60
86 93 85
62 73 58
67 74 63
62 65 53
69 76 66
49 62 47
69 73 62
60 72 56
78 81 73
55 66 52
70 72 61
65 71 62
60 64 54
59 59 50
49 57 42
52 60 46
69 72 60
62 60 53
58 60 52
67 65 58
71 76 68
59 60 52
67 70 61
39 51 34
26 44 24
24 41 21
27 48 26
26 42 22
32 56 31
28 53 28
30 48 26
30 54 30
32 54 30
27 46 25
31 55 30
27 44 24
26 44 24
29 52 29
21 39 21
22 44 24
0 0 0
0 0 0
0 0 0
0 0 0
0 0 0
0 0 0
0 0 0
0 0 0
0 0 0
0 0 0
0 0 0
36 9 9
61 17 16
66 19 18
65 18 16
60 16 15
53 16 14
61 15 14
68 18 17
59 18 15
56 17 14
67 18 16
61 17 15
60 15 14
61 17 15
57 16 14
48 13 11
63 16 14
67 20 19
51 37 34
65 51 50
77 62 58
65 56 50
76 59 57
69 51 48
81 64 62
70 54 50
87 70 64
67 46 43
79 60 57
62 45 38
74 53 49
84 69 63
75 49 48
76 56 47
72 57 50
80 63 59
80 54 49
91 76 73
85 64 62
75 59 54
71 59 57
72 54 49
77 63 57
76 63 58
84 58 57
83 65 62
84 60 55
85 67 65
81 66 61
84 74 69
87 62 60
91 72 69
78 63 59
75 65 59
79 61 58
72 57 51
84 65 62
81 63 61
90 79 75
83 58 56
78 62 59
74 59 55
85 74 68
82 73 69
86 64 61
89 83 77
74 57 53
80 59 55
82 67 60
83 75 69
74 69 63
76 64 58
79 62 57
81 60 57
85 72 67
79 78 70
77 64 55
78 70 64
70 57 52
83 65 60
90 77 74
80 72 68
84 74 68
77 69 65
74 58 55
75 70 62
71 52 47
77 67 61
74 59 54
77 68 60
90 86 80
79 68 62
71 57 54
71 56 50
68 65 54
80 71 64
77 68 62
77 72 64
76 70 65
80 69 64
76 71 67
79 71 67
74 56 50
88 83 76
81 82 71
71 61 57
57 51 42
74 71 62
78 66 62
65 60 54
81 68 62
92 82 76
83 79 74
76 67 63
74 59 53
77 78 73
73 73 65
71 66 60
75 68 63
76 73 66
81 72 66
79 71 67
75 66 61
69 68 61
79 80 74
69 66 57
88 87 81
76 76 68
67 70 63
79 74 68
74 68 62
69 70 63
66 63 57
75 77 66
65 64 55
70 74 63
74 73 64
81 84 73
71 74 63
67 68 60
76 76 70
74 75 70
71 69 62
77 72 64
62 67 53
80 81 74
78 85 71
84 82 73
77 77 71
81 75 68
72 71 60
61 72 56
74 80 70
66 64 57
74 71 60
68 68 61
70 76 64
75 71 65
67 66 53
77 71 65
78 79 70
70 66 58
81 78 72
66 68 55
72 75 65
55 59 46
72 76 66
57 62 52
79 78 71
72 78 64
65 73 60
88 85 77
79 78 69
64 72 58
70 73 63
68 73 65
68 66 57
59 73 57
66 77 64
69 71 61
67 74 64
80 81 74
76 73 64
55 61 49
71 74 65
72 74 65
61 73 60
66 73 62
65 73 61
69 71 62
73 81 67
66 77 65
67 71 59
60 63 54
61 67 55
60 71 55
67 74 61
65 78 61
67 71 60
66 74 58
66 76 64
69 77 65
69 71 61
64 69 58
59 63 52
77 81 73
68 68 58
70 75 63
68 80 66
52 57 45
59 67 53
70 74 59
57 63 47
45 57 43
66 71 59
61 63 54
65 71 60
72 78 70
56 62 52
57 69 55
57 62 48
61 70 58
54 59 51
66 69 61
64 70 60
60 65 54
62 65 58
53 57 47
27 43 22
26 47 24
28 50 26
28 46 25
32 53 28
27 51 27
30 54 29
33 56 31
25 46 24
32 54 30
31 55 30
27 50 27
29 50 27
27 46 26
24 40 22
29 51 28
22 41 22
0 0 0
0 0 0
0 0 0
0 0 0
0 0 0
0 0 0
0 0 0
0 0 0
0 0 0
0 0 0
0 0 0
27 7 7
55 16 14
59 17 15
60 17 15
60 16 15
71 19 18
74 19 18
65 18 16
62 17 16
62 18 16
68 17 16
74 20 19
62 19 16
57 15 14
66 18 17
65 17 15
71 18 17
58 18 15
67 19 16
65 47 44
63 48 44
76 66 64
62 44 38
76 54 51
71 53 51
63 48 42
75 56 50
68 60 54
73 59 53
75 47 44
72 57 53
80 64 60
75 60 57
77 46 42
68 39 37
80 68 64
76 56 50
73 52 48
81 56 51
78 63 58
79 67 62
78 52 49
73 58 53
82 68 65
85 73 67
71 54 49
79 64 58
75 54 51
78 58 55
79 57 55
70 48 42
86 66 62
80 59 55
80 62 55
76 57 55
81 60 54
70 55 50
85 66 61
81 66 64
76 68 63
83 61 57
81 64 59
74 59 55
80 62 57
85 69 66
88 75 69
74 61 55
95 82 78
81 66 63
80 63 59
74 56 50
74 57 52
85 68 64
76 62 57
84 72 66
71 54 49
83 64 61
84 69 65
83 73 66
77 60 58
79 72 66
75 68 61
88 85 79
81 70 65
83 71 66
86 79 73
91 77 71
88 84 79
89 79 75
73 59 51
79 64 58
85 76 71
80 66 62
82 74 70
83 75 68
80 75 70
63 55 50
77 73 67
78 71 66
92 84 78
94 80 76
67 66 55
71 71 62
73 63 56
71 62 54
78 80 73
76 66 60
72 66 61
78 73 65
81 79 73
81 76 70
88 83 76
76 76 71
78 71 62
88 88 80
82 74 65
81 72 65
70 67 60
68 59 48
70 62 55
82 84 75
89 80 75
81 75 68
87 81 74
69 67 60
87 84 76
82 71 65
78 74 70
78 77 69
66 63 55
77 65 59
86 83 77
78 75 70
74 68 61
71 73 61
70 68 59
81 78 73
75 73 66
88 83 75
71 72 63
73 75 66
76 70 61
68 70 60
72 75 65
68 68 59
63 70 60
71 67 59
81 77 70
65 65 55
87 86 79
75 79 71
77 79 70
72 66 58
65 70 56
75 66 59
64 72 62
78 78 71
75 73 66
69 71 64
69 69 62
73 76 65
80 82 72
69 67 58
84 86 78
70 74 63
81 82 71
81 83 76
61 65 52
73 77 67
88 88 80
57 61 49
73 79 68
74 76 65
68 72 59
77 80 71
65 70 59
76 80 68
73 81 68
77 82 72
74 74 63
72 72 63
77 79 71
79 77 68
78 84 72
67 75 64
69 82 66
81 84 75
65 77 60
65 72 58
82 81 72
64 68 57
75 78 68
69 76 65
73 77 64
70 76 65
67 71 60
71 77 66
60 64 51
63 71 55
68 79 63
67 73 63
57 63 53
59 68 51
49 63 49
60 72 59
67 74 64
67 76 63
57 60 47
54 59 46
74 86 74
71 81 69
64 70 59
64 71 60
63 70 57
64 66 55
62 67 56
61 71 60
56 64 53
61 69 58
67 70 61
51 57 46
62 69 59
63 74 62
53 56 45
73 76 69
57 58 50
41 46 34
26 45 24
23 39 21
27 48 26
29 52 28
29 50 27
28 50 25
28 51 28
29 51 28
29 51 28
32 54 30
29 54 29
28 53 29
27 47 25
29 53 29
30 54 30
26 44 24
32 55 30
25 42 23
0 0 0
0 0 0
0 0 0
0 0 0
0 0 0
0 0 0
0 0 0
0 0 0
0 0 0
0 0 0
0 0 0
30 8 8
67 19 17
64 18 16
68 18 17
67 18 16
69 19 18
61 18 16
62 16 15
61 16 15
62 18 15
62 17 15
63 17 15
66 18 16
58 17 15
72 18 16
64 18 15
68 18 16
61 17 16
59 13 11
50 14 13
65 38 36
64 47 44
70 51 49
75 51 46
81 66 63
68 55 49
79 68 63
72 53 50
85 72 66
77 56 53
82 57 56
76 49 44
80 59 54
80 58 56
69 49 45
80 59 55
73 62 59
81 63 59
80 60 57
85 64 61
86 65 61
78 53 46
83 59 56
69 57 48
87 64 60
74 55 50
70 50 45
87 69 65
79 53 49
83 72 67
78 62 58
82 62 59
87 64 61
89 74 70
82 61 56
84 70 65
77 63 57
74 58 53
71 45 38
80 63 59
73 57 51
79 61 58
84 78 72
97 79 77
76 63 59
79 71 65
90 76 72
79 62 59
89 80 76
73 61 55
88 72 66
73 60 53
87 69 66
68 58 55
78 62 55
80 60 56
89 84 78
75 63 58
85 74 68
83 77 72
77 65 61
84 69 66
93 76 72
59 55 48
78 58 54
88 78 73
74 66 57
91 76 70
77 62 58
74 69 61
78 66 62
75 68 62
91 84 79
89 79 75
88 81 76
78 70 66
77 67 57
81 68 65
83 77 72
78 70 66
83 78 72
86 87 79
90 76 72
85 78 69
85 70 65
79 70 63
89 78 75
72 63 57
94 86 81
76 69 64
77 66 58
90 83 78
76 69 58
70 62 54
73 65 56
76 68 63
78 73 67
74 74 67
75 63 57
84 82 74
73 70 61
77 70 63
78 73 67
77 74 66
76 80 70
67 65 58
82 73 68
74 70 62
74 76 65
70 74 62
84 80 76
78 73 65
82 83 78
87 87 79
78 77 67
70 63 57
84 85 75
84 83 76
73 67 59
70 68 60
82 78 72
70 68 61
76 76 68
79 77 70
72 79 66
85 85 76
77 79 72
68 69 61
78 83 74
81 77 70
73 71 63
73 73 66
76 76 64
71 65 58
82 81 74
76 78 70
75 78 70
70 74 63
65 71 59
94 96 88
68 73 63
71 74 64
79 79 68
72 73 63
75 79 72
66 73 63
72 72 64
72 79 65
80 75 69
75 75 67
79 84 74
73 72 63
72 76 66
87 89 82
68 73 61
65 74 62
68 70 61
53 63 50
75 80 69
68 71 61
77 75 66
61 61 48
68 75 60
78 79 71
62 68 54
74 81 70
59 62 51
66 73 59
77 81 72
62 74 61
63 68 57
70 74 65
73 75 66
67 78 65
74 79 70
75 80 69
68 82 62
52 66 50
62 70 58
69 77 63
72 81 68
63 68 56
61 71 58
56 64 52
66 75 65
76 83 70
65 74 59
75 81 70
60 71 59
70 77 66
78 82 71
62 75 61
67 74 61
63 74 59
60 67 55
56 64 51
53 63 49
51 63 49
64 65 59
48 60 45
73 76 67
64 68 57
64 67 57
62 67 58
58 61 52
55 56 47
32 54 29
31 51 27
30 46 25
27 49 26
31 52 29
32 58 30
28 49 26
29 49 27
30 56 31
29 53 29
29 49 27
30 56 31
30 53 29
30 51 28
29 52 29
31 56 31
26 49 26
32 58 33
27 49 27
0 0 0
0 0 0
0 0 0
0 0 0
0 0 0
0 0 0
0 0 0
0 0 0
0 0 0
0 0 0
0 0 0
23 5 5
60 17 16
62 17 15
65 18 17
62 18 16
64 19 17
71 19 18
73 19 18
67 18 17
68 18 17
76 22 20
62 18 16
76 21 20
65 19 17
57 16 14
56 16 14
67 19 17
60 16 14
65 18 16
57 14 13
63 25 24
61 52 45
65 52 49
69 55 51
77 56 53
80 64 61
64 46 42
76 62 57
73 57 51
84 59 56
73 58 52
84 52 47
66 43 37
61 39 35
83 63 63
74 53 50
74 56 52
89 75 72
87 60 59
77 57 54
80 63 59
80 60 58
81 66 58
68 48 46
83 64 59
80 57 54
86 69 65
90 69 66
78 58 52
90 80 76
78 57 51
77 54 52
91 76 72
83 68 66
85 62 57
87 68 62
81 62 56
82 71 65
85 76 72
84 65 59
79 55 48
82 72 66
93 78 75
86 73 67
91 70 68
85 67 63
81 65 61
86 67 63
83 66 60
80 59 56
73 57 49
95 85 83
89 70 66
97 83 80
76 66 60
78 62 54
89 81 74
88 74 70
74 59 55
76 69 64
77 63 59
98 80 78
72 55 50
77 70 65
94 90 82
81 76 70
84 77 74
77 74 68
85 77 71
85 73 70
85 78 72
83 79 73
90 83 77
80 67 64
85 75 69
89 77 72
75 65 59
76 63 55
85 69 65
81 77 69
83 75 69
78 71 64
70 66 58
83 76 69
86 77 72
74 68 63
87 84 76
84 77 71
73 73 66
78 74 64
81 77 70
70 69 58
68 60 54
88 79 74
85 72 66
84 84 74
75 70 63
72 65 57
71 66 58
79 75 68
81 65 58
76 73 63
85 83 75
86 86 81
84 82 76
83 83 74
76 71 60
67 66 56
74 76 66
78 77 67
84 78 70
76 74 66
86 85 78
66 62 53
86 77 70
87 86 79
66 67 59
85 76 70
80 66 63
84 76 67
71 78 66
85 82 74
75 70 62
76 71 64
74 69 64
80 83 74
80 80 73
67 68 60
71 73 63
64 70 57
83 87 79
81 79 67
84 79 73
65 66 56
80 77 69
76 79 66
74 76 68
65 67 56
73 77 64
71 75 61
74 77 67
76 78 70
68 73 61
79 82 71
87 90 83
90 92 84
76 76 65
69 66 59
69 78 64
69 74 66
78 76 67
72 76 65
71 77 63
81 85 74
79 82 74
72 78 65
62 72 59
60 73 57
77 82 70
72 79 67
75 79 66
57 69 53
74 80 70
71 70 62
72 74 61
72 72 61
62 69 55
63 76 62
66 74 60
68 75 62
70 75 62
71 75 68
70 79 66
74 72 64
77 83 74
72 76 64
74 72 64
70 71 61
67 74 63
75 78 68
75 79 68
69 75 65
62 67 56
63 70 55
68 78 65
69 82 66
89 92 83
57 66 51
70 77 66
66 78 61
63 73 58
62 67 55
62 65 52
60 69 57
58 70 57
52 69 52
72 74 64
57 64 54
47 55 42
47 59 42
78 86 73
68 71 64
55 57 46
66 71 64
42 52 37
30 56 30
29 50 27
33 57 30
26 41 21
30 52 28
30 49 27
29 48 25
29 51 28
32 58 32
30 50 28
34 61 33
26 46 25
28 53 29
29 55 30
31 60 32
28 51 28
28 51 28
30 54 30
29 53 29
20 37 21
0 0 0
0 0 0
0 0 0
0 0 0
0 0 0
0 0 0
0 0 0
0 0 0
0 0 0
0 0 0
0 0 0
41 11 11
58 15 14
77 21 20
67 19 17
74 20 19
54 16 14
62 17 16
69 18 17
72 20 18
68 18 16
72 20 18
67 18 16
62 17 16
62 17 15
68 20 18
63 17 15
55 17 14
63 17 15
63 17 15
58 17 14
61 18 15
68 32 30
69 45 44
67 51 47
74 52 49
60 38 31
75 50 46
68 45 42
74 56 51
85 72 68
82 62 59
84 69 62
77 56 52
75 54 51
79 66 63
76 66 58
78 61 57
70 49 45
95 77 76
88 65 62
90 71 70
81 60 57
66 41 36
90 69 68
83 63 58
78 63 58
75 53 48
90 70 68
82 60 57
93 86 82
94 71 69
87 54 48
72 52 45
83 63 59
74 56 51
74 63 58
79 65 61
77 69 66
68 59 50
89 68 62
80 66 62
86 74 68
80 67 63
84 66 62
79 69 63
95 79 76
88 73 69
75 68 58
83 67 62
78 61 54
83 67 63
75 62 58
83 64 62
91 75 71
86 67 64
86 67 61
84 66 61
85 69 64
89 81 75
88 71 67
97 78 75
98 89 84
85 71 65
85 81 75
85 72 67
97 90 84
90 77 74
90 71 67
76 67 61
85 79 73
86 78 72
83 73 67
80 67 61
79 69 59
84 62 57
85 76 71
99 87 84
89 78 72
76 72 63
83 79 72
88 78 73
68 64 55
92 79 74
96 84 79
75 64 59
81 75 69
84 82 74
96 91 85
88 81 77
95 91 88
71 67 60
84 82 76
80 73 66
83 77 72
87 80 75
79 85 75
96 83 79
92 89 82
77 71 65
96 82 77
74 69 61
80 76 69
90 82 77
77 70 64
97 88 84
88 83 76
82 71 63
85 82 72
84 81 74
73 73 62
78 79 70
89 82 75
94 91 85
81 86 77
87 86 81
67 71 59
76 67 60
82 76 70
84 89 79
85 86 77
90 87 79
89 88 81
76 80 72
78 66 59
86 89 79
81 77 67
73 66 59
69 73 63
68 68 56
91 81 73
68 69 59
87 84 77
69 74 63
76 82 72
76 74 64
78 77 68
85 84 75
70 74 62
70 75 64
69 65 56
82 90 80
69 67 57
81 88 78
70 70 62
80 82 73
73 78 65
62 67 52
74 76 67
79 81 73
83 84 75
71 71 60
73 77 63
77 77 68
63 74 58
69 79 67
68 68 56
67 76 60
80 91 75
72 79 69
84 85 78
75 83 70
68 78 66
68 73 63
64 73 57
70 70 62
69 74 61
75 80 67
84 89 80
73 79 65
66 69 59
69 78 64
67 75 63
64 67 53
62 73 58
72 81 69
63 70 56
61 71 59
62 71 55
62 73 58
72 79 67
66 70 57
66 78 64
50 60 45
67 74 60
70 78 65
74 78 70
65 71 57
75 84 72
58 67 54
65 72 57
62 70 56
67 77 63
77 74 63
53 61 47
53 69 50
69 80 65
70 68 58
69 75 65
68 71 62
59 59 51
63 67 55
71 77 70
59 59 51
42 54 40
28 52 28
25 44 22
30 52 29
29 58 31
25 46 24
31 57 32
33 58 32
29 52 27
32 52 28
33 59 32
28 49 27
29 49 27
31 52 29
32 57 31
30 52 28
29 53 29
27 48 27
33 59 33
30 48 27
30 54 31
23 42 23
0 0 0
0 0 0
0 0 0
0 0 0
0 0 0
0 0 0
0 0 0
0 0 0
0 0 0
0 0 0
0 0 0
34 8 8
64 18 17
63 18 16
60 17 15
72 20 19
70 20 19
73 19 18
64 18 16
72 19 17
69 20 18
72 19 18
71 18 17
68 19 17
71 19 18
79 21 19
57 17 15
69 20 17
76 21 19
70 18 17
84 23 22
67 19 16
61 15 13
55 14 13
75 54 50
60 44 37
80 64 62
80 62 59
69 48 45
81 63 61
67 44 39
78 59 56
77 59 54
68 52 49
81 63 61
74 52 50
78 56 54
85 64 60
82 68 63
75 54 52
84 64 61
72 54 49
78 49 47
82 56 53
78 62 58
86 66 58
80 62 57
91 74 72
76 55 50
82 66 61
92 74 71
96 78 76
84 65 60
78 55 51
100 81 78
92 78 73
81 62 57
83 60 57
82 68 62
96 73 70
77 61 56
91 73 69
79 61 57
92 69 66
81 61 58
74 59 52
77 64 58
72 54 49
79 67 58
80 68 63
85 67 65
97 78 74
88 72 68
81 68 62
90 78 72
86 72 68
96 74 71
93 74 70
92 82 79
90 70 66
85 67 63
92 73 70
85 77 71
81 69 62
79 66 57
91 82 79
77 69 59
75 54 51
92 79 75
84 71 66
88 76 73
79 74 71
88 74 70
95 93 87
98 86 82
79 60 56
81 74 67
83 72 64
90 84 79
84 83 77
84 74 69
86 74 66
86 72 68
82 72 68
87 74 67
100 90 86
93 78 75
80 76 67
82 77 71
85 76 69
80 70 64
85 75 70
84 82 72
83 76 71
77 80 72
73 70 60
80 79 69
89 77 73
81 76 68
88 79 74
78 65 59
91 84 77
87 84 79
87 87 78
71 72 61
88 79 71
85 86 78
101 100 95
88 76 70
92 87 81
86 81 73
85 83 71
79 73 66
94 91 85
68 68 58
75 74 69
81 80 74
76 80 72
80 81 73
64 67 57
80 81 75
76 81 70
82 83 75
79 77 67
84 84 76
83 76 69
79 76 69
79 79 70
76 74 65
77 81 72
79 71 64
88 77 69
76 79 69
69 77 66
82 78 70
87 90 81
62 63 52
67 72 54
72 72 62
74 78 69
79 80 72
80 76 67
71 76 66
87 90 79
67 75 63
77 74 64
82 86 74
62 64 55
73 72 60
75 81 70
81 80 69
65 71 59
72 79 68
70 75 65
81 82 73
74 80 68
63 74 59
73 78 65
75 76 65
66 73 59
78 84 73
65 74 59
61 70 54
58 75 56
73 78 66
69 72 64
73 75 62
74 80 69
75 82 66
62 72 57
58 66 51
69 74 63
71 81 69
69 72 61
62 67 53
56 66 52
56 64 50
66 81 64
64 69 58
66 73 59
60 68 52
66 75 63
75 84 69
71 81 68
76 86 74
77 84 73
76 81 69
58 69 54
74 84 73
74 79 71
72 74 64
81 82 73
62 72 58
62 76 60
63 64 54
70 76 64
64 74 62
72 77 67
68 73 66
72 73 65
56 61 49
53 52 45
57 56 51
39 51 37
32 57 31
27 47 24
30 53 29
32 57 31
29 51 28
29 48 27
28 51 27
33 61 33
31 55 30
29 54 29
35 61 34
33 59 32
32 59 32
33 56 30
29 51 28
32 57 32
28 54 30
27 51 28
31 54 30
26 48 27
30 51 28
21 39 21
0 0 0
0 0 0
0 0 0
0 0 0
0 0 0
0 0 0
0 0 0
0 0 0
0 0 0
0 0 0
0 0 0
27 7 7
76 21 20
64 19 17
69 21 19
70 19 18
62 18 16
66 19 17
66 18 16
68 19 18
74 20 19
69 18 16
63 17 16
64 18 16
65 18 16
74 20 18
73 20 19
72 19 17
73 20 18
62 17 15
73 19 18
65 15 14
63 18 16
61 18 15
58 15 13
79 65 62
70 59 51
82 61 59
76 58 54
76 59 54
84 67 63
84 70 65
77 60 57
78 63 59
75 47 45
83 50 47
89 65 61
77 49 46
84 58 57
82 60 57
84 59 56
88 69 67
75 61 58
82 61 58
82 67 60
95 72 69
89 69 62
83 57 52
71 55 52
79 61 53
90 67 65
86 69 64
92 69 66
83 65 60
90 73 68
87 74 69
78 61 55
97 76 72
96 74 71
89 72 67
94 79 74
81 62 57
105 79 76
92 76 66
86 64 61
89 72 69
95 74 70
89 74 72
81 64 61
79 59 52
83 70 64
86 69 66
90 68 66
88 67 65
95 85 80
86 72 66
86 74 71
76 62 55
82 70 65
95 79 74
81 68 60
86 81 75
86 74 67
80 69 64
83 75 71
91 76 68
96 84 78
99 84 79
83 74 68
71 57 53
89 90 82
83 73 67
85 69 63
82 72 63
78 68 61
80 73 65
72 66 59
81 70 65
102 87 83
85 68 61
83 76 68
91 82 77
71 61 54
87 74 72
94 82 78
92 85 79
95 90 85
78 67 62
83 74 66
87 86 77
79 74 66
71 71 60
83 81 74
81 72 66
94 92 86
84 71 66
93 81 75
86 77 70
86 87 80
75 62 58
95 96 88
85 85 77
86 83 76
74 71 65
83 78 70
89 91 80
81 80 73
80 69 61
88 78 75
79 78 73
74 75 64
92 87 82
71 73 62
93 89 84
82 82 75
86 84 77
76 81 71
88 90 81
80 82 73
86 81 76
87 92 82
78 76 63
77 82 73
85 86 77
78 81 71
85 81 74
76 76 63
73 75 66
71 76 64
79 78 68
71 75 64
71 76 64
81 81 73
79 83 74
80 80 71
75 84 66
70 77 65
76 79 69
84 89 78
67 64 53
73 80 70
69 75 63
77 81 71
79 82 73
84 90 78
77 83 74
74 79 69
82 85 78
69 77 66
84 87 76
74 80 69
70 81 69
76 77 68
76 82 69
78 80 69
84 85 74
75 82 67
75 81 71
70 71 60
75 78 66
71 70 61
70 74 62
64 72 55
62 71 57
73 80 65
71 73 62
74 80 69
68 79 60
74 79 66
76 81 71
68 74 62
60 67 53
54 64 51
68 71 57
70 72 60
77 78 68
67 80 63
84 91 81
53 70 51
73 78 68
75 81 70
68 74 61
58 65 49
66 77 60
63 62 49
68 72 61
64 78 61
49 61 42
65 73 60
66 78 61
70 79 66
61 62 49
63 77 62
66 76 63
61 70 59
63 65 54
76 77 66
58 67 55
60 68 54
66 70 61
61 68 53
62 65 54
50 61 47
27 54 29
28 52 27
27 49 25
27 48 26
32 53 29
35 65 36
28 49 26
33 59 31
28 50 26
31 53 29
30 56 30
31 50 27
32 56 31
29 51 28
29 56 30
33 55 31
32 58 33
32 52 29
32 56 30
29 48 27
35 59 33
27 49 27
28 51 29
0 0 0
0 0 0
0 0 0
0 0 0
0 0 0
0 0 0
0 0 0
0 0 0
0 0 0
0 0 0
0 0 0
30 8 7
75 21 20
67 19 17
69 19 18
72 20 19
66 19 17
69 20 18
73 19 18
73 19 18
70 20 18
74 20 18
79 21 20
73 21 19
70 20 18
71 19 17
69 19 17
76 20 18
65 18 17
69 19 17
72 19 17
86 23 21
74 19 18
64 18 16
63 17 16
72 24 21
68 43 40
75 58 54
73 60 57
74 57 52
82 61 59
84 70 65
75 60 56
79 64 60
74 53 50
77 60 56
77 57 52
85 63 59
99 76 74
82 69 62
89 72 68
79 54 51
80 60 56
77 53 48
84 66 61
84 59 56
84 64 62
96 74 72
87 72 68
82 62 59
84 54 51
84 64 61
96 75 73
88 67 64
85 71 67
103 81 79
83 63 53
92 80 76
96 67 65
86 67 60
90 74 66
96 80 74
87 66 63
87 72 70
82 68 63
96 78 72
91 70 63
88 71 67
82 61 56
84 65 60
99 89 85
66 60 52
90 67 62
86 66 62
88 75 67
100 89 84
81 73 69
92 79 76
97 86 81
87 76 73
92 81 75
81 67 62
98 87 83
84 74 68
95 77 72
90 81 76
94 81 75
83 67 61
95 81 75
95 86 78
87 82 76
78 62 57
76 70 64
83 72 68
90 82 78
95 85 83
83 73 68
99 90 87
105 95 91
83 78 73
89 75 69
87 76 69
86 77 72
88 83 77
88 73 67
82 75 67
86 78 72
83 77 68
88 86 78
87 83 73
78 75 69
80 70 63
77 72 62
87 83 76
82 77 67
76 77 69
90 80 76
53 51 44
71 67 57
91 82 77
96 87 82
75 72 63
86 79 74
83 82 72
85 83 73
79 81 73
91 89 83
81 74 66
78 74 67
90 82 74
88 85 78
81 80 72
92 95 84
83 80 71
76 70 62
84 88 79
81 80 71
89 79 74
91 88 81
81 82 72
90 94 85
83 78 71
68 68 60
84 89 79
84 85 76
71 73 63
80 75 67
88 90 84
87 89 77
74 72 58
92 94 83
94 91 83
89 89 81
83 83 74
77 75 65
77 76 66
87 81 74
75 81 70
73 75 65
74 74 63
74 80 66
85 84 76
77 82 71
80 85 75
71 61 53
83 87 76
70 82 67
80 83 71
83 84 75
74 80 69
73 79 69
93 93 82
71 77 65
72 79 67
71 79 66
59 69 56
79 82 72
77 81 68
76 83 71
78 84 71
69 78 62
69 75 64
73 79 69
64 73 59
69 80 65
69 80 66
70 73 62
64 74 60
77 87 70
64 79 63
78 85 74
88 96 84
68 77 64
65 73 60
90 91 82
68 78 61
60 72 57
70 77 65
62 77 61
62 76 61
71 81 65
79 85 73
69 79 65
63 69 55
57 70 54
72 83 70
75 86 72
63 81 62
71 82 69
72 82 67
68 77 62
58 66 53
58 72 57
63 73 61
55 63 51
75 78 70
63 64 51
62 67 55
54 65 51
52 60 46
71 73 64
35 42 32
26 48 25
31 58 31
32 60 31
31 58 30
35 67 36
31 54 29
34 61 33
33 62 34
34 58 32
35 68 37
32 61 33
34 57 31
32 57 31
35 62 34
33 60 33
33 58 31
34 58 33
33 57 32
33 63 34
33 60 34
29 54 30
35 59 33
32 60 33
24 45 25
0 0 0
0 0 0
0 0 0
0 0 0
0 0 0
0 0 0
0 0 0
0 0 0
0 0 0
0 0 0
0 0 0
36 10 9
59 17 15
61 17 16
70 19 18
65 18 16
68 18 17
73 20 18
78 21 20
66 18 17
76 21 20
72 21 19
81 22 21
81 22 21
75 19 18
75 21 19
73 19 17
79 21 20
81 23 21
82 22 21
74 21 19
65 18 16
75 20 18
68 18 17
76 21 19
62 17 15
63 22 20
78 60 57
69 47 43
78 64 62
79 69 65
76 57 55
79 64 62
88 64 61
81 53 52
77 54 49
82 62 58
87 64 61
91 66 63
84 60 58
80 68 65
73 55 51
89 76 73
78 61 58
94 70 68
84 61 56
86 55 51
88 66 61
76 56 49
84 66 62
88 59 57
84 65 62
91 68 64
79 59 55
84 70 66
80 54 48
89 67 64
95 79 76
89 60 57
99 83 80
94 74 71
98 78 74
91 72 70
97 88 82
90 64 61
83 69 61
93 76 74
96 76 70
86 66 60
90 71 68
100 80 78
87 70 66
88 73 68
84 60 56
83 64 59
84 65 61
90 69 64
93 84 81
97 84 82
86 73 66
84 73 67
99 83 79
98 82 75
94 86 79
88 73 71
103 85 82
103 92 87
97 83 79
80 63 57
85 80 73
98 85 81
84 78 68
89 78 73
98 88 85
80 74 67
105 97 95
95 91 85
90 71 66
101 95 90
82 67 59
98 86 82
90 76 72
94 83 80
97 93 85
85 85 76
91 88 82
93 93 86
88 76 70
82 80 72
93 86 81
74 73 63
94 93 87
88 78 71
90 82 74
86 78 73
86 75 68
86 87 77
84 77 71
93 79 75
89 77 70
95 96 88
82 78 68
93 88 84
75 77 67
89 89 83
75 72 65
84 80 73
80 75 65
80 81 71
81 85 76
88 89 80
84 80 71
89 82 76
91 86 80
85 87 78
83 82 74
84 81 75
67 67 56
97 94 89
81 73 65
87 81 74
79 74 63
78 78 65
91 86 78
89 79 74
80 79 68
72 74 65
84 89 79
80 82 74
86 89 78
82 87 76
77 86 75
78 79 68
85 91 80
89 92 82
84 86 77
70 69 59
79 84 70
74 80 69
78 79 68
74 78 68
83 86 76
91 89 82
77 84 72
69 80 66
79 85 73
76 81 68
79 87 75
68 75 65
89 92 82
83 87 78
73 70 59
68 74 62
74 74 65
82 91 77
79 82 69
80 83 72
75 78 67
80 85 74
70 71 59
76 87 71
67 72 57
72 80 70
87 91 80
72 76 60
65 80 63
79 79 68
67 78 65
66 70 61
73 84 69
77 86 73
65 77 59
68 74 59
61 73 56
59 71 57
69 75 61
66 76 61
87 94 83
58 72 53
58 68 54
69 80 66
56 70 54
68 78 66
58 76 57
67 73 58
64 75 60
66 78 63
73 81 70
71 78 66
63 68 55
73 80 67
56 71 53
53 63 50
58 75 57
61 70 57
67 80 64
59 69 57
61 71 57
54 55 46
60 66 56
40 54 38
26 47 25
34 60 33
38 69 39
27 50 26
26 45 23
33 59 32
31 58 32
30 52 28
33 61 32
34 60 33
33 62 34
33 54 29
34 67 35
31 57 32
35 66 36
34 61 34
35 66 36
33 64 35
29 52 29
33 61 33
32 62 33
31 54 30
32 57 31
36 61 34
30 56 32
0 0 0
0 0 0
0 0 0
0 0 0
0 0 0
0 0 0
0 0 0
0 0 0
0 0 0
0 0 0
0 0 0
31 9 8
77 21 20
67 19 17
73 21 20
71 19 18
80 22 21
66 19 17
69 20 18
65 18 16
72 20 18
77 20 19
78 21 20
79 21 20
74 21 19
74 21 19
68 20 18
73 21 19
66 19 17
73 18 18
66 18 16
72 19 18
85 23 22
68 17 16
72 19 17
78 21 20
71 18 17
70 18 17
69 43 42
80 63 60
77 59 56
66 49 46
89 65 65
74 49 47
86 60 58
86 67 63
83 71 66
76 62 60
81 63 59
84 60 58
81 62 55
90 74 69
92 59 56
82 60 59
79 54 49
95 70 66
77 55 48
77 50 47
76 48 43
99 82 81
91 64 60
87 61 57
87 69 63
78 61 54
77 62 58
100 88 82
82 64 59
81 64 59
84 72 70
88 69 67
88 75 71
88 65 60
95 78 75
81 61 56
85 70 66
87 64 61
88 69 64
94 77 72
99 85 80
90 75 71
100 86 83
91 76 72
101 86 81
93 74 69
99 83 81
95 79 76
94 81 75
102 88 83
99 92 86
78 70 66
84 75 66
90 79 75
81 69 64
91 76 73
91 76 71
98 83 79
83 73 66
85 78 73
96 86 80
82 72 65
89 75 70
101 91 87
81 71 66
96 90 84
77 75 63
89 74 70
86 80 76
99 92 88
81 70 64
91 85 78
102 96 91
79 73 66
95 86 80
94 86 82
88 82 76
94 91 83
86 87 79
88 76 72
90 80 72
86 78 71
96 91 82
82 74 67
92 84 78
83 79 71
90 90 81
84 84 75
79 82 75
82 77 70
91 81 72
91 85 78
82 80 70
77 73 64
85 80 73
71 69 61
87 89 78
89 84 78
89 81 75
104 104 98
80 77 68
103 93 90
79 74 67
83 75 68
85 80 71
91 87 80
76 77 66
88 78 70
87 91 84
94 89 83
87 82 73
90 93 86
83 86 76
74 76 65
89 90 80
96 93 87
89 89 81
79 79 68
85 91 77
87 85 75
88 85 77
86 86 77
83 81 71
94 97 86
75 78 68
82 84 72
81 80 71
93 94 87
80 82 71
76 82 71
76 77 70
74 81 69
93 93 86
64 77 61
78 80 70
80 83 70
82 82 74
86 91 80
73 83 71
76 80 69
80 83 71
67 73 58
69 71 60
78 82 71
72 77 65
83 87 79
70 78 65
69 81 66
72 87 70
66 78 64
71 75 62
80 83 72
69 81 68
72 78 67
77 83 70
78 81 71
66 83 66
82 82 70
72 80 68
75 79 68
64 74 59
79 84 74
72 78 66
60 72 56
67 73 58
65 79 64
78 83 70
74 83 70
75 70 61
80 87 72
68 77 63
61 71 57
71 78 62
59 68 55
71 68 58
75 79 70
72 83 67
68 75 62
64 79 63
56 69 51
73 79 65
62 69 55
65 76 61
60 68 55
53 61 51
69 78 66
49 64 48
51 68 48
64 70 57
48 54 43
69 67 59
42 50 37
26 51 26
29 54 29
36 66 36
31 54 29
31 61 32
36 66 36
33 57 32
30 57 30
33 59 32
32 58 31
34 63 35
37 65 36
34 66 36
33 54 30
32 55 30
34 59 33
35 68 37
33 60 33
32 58 32
35 65 36
35 61 34
33 58 32
32 59 33
30 55 30
30 54 30
29 53 30
0 0 0
0 0 0
0 0 0
0 0 0
0 0 0
0 0 0
0 0 0
0 0 0
0 0 0
0 0 0
0 0 0
37 9 9
64 18 17
65 18 17
71 20 18
78 21 20
73 21 20
67 20 18
81 22 21
66 18 17
83 23 22
71 19 18
78 22 21
87 25 23
80 22 21
79 22 20
82 22 20
82 22 21
84 23 22
77 21 19
79 21 20
67 19 17
79 23 21
64 17 15
74 20 18
63 18 15
77 19 18
68 18 17
69 19 17
77 50 48
66 55 51
82 65 63
75 60 57
80 60 57
83 62 59
88 66 62
69 48 45
90 71 65
87 71 65
84 67 64
83 66 62
81 52 50
80 57 52
93 71 68
87 55 53
84 65 62
96 75 71
77 53 49
96 76 73
88 60 56
93 69 62
87 65 60
81 65 59
80 62 58
89 67 61
105 79 76
92 74 72
88 72 69
95 76 69
83 60 57
84 70 64
85 69 65
94 69 66
91 73 69
84 64 58
105 83 78
98 89 85
80 64 59
88 77 72
96 85 80
98 79 76
86 75 67
101 84 81
88 68 65
74 53 46
85 68 64
84 74 69
82 68 61
80 70 63
100 85 79
97 88 82
106 95 90
84 72 66
98 82 78
104 91 86
94 87 79
83 73 67
99 83 80
95 86 82
81 69 62
95 86 82
109 102 97
93 91 83
99 86 81
83 79 72
83 70 64
95 88 83
93 80 74
94 83 79
76 71 62
89 80 75
255 255 255
255 255 255
255 255 255
255 255 255
255 255 255
255 255 255
255 255 255
255 255 255
255 255 255
255 255 255
255 255 255
255 255 255
255 255 255
255 255 255
255 255 255
255 255 255
255 255 255
255 255 255
255 255 255
255 255 255
255 255 255
255 255 255
255 255 255
255 255 255
255 255 255
255 255 255
255 255 255
255 255 255
255 255 255
255 255 255
255 255 255
255 255 255
255 255 255
255 255 255
255 255 255
255 255 255
255 255 255
255 255 255
255 255 255
255 255 255
255 255 255
255 255 255
255 255 255
255 255 255
255 255 255
255 255 255
88 89 77
82 84 73
82 85 75
100 90 84
89 91 80
91 93 81
76 81 69
83 83 73
81 85 75
81 92 78
82 85 76
83 87 78
72 73 61
89 92 79
78 82 71
76 80 70
89 88 78
70 76 63
83 94 81
67 76 63
64 72 60
80 85 76
67 76 64
77 82 70
83 85 76
80 88 73
77 83 70
87 89 79
77 80 69
79 83 71
83 85 77
73 80 68
80 82 75
70 82 67
90 92 83
69 74 63
64 75 60
71 81 67
58 79 56
79 84 74
65 73 61
72 78 67
78 79 65
76 83 68
67 76 61
70 80 67
66 71 57
66 77 61
67 79 64
69 85 68
84 92 79
68 78 65
63 75 60
75 86 71
64 71 58
70 75 63
68 79 62
69 74 61
72 78 66
57 72 56
74 78 68
67 78 63
63 73 57
66 77 63
73 81 68
56 68 53
61 72 59
61 76 60
64 73 63
66 75 64
58 65 56
45 59 42
30 55 29
34 63 33
30 51 27
36 63 34
35 59 31
34 60 33
36 67 37
37 61 33
33 59 32
34 60 32
33 65 34
35 67 36
38 69 38
32 61 33
35 64 35
36 59 33
33 60 33
30 55 31
34 63 34
35 62 35
34 61 34
35 61 34
32 58 32
34 63 35
35 59 33
31 52 29
28 45 25
0 0 0
0 0 0
0 0 0
0 0 0
0 0 0
0 0 0
0 0 0
0 0 0
0 0 0
0 0 0
0 0 0
30 9 8
67 19 18
68 18 17
69 19 18
73 20 19
77 22 21
70 19 18
83 22 21
67 20 18
68 19 18
78 21 19
69 19 17
78 22 20
73 20 18
92 26 24
78 22 21
84 23 22
78 21 20
75 20 18
65 18 16
76 21 19
68 17 16
72 19 17
69 18 17
64 18 16
73 20 18
70 20 17
67 17 16
67 18 17
79 63 61
86 67 63
70 48 45
84 62 60
83 62 58
89 73 71
84 58 55
90 73 69
85 63 59
84 64 61
87 58 52
92 69 65
94 77 75
88 67 60
81 62 58
97 68 66
93 79 75
85 59 53
85 59 53
91 73 70
95 70 67
100 75 71
91 61 57
86 64 61
86 60 56
83 61 55
98 83 79
87 65 62
92 71 67
94 64 61
88 66 61
80 67 60
86 66 61
97 85 82
90 84 77
92 73 69
90 79 72
102 83 78
92 73 65
90 83 77
99 87 83
89 72 67
87 77 73
88 73 69
99 81 78
89 78 73
102 87 83
94 79 75
84 76 70
87 67 60
91 81 74
99 85 81
110 96 94
87 74 69
108 87 84
97 82 79
101 90 86
87 73 69
89 68 62
94 90 80
110 100 96
95 84 78
97 91 85
88 85 77
87 75 68
85 70 63
87 70 63
95 82 79
101 93 88
92 88 81
90 80 70
217 215 214
255 255 255
255 255 255
255 255 255
255 255 255
255 255 255
255 255 255
255 255 255
255 255 255
255 255 255
255 255 255
255 255 255
255 255 255
255 255 255
255 255 255
255 255 255
255 255 255
255 255 255
255 255 255
255 255 255
255 255 255
255 255 255
255 255 255
255 255 255
255 255 255
255 255 255
255 255 255
255 255 255
255 255 255
255 255 255
255 255 255
255 255 255
255 255 255
255 255 255
255 255 255
255 255 255
255 255 255
255 255 255
255 255 255
255 255 255
255 255 255
255 255 255
255 255 255
255 255 255
255 255 255
255 255 255
96 93 87
87 90 79
84 84 75
96 91 85
82 87 76
83 86 78
72 74 62
75 83 70
91 93 83
82 86 77
88 95 83
86 94 81
87 83 75
76 79 69
78 78 66
88 95 86
82 88 76
79 83 73
67 75 62
80 85 76
88 95 83
71 84 68
78 82 70
78 81 70
75 78 65
74 79 67
75 79 67
78 85 70
79 87 71
75 74 66
87 96 83
82 89 78
77 83 69
75 79 68
72 80 68
83 88 76
71 85 70
65 77 60
77 86 74
69 83 66
75 85 71
76 83 73
73 87 72
70 80 66
73 82 70
81 89 74
78 86 75
70 80 65
74 84 68
59 74 55
65 74 59
66 80 65
73 79 65
77 84 70
64 76 59
73 77 64
70 81 66
61 74 58
64 77 60
81 82 71
65 75 64
67 76 63
67 79 64
60 69 57
70 79 63
60 66 52
74 79 69
64 73 58
60 67 56
65 73 62
50 56 43
28 42 22
31 55 30
31 52 28
28 52 27
35 64 34
34 61 33
35 68 37
30 56 30
36 65 35
35 65 34
33 60 32
37 68 37
39 69 39
32 59 32
30 56 31
33 61 33
35 62 34
34 63 35
32 57 31
34 61 34
34 62 35
31 52 29
32 61 33
35 59 33
37 67 38
33 56 31
34 60 34
29 49 27
0 0 0
0 0 0
0 0 0
0 0 0
0 0 0
0 0 0
0 0 0
0 0 0
0 0 0
0 0 0
0 0 0
27 8 7
62 18 16
70 21 18
75 21 20
75 21 19
81 22 21
74 21 19
81 21 20
75 21 19
74 20 19
84 23 22
75 21 20
70 19 17
79 21 20
69 19 17
79 22 20
75 22 19
76 21 19
75 21 19
81 23 21
83 23 21
80 22 20
68 17 16
82 22 20
78 21 19
71 20 18
74 19 17
74 21 19
68 18 16
69 24 23
77 57 55
81 60 59
81 67 64
77 62 60
76 50 44
90 65 64
83 63 60
89 66 65
84 57 52
85 65 62
94 66 63
85 60 56
81 59 55
96 81 78
90 67 62
79 58 50
88 73 69
93 72 71
83 59 55
88 73 71
97 76 74
99 69 67
92 82 80
72 57 54
83 67 63
91 83 76
84 68 62
99 82 78
92 78 73
85 64 61
87 61 56
84 67 63
90 67 64
87 68 62
85 64 57
88 65 60
82 70 65
92 83 79
83 69 64
88 76 70
94 78 74
90 72 69
95 65 60
112 98 96
89 72 65
104 86 83
94 73 68
97 87 81
106 93 88
95 87 80
91 73 69
95 83 79
77 68 63
92 76 72
93 80 75
95 79 76
90 84 79
91 73 69
88 75 70
100 95 88
106 97 94
77 74 68
108 99 94
94 86 82
99 89 84
96 84 79
100 97 90
102 98 92
79 76 68
90 79 74
93 82 79
255 255 255
255 255 255
255 255 255
255 255 255
255 255 255
255 255 255
255 255 255
255 255 255
255 255 255
255 255 255
255 255 255
255 255 255
255 255 255
255 255 255
255 255 255
255 255 255
255 255 255
255 255 255
255 255 255
255 255 255
255 255 255
255 255 255
255 255 255
255 255 255
255 255 255
255 255 255
255 255 255
255 255 255
255 255 255
255 255 255
255 255 255
255 255 255
255 255 255
255 255 255
255 255 255
255 255 255
255 255 255
255 255 255
255 255 255
255 255 255
255 255 255
255 255 255
255 255 255
255 255 255
78 79 69
92 91 84
83 86 77
86 84 74
83 89 79
93 90 83
88 90 81
91 86 79
78 81 69
87 89 82
81 79 70
70 80 67
88 97 84
89 90 81
76 80 69
74 69 60
85 89 78
82 83 74
84 84 75
74 81 66
75 82 69
66 76 62
82 91 77
82 80 68
91 94 85
71 80 67
75 77 68
72 81 66
81 91 78
78 80 71
71 74 62
81 84 74
82 89 78
82 84 71
79 87 74
67 72 60
84 93 81
70 81 67
65 71 57
76 78 70
70 77 65
74 81 68
72 79 66
68 80 62
79 86 73
64 73 54
63 75 57
67 68 58
76 90 75
65 80 62
70 80 64
64 79 62
75 81 67
69 73 62
74 90 74
69 85 67
67 75 61
66 75 58
78 83 70
65 76 61
60 74 57
60 71 55
61 73 59
63 70 58
50 65 45
66 77 64
64 66 56
75 82 72
57 65 53
62 70 59
50 60 46
34 62 32
31 56 30
32 60 31
36 64 35
37 73 38
36 65 35
35 60 32
34 64 34
31 58 31
40 73 41
33 64 35
33 61 33
32 57 31
36 66 36
37 64 36
34 57 31
40 73 40
34 60 33
31 53 29
32 59 33
34 63 35
36 59 33
33 58 33
35 64 35
33 60 34
33 61 34
30 55 31
33 57 32
30 55 30
0 0 0
0 0 0
0 0 0
0 0 0
0 0 0
0 0 0
0 0 0
0 0 0
0 0 0
0 0 0
0 0 0
22 7 6
74 21 19
76 21 21
73 20 19
82 22 21
70 20 18
77 21 20
83 23 22
76 21 19
78 20 19
76 22 20
75 21 19
82 22 21
81 22 20
80 22 21
79 21 20
80 22 20
85 23 22
80 22 20
82 22 21
80 22 21
83 22 20
83 23 21
73 20 19
75 19 19
73 20 18
75 19 18
70 19 17
68 18 16
59 17 14
72 18 16
69 41 38
83 64 60
76 52 47
82 67 62
83 63 59
88 61 60
78 61 57
77 57 53
86 61 56
87 73 71
89 68 64
82 66 63
85 55 54
74 50 45
85 63 58
89 72 69
93 66 64
92 69 65
86 67 64
87 64 57
96 81 76
83 56 53
96 74 70
94 79 77
90 65 57
99 73 71
95 71 66
96 71 70
97 69 66
84 66 62
85 58 54
100 78 75
86 68 63
99 92 86
94 80 75
98 85 81
95 79 75
88 69 63
100 87 84
101 76 72
96 91 83
100 80 75
102 85 82
81 66 60
105 94 88
90 77 73
88 78 72
101 84 79
101 86 81
98 82 80
99 91 85
95 86 80
106 90 85
93 88 80
108 98 95
91 74 68
91 76 71
83 70 64
97 83 75
99 81 75
98 83 74
96 86 78
93 79 75
89 78 70
98 86 80
96 85 80
99 89 81
106 97 91
88 80 75
94 76 71
255 255 255
255 255 255
255 255 255
255 255 255
255 255 255
255 255 255
255 255 255
255 255 255
255 255 255
255 255 255
255 255 255
255 255 255
255 255 255
255 255 255
255 255 255
255 255 255
255 255 255
255 255 255
255 255 255
255 255 255
255 255 255
255 255 255
255 255 255
255 255 255
255 255 255
255 255 255
255 255 255
255 255 255
255 255 255
255 255 255
255 255 255
255 255 255
255 255 255
255 255 255
255 255 255
255 255 255
255 255 255
255 255 255
255 255 255
255 255 255
255 255 255
255 255 255
255 255 255
255 255 255
91 98 87
92 92 84
92 98 87
105 108 100
97 96 88
87 85 76
85 87 78
98 102 94
79 81 71
78 80 67
83 85 79
85 82 75
92 98 88
77 88 74
80 78 68
78 87 74
76 86 70
78 81 69
79 88 75
83 87 74
86 91 80
77 75 66
90 95 86
74 76 66
76 78 65
85 88 77
78 83 73
73 73 63
82 88 78
84 84 77
74 83 69
71 82 67
68 80 63
90 96 88
79 88 76
69 79 64
77 86 73
67 79 61
67 74 59
71 81 67
76 91 73
68 77 63
76 82 71
67 76 63
74 78 66
62 71 55
65 74 61
74 88 74
75 81 64
78 86 72
65 74 58
70 78 62
76 84 72
65 86 65
72 78 68
65 78 63
74 83 68
58 74 58
67 81 66
60 72 58
64 71 57
64 77 61
63 73 56
64 73 60
69 83 67
60 69 55
65 74 61
66 69 58
57 59 49
48 56 44
32 56 30
29 53 29
35 64 34
33 61 33
36 59 33
33 56 30
31 58 31
36 63 34
33 59 33
32 63 32
38 68 38
36 68 37
38 64 35
34 61 34
38 67 37
34 65 36
35 54 30
33 60 33
35 67 37
39 74 41
35 65 35
32 60 34
33 57 32
33 58 32
33 55 31
34 63 35
33 62 34
34 61 34
30 53 30
31 53 30
0 0 0
0 0 0
0 0 0
0 0 0
0 0 0
0 0 0
0 0 0
0 0 0
0 0 0
0 0 0
0 0 0
25 6 6
62 18 16
68 19 17
79 21 20
79 22 21
79 21 20
72 20 19
78 21 20
75 21 20
78 22 20
83 22 20
75 20 18
80 23 21
79 21 20
80 22 20
76 22 20
78 21 20
84 23 22
83 22 21
80 21 20
87 22 22
72 21 18
78 21 20
82 20 19
76 19 18
80 19 18
81 23 21
84 24 22
73 21 18
74 22 19
69 18 16
61 17 15
75 57 52
72 55 49
70 58 48
80 64 60
86 70 67
84 70 67
83 61 59
91 66 63
92 74 71
91 69 65
88 71 65
90 62 58
98 79 76
89 65 62
96 70 67
106 80 78
92 58 53
87 71 66
88 69 63
95 77 71
102 82 77
88 65 61
99 83 79
98 74 71
99 70 69
86 63 55
101 78 75
90 64 60
101 82 78
88 78 71
95 75 70
83 60 57
91 73 70
86 71 66
97 77 71
85 71 66
96 82 77
93 83 78
92 68 66
99 86 80
108 101 97
101 84 77
111 89 86
96 79 74
109 95 89
97 77 73
86 79 72
103 88 85
101 87 83
99 84 80
94 76 71
98 87 82
109 94 92
103 89 86
98 83 78
105 97 92
100 79 77
101 93 89
98 88 83
96 90 86
103 88 83
102 95 88
98 97 87
101 87 84
101 83 80
102 92 87
88 84 79
94 87 81
96 87 84
255 255 255
255 255 255
255 255 255
255 255 255
255 255 255
255 255 255
255 255 255
255 255 255
255 255 255
255 255 255
255 255 255
255 255 255
255 255 255
255 255 255
255 255 255
255 255 255
255 255 255
255 255 255
255 255 255
255 255 255
255 255 255
255 255 255
255 255 255
255 255 255
255 255 255
255 255 255
255 255 255
255 255 255
255 255 255
255 255 255
255 255 255
255 255 255
255 255 255
255 255 255
255 255 255
255 255 255
255 255 255
255 255 255
255 255 255
255 255 255
255 255 255
255 255 255
255 255 255
255 255 255
74 81 70
85 88 76
90 94 84
86 89 78
81 88 78
93 96 86
81 89 75
87 87 76
79 77 67
94 96 85
80 81 73
70 74 63
92 96 87
86 86 77
73 78 65
90 92 83
79 87 71
88 92 81
86 90 80
74 81 68
89 98 86
75 71 60
78 82 70
81 85 75
73 73 63
76 78 65
82 86 74
68 79 65
84 91 80
82 86 74
73 81 68
71 81 67
72 80 67
78 87 74
70 80 67
70 80 66
70 78 66
77 90 75
72 80 67
79 92 74
86 82 74
69 78 65
70 80 68
73 78 65
73 84 72
69 80 65
82 95 82
83 92 79
74 83 71
64 74 61
72 83 69
76 85 68
70 76 67
75 78 65
60 74 55
67 77 62
69 79 64
63 74 61
70 77 66
59 67 52
74 85 71
64 83 65
75 84 73
61 72 56
66 79 62
62 68 56
60 66 54
56 60 46
48 62 46
31 54 28
31 59 30
29 56 29
33 57 30
32 59 31
41 75 41
31 56 30
35 63 34
36 60 33
39 72 40
39 69 38
35 67 36
38 65 36
35 66 36
33 64 35
36 66 37
38 71 40
37 63 35
36 65 36
36 67 37
36 68 38
38 69 39
36 70 39
32 61 34
34 60 33
33 59 33
37 64 35
35 63 35
31 58 33
32 57 32
26 45 25
0 0 0
0 0 0
0 0 0
0 0 0
0 0 0
0 0 0
0 0 0
0 0 0
0 0 0
0 0 0
0 0 0
30 9 8
71 21 19
71 19 18
75 21 20
73 19 18
78 21 20
82 22 21
69 20 18
72 20 18
76 21 20
73 20 18
82 23 21
84 23 22
83 23 21
83 24 22
88 24 23
80 21 20
91 25 23
83 23 21
77 20 19
79 21 20
85 23 21
93 24 23
90 24 23
81 21 20
72 19 18
80 22 20
86 22 21
82 21 20
71 19 17
70 19 17
70 18 16
70 25 22
67 54 49
80 64 62
88 66 65
70 54 50
88 77 73
82 60 57
78 70 64
95 71 68
86 64 59
86 70 67
100 82 79
88 70 63
97 76 72
86 62 58
97 74 70
84 58 54
87 70 61
97 76 73
100 81 77
82 63 60
90 73 68
99 87 82
92 76 69
102 91 87
108 90 87
96 79 76
92 62 59
92 77 75
101 81 79
91 71 67
90 68 66
94 71 68
104 85 82
98 78 73
81 73 63
103 87 83
95 74 71
99 80 77
92 75 70
88 69 65
106 90 87
98 73 68
100 85 83
101 82 79
93 81 74
97 84 79
99 84 80
91 83 78
111 101 97
103 88 85
89 72 66
96 88 82
94 81 76
99 86 80
94 87 80
100 94 88
109 94 90
93 84 80
94 83 77
109 98 95
103 96 90
90 79 77
82 72 64
93 87 80
81 79 68
100 91 86
80 70 63
102 93 88
169 162 161
255 255 255
255 255 255
255 255 255
255 255 255
255 255 255
255 255 255
255 255 255
255 255 255
255 255 255
255 255 255
255 255 255
255 255 255
255 255 255
255 255 255
255 255 255
255 255 255
255 255 255
255 255 255
255 255 255
255 255 255
255 255 255
255 255 255
255 255 255
255 255 255
255 255 255
255 255 255
255 255 255
255 255 255
255 255 255
255 255 255
255 255 255
255 255 255
255 255 255
255 255 255
255 255 255
255 255 255
255 255 255
255 255 255
255 255 255
255 255 255
255 255 255
255 255 255
255 255 255
94 99 88
77 80 69
80 83 74
86 80 69
81 84 73
88 91 81
83 85 76
83 79 70
81 83 73
89 91 81
85 88 79
83 83 75
88 92 84
93 90 81
82 87 75
85 90 80
83 93 81
90 89 80
81 86 73
83 85 73
73 78 66
92 89 79
73 81 69
84 87 75
87 90 80
82 89 78
83 85 74
75 85 71
75 79 66
74 80 68
74 82 68
69 82 67
78 85 74
81 89 77
84 82 75
74 90 74
80 90 77
56 73 52
75 85 70
66 83 65
76 85 72
78 83 72
75 89 72
68 78 61
71 80 65
78 87 73
81 91 78
73 82 70
67 85 64
70 84 64
79 84 71
66 79 62
83 90 78
51 65 48
63 81 61
55 71 52
59 77 58
63 73 59
57 69 55
59 66 54
68 77 63
69 80 67
66 75 63
71 78 68
71 81 70
55 68 50
63 66 54
51 64 50
31 51 27
28 50 27
32 55 29
32 61 32
36 67 37
35 68 36
37 64 36
35 65 35
36 68 38
35 59 32
34 60 33
36 67 37
37 69 37
38 66 37
37 65 35
38 68 37
35 68 37
39 68 37
36 66 36
35 65 36
36 64 35
37 66 37
35 65 36
40 74 42
35 61 34
33 63 35
34 63 34
33 63 34
34 62 35
32 58 32
37 66 37
30 50 28
0 0 0
0 0 0
0 0 0
0 0 0
0 0 0
0 0 0
0 0 0
0 0 0
0 0 0
0 0 0
0 0 0
26 7 7
69 20 18
75 21 20
70 20 19
68 19 18
82 23 21
69 19 18
94 26 25
79 23 21
77 21 19
84 23 21
80 22 20
86 23 21
88 24 23
90 25 24
82 23 21
89 24 23
82 22 21
85 22 21
92 24 23
83 23 21
87 24 22
91 24 23
84 23 21
84 21 20
88 24 22
84 23 21
86 24 22
66 18 15
74 20 18
69 19 16
78 20 19
68 16 15
70 20 18
70 48 44
80 60 58
78 61 57
77 61 59
92 75 71
82 63 55
83 67 62
95 70 65
73 57 52
86 63 58
90 64 61
93 64 62
107 79 77
97 70 66
91 62 58
87 52 50
88 74 71
100 77 72
92 73 68
103 80 79
95 71 68
84 62 58
96 76 71
91 77 71
84 66 63
97 83 78
88 64 60
77 54 50
110 96 91
96 73 69
93 74 71
101 77 74
82 65 57
104 78 75
87 68 65
101 77 74
89 71 64
90 74 71
102 83 79
99 77 74
86 74 69
109 100 96
102 83 78
105 93 89
105 91 87
95 75 71
100 90 85
110 97 93
99 87 83
106 92 88
96 91 88
90 77 71
90 84 77
92 79 75
109 101 95
97 87 82
102 88 83
97 87 81
90 76 73
105 96 91
99 91 86
89 84 77
97 89 81
98 88 83
117 108 105
99 91 85
94 85 79
101 95 87
255 255 255
255 255 255
255 255 255
255 255 255
255 255 255
255 255 255
255 255 255
255 255 255
255 255 255
255 255 255
255 255 255
255 255 255
255 255 255
255 255 255
255 255 255
255 255 255
255 255 255
255 255 255
255 255 255
255 255 255
255 255 255
255 255 255
255 255 255
255 255 255
255 255 255
255 255 255
255 255 255
255 255 255
255 255 255
255 255 255
255 255 255
255 255 255
255 255 255
255 255 255
255 255 255
255 255 255
255 255 255
255 255 255
255 255 255
255 255 255
255 255 255
255 255 255
90 96 85
78 84 74
96 93 86
93 93 83
79 84 70
82 83 72
84 88 77
91 88 79
80 88 75
74 78 66
76 84 71
88 89 79
79 85 74
74 82 69
87 93 83
65 78 62
82 91 79
84 90 80
87 92 81
82 85 72
79 88 73
87 95 82
83 92 79
80 86 72
66 73 56
64 75 59
87 88 78
75 79 67
84 87 76
74 85 70
78 86 71
90 97 86
86 91 77
75 80 69
71 81 64
66 74 58
68 78 62
86 89 76
75 83 70
75 80 65
69 86 65
78 86 74
85 89 78
74 83 71
75 83 68
66 79 64
63 80 58
78 89 74
73 82 66
62 74 58
80 86 75
58 75 53
68 82 63
77 83 71
70 77 62
73 80 65
71 87 70
61 74 60
67 85 67
75 79 64
64 77 63
62 73 61
60 71 59
66 76 63
59 70 59
59 70 58
74 72 62
55 66 51
30 54 29
31 53 28
31 56 31
31 57 30
36 61 33
35 63 34
41 74 40
39 72 39
36 67 36
33 64 34
38 69 38
38 71 39
37 68 37
34 62 34
35 67 37
37 69 39
33 61 34
37 63 35
38 67 37
35 66 36
34 63 34
38 67 38
35 62 35
38 68 39
39 73 41
35 65 36
35 62 34
34 63 35
35 65 36
37 63 35
34 59 34
29 53 30
27 50 28
0 0 0
0 0 0
0 0 0
0 0 0
0 0 0
0 0 0
0 0 0
0 0 0
0 0 0
0 0 0
0 0 0
34 10 9
69 19 18
69 20 18
70 19 18
81 22 21
75 21 20
80 22 21
81 22 21
83 23 21
77 22 20
80 21 21
76 21 19
91 24 23
79 22 20
80 22 20
81 22 20
89 24 23
89 24 23
87 23 22
86 23 21
95 25 24
93 24 22
86 21 20
91 23 22
84 24 22
81 21 19
75 20 19
81 22 20
83 23 21
85 23 22
75 20 19
77 21 19
78 21 20
67 18 16
70 19 16
79 49 46
88 79 77
83 63 59
92 76 73
83 64 59
84 62 58
95 66 62
78 60 55
98 77 73
90 65 59
84 59 55
101 75 73
90 77 75
95 75 70
87 63 60
95 77 74
76 62 56
95 79 75
94 76 71
92 76 69
107 85 80
92 73 68
98 76 70
93 80 76
97 74 70
91 75 70
94 79 74
103 91 89
105 86 83
102 83 79
95 72 68
89 75 71
103 84 80
111 92 90
106 96 92
89 74 67
87 72 66
102 80 77
88 75 68
102 87 84
97 86 81
99 91 85
106 94 88
88 70 66
93 82 76
99 84 80
109 91 88
94 62 56
94 71 66
98 88 83
100 90 83
84 71 68
98 89 83
93 80 75
99 83 78
102 88 85
109 103 98
111 97 91
104 96 91
96 87 82
102 98 93
106 103 98
101 90 84
92 85 78
104 94 90
101 102 94
96 84 77
255 255 255
255 255 255
255 255 255
255 255 255
255 255 255
255 255 255
255 255 255
255 255 255
255 255 255
255 255 255
255 255 255
255 255 255
255 255 255
255 255 255
255 255 255
255 255 255
255 255 255
255 255 255
255 255 255
255 255 255
255 255 255
255 255 255
255 255 255
255 255 255
255 255 255
255 255 255
255 255 255
255 255 255
255 255 255
255 255 255
255 255 255
255 255 255
255 255 255
255 255 255
255 255 255
255 255 255
255 255 255
255 255 255
255 255 255
255 255 255
255 255 255
255 255 255
90 88 76
104 97 91
94 82 75
92 91 83
83 90 80
89 90 82
81 89 76
84 87 79
88 91 83
92 92 84
75 76 64
76 86 74
77 83 68
90 84 78
89 95 85
87 95 85
88 94 82
80 88 75
88 95 82
89 93 82
86 92 83
101 107 97
82 90 78
89 90 83
74 78 66
72 78 65
85 93 81
85 89 79
78 87 76
75 84 73
68 69 59
79 86 75
81 86 74
82 91 79
87 88 79
66 78 63
63 79 59
75 84 71
76 89 73
77 85 73
77 86 71
69 80 64
82 90 79
76 88 73
78 91 77
66 78 63
63 69 57
69 83 66
65 77 62
75 80 68
62 81 63
78 84 74
81 91 77
74 82 70
64 71 56
66 78 62
66 75 64
71 80 66
73 82 70
74 86 73
66 81 63
72 83 67
70 73 63
67 75 63
71 78 67
66 66 55
48 58 43
30 55 29
34 63 34
32 53 28
35 66 36
38 64 35
35 65 36
37 68 36
35 61 33
36 67 36
36 68 37
41 73 40
37 71 39
41 76 42
38 68 38
37 68 38
39 73 40
36 67 37
38 70 38
39 70 39
36 66 36
38 69 38
37 66 36
34 62 34
36 65 36
36 67 36
34 64 35
38 68 38
38 70 39
35 61 35
36 62 35
33 60 33
34 61 34
39 70 39
31 57 32
0 0 0
0 0 0
0 0 0
0 0 0
0 0 0
0 0 0
0 0 0
0 0 0
0 0 0
0 0 0
0 0 0
35 10 10
75 21 20
75 21 20
70 20 19
69 20 18
80 22 21
82 22 21
87 24 23
74 21 19
88 24 23
84 24 23
82 22 21
80 23 21
83 24 22
75 21 19
88 25 23
84 22 21
94 26 24
82 22 21
82 22 20
88 25 23
90 24 22
80 22 21
95 25 23
94 25 23
86 23 21
94 25 24
91 25 23
86 23 21
75 19 18
85 22 21
81 22 20
82 21 19
82 21 20
72 17 15
60 17 15
82 59 55
79 66 61
93 75 73
93 82 77
82 59 53
90 78 73
104 76 74
87 69 62
86 70 66
92 69 66
101 84 82
95 75 69
90 68 66
93 74 71
93 69 65
82 52 50
91 66 59
97 78 74
93 67 63
94 74 70
88 70 62
87 66 61
91 66 61
73 53 47
88 66 61
105 90 87
94 75 72
106 89 87
94 73 68
88 64 58
98 85 80
103 87 85
92 75 70
96 84 79
99 78 75
111 103 100
94 81 75
95 73 70
95 77 73
97 87 83
96 81 74
101 88 82
84 69 64
104 98 94
99 86 82
96 86 80
101 87 83
81 68 60
95 82 77
88 83 76
94 77 72
98 93 86
101 94 88
94 82 75
97 82 77
117 101 98
95 90 86
94 90 84
105 95 91
91 86 81
96 90 84
91 84 75
117 107 104
99 87 80
101 85 82
86 82 70
255 255 255
255 255 255
255 255 255
255 255 255
255 255 255
255 255 255
255 255 255
255 255 255
255 255 255
255 255 255
255 255 255
255 255 255
255 255 255
255 255 255
255 255 255
255 255 255
255 255 255
255 255 255
255 255 255
255 255 255
255 255 255
255 255 255
255 255 255
255 255 255
255 255 255
255 255 255
255 255 255
255 255 255
255 255 255
255 255 255
255 255 255
255 255 255
255 255 255
255 255 255
255 255 255
255 255 255
255 255 255
255 255 255
255 255 255
255 255 255
255 255 255
255 255 255
89 88 81
80 87 74
83 81 70
85 94 82
83 90 79
91 93 84
81 90 76
91 85 76
89 84 75
86 92 81
92 97 84
77 83 69
87 94 83
94 97 85
80 85 74
77 80 68
78 83 70
84 93 80
95 99 88
83 88 76
80 88 74
81 87 76
82 89 79
85 94 82
75 88 70
84 90 80
74 77 64
78 85 74
85 90 79
74 82 66
88 96 82
89 92 81
70 83 65
79 85 73
77 86 70
69 78 63
78 85 72
87 93 80
78 88 74
82 85 74
79 87 75
80 90 76
65 77 63
80 89 77
75 85 70
76 81 67
64 74 58
66 77 62
69 81 63
67 82 66
75 78 66
68 79 63
64 74 60
70 81 65
64 79 63
71 84 69
70 80 65
69 73 60
66 81 66
65 75 60
64 77 60
68 70 61
52 70 52
72 85 71
60 65 55
50 60 48
31 56 29
31 54 29
34 65 35
33 54 28
35 57 31
37 66 36
37 69 38
38 73 40
39 70 38
35 66 35
40 74 41
42 76 42
37 67 37
46 83 46
37 65 36
39 71 39
41 74 41
40 75 41
40 73 41
43 75 42
40 70 40
36 67 37
36 65 36
37 68 38
36 65 36
39 68 38
39 68 38
37 66 37
37 66 37
31 59 33
36 63 35
37 66 37
35 62 35
32 57 32
28 56 31
0 0 0
0 0 0
0 0 0
0 0 0
0 0 0
0 0 0
0 0 0
0 0 0
0 0 0
0 0 0
0 0 0
22 5 5
76 20 19
71 19 18
77 21 20
80 22 21
79 22 20
76 20 19
72 20 19
81 23 21
86 23 22
84 22 21
82 23 22
85 24 23
86 24 23
83 22 21
81 23 21
85 23 22
79 21 20
88 24 23
97 26 25
86 23 22
81 22 20
84 23 22
100 28 26
91 25 23
99 26 25
93 25 24
92 25 23
95 25 24
79 21 20
92 24 23
83 22 21
84 22 21
80 21 19
79 20 20
69 18 16
81 21 20
74 50 45
81 57 55
75 52 46
88 65 61
87 60 57
76 61 57
82 65 60
92 72 67
94 78 73
95 59 56
89 69 63
93 71 67
98 83 78
91 71 68
89 64 61
86 59 57
94 73 70
101 78 75
94 68 63
103 81 74
89 68 61
94 78 71
88 67 63
96 81 76
95 80 75
96 64 61
106 91 87
103 76 73
95 78 72
91 72 65
99 80 74
88 74 66
92 68 64
91 69 66
92 78 73
98 85 80
96 86 80
105 89 85
106 86 83
96 81 76
95 84 80
97 83 77
94 76 72
99 80 76
94 83 77
97 84 78
113 105 103
95 82 76
96 82 78
104 91 88
100 82 79
103 90 87
98 95 89
96 82 74
103 92 85
99 88 81
102 93 88
99 91 86
104 93 89
94 87 80
98 91 85
106 97 92
88 78 73
100 93 87
97 77 72
255 255 255
255 255 255
255 255 255
255 255 255
255 255 255
255 255 255
255 255 255
255 255 255
255 255 255
255 255 255
255 255 255
255 255 255
255 255 255
255 255 255
255 255 255
255 255 255
255 255 255
255 255 255
255 255 255
255 255 255
255 255 255
255 255 255
255 255 255
255 255 255
255 255 255
255 255 255
255 255 255
255 255 255
255 255 255
255 255 255
255 255 255
255 255 255
255 255 255
255 255 255
255 255 255
255 255 255
255 255 255
255 255 255
255 255 255
255 255 255
255 255 255
255 255 255
87 89 79
105 105 97
80 85 76
100 104 94
86 86 79
87 89 79
88 96 84
83 89 76
79 86 73
89 94 83
86 90 81
87 95 83
80 82 73
96 97 85
75 79 67
83 90 80
82 87 75
89 95 84
91 93 81
79 87 74
80 88 77
76 85 71
84 87 75
92 98 88
83 87 76
78 90 77
88 92 80
76 82 70
86 93 82
85 89 78
72 83 70
68 83 66
68 81 66
70 80 68
80 84 73
75 85 71
84 89 77
81 91 79
82 89 74
80 93 77
60 78 57
69 75 60
71 83 67
76 83 68
77 87 73
86 91 80
77 82 68
75 78 69
71 75 60
73 75 60
65 74 58
74 84 69
76 87 72
78 84 69
67 81 64
69 76 61
64 78 62
75 83 69
62 77 60
76 82 73
63 73 59
68 78 65
55 58 44
70 78 67
49 55 42
27 49 26
32 53 28
32 61 33
34 64 34
35 71 37
36 65 35
39 74 41
38 68 37
41 73 39
38 69 37
40 75 41
37 69 38
39 68 38
41 74 41
38 71 40
40 73 41
39 73 39
39 72 39
37 72 39
37 69 38
37 67 37
35 66 36
37 67 37
36 60 34
40 63 35
38 67 38
36 68 38
39 66 37
38 66 37
33 63 35
37 64 36
32 62 34
35 63 35
34 64 36
34 63 35
30 59 33
0 0 0
0 0 0
0 0 0
0 0 0
0 0 0
0 0 0
0 0 0
0 0 0
0 0 0
0 0 0
0 0 0
37 10 9
73 20 19
72 21 19
80 23 21
80 23 21
76 20 20
75 21 20
74 21 19
78 23 21
86 24 22
78 22 21
92 25 24
87 24 23
83 22 21
82 21 20
88 24 23
93 26 24
99 26 25
87 24 22
89 25 23
87 22 22
87 23 22
88 25 23
94 25 23
93 24 23
95 27 25
89 24 23
90 25 23
81 22 20
97 24 23
89 24 22
97 26 24
85 22 21
86 24 22
85 22 20
79 21 19
76 20 19
66 27 21
76 48 46
80 55 47
74 57 53
83 73 69
86 67 62
85 70 67
91 68 66
87 67 63
93 72 69
101 75 75
78 49 48
96 76 73
90 75 70
90 68 65
104 83 79
90 75 71
87 72 69
97 73 68
91 63 60
95 77 74
100 87 84
101 82 78
103 86 83
90 71 65
96 66 62
97 67 62
91 63 58
99 84 81
100 81 78
110 80 76
101 86 82
110 94 93
92 79 74
106 86 82
90 71 67
95 81 74
98 76 72
93 76 70
98 88 82
110 96 92
95 85 78
106 88 84
103 94 88
87 72 67
103 84 80
96 87 81
107 96 92
97 80 76
91 79 74
100 89 85
107 98 93
95 95 87
95 84 78
95 81 76
102 94 90
89 77 74
105 96 92
98 86 81
92 83 75
99 84 78
97 84 79
101 94 87
102 94 90
107 96 92
105 97 92
103 94 90
84 77 70
93 83 76
97 90 82
96 92 85
96 91 84
110 99 93
112 104 100
103 99 91
106 102 94
96 91 85
102 86 81
96 92 85
105 91 87
98 96 90
101 97 89
102 98 91
101 98 92
86 87 76
94 92 85
101 95 89
92 87 80
96 98 90
97 91 86
79 82 70
102 100 93
100 95 90
95 94 86
92 89 82
85 85 77
102 95 90
105 104 98
97 91 84
95 98 87
89 93 83
99 95 88
105 104 98
86 90 79
93 89 83
86 92 82
91 99 87
88 88 80
83 85 75
85 88 79
94 96 88
85 84 74
87 90 77
90 94 82
86 89 81
85 92 78
83 88 76
89 96 84
86 86 77
86 95 83
94 102 91
77 86 74
88 98 86
84 89 75
83 86 75
85 87 78
85 88 80
83 83 71
78 85 74
77 84 70
83 90 80
91 96 85
79 86 71
98 101 91
88 94 82
74 87 70
86 97 83
73 83 70
81 89 78
81 85 76
82 85 73
76 92 76
82 85 71
82 91 78
75 83 70
78 85 74
73 85 69
81 90 78
81 90 77
76 81 67
61 73 57
68 76 61
72 87 68
71 80 66
72 83 65
73 83 70
74 87 68
68 81 63
63 76 57
78 83 74
72 81 68
62 71 57
67 77 64
72 82 69
64 78 61
74 80 70
70 77 67
64 71 58
57 64 50
58 67 56
51 64 48
29 54 29
35 59 32
37 66 36
33 67 34
39 70 38
37 68 37
37 69 37
39 70 38
40 75 41
39 69 38
40 72 40
38 68 37
38 69 38
37 70 38
41 79 43
39 75 41
39 71 40
37 66 37
38 69 38
40 74 41
43 81 46
39 69 39
38 69 38
38 71 39
36 66 37
38 68 38
38 70 39
41 73 40
39 71 39
34 64 36
36 65 37
38 69 39
33 58 32
37 69 39
37 65 37
32 61 34
28 51 29
0 0 0
0 0 0
0 0 0
0 0 0
0 0 0
0 0 0
0 0 0
0 0 0
0 0 0
0 0 0
0 0 0
26 7 7
76 21 20
79 23 21
81 22 21
81 22 21
81 22 21
79 22 21
75 21 20
84 23 22
77 21 19
77 22 20
82 23 22
91 25 24
86 24 22
92 24 24
97 27 26
96 25 24
92 25 24
91 24 23
93 26 24
92 24 23
89 25 23
95 25 24
93 26 24
89 24 23
86 23 21
88 25 23
88 24 22
87 24 23
85 23 22
89 25 23
84 23 21
85 23 21
89 24 22
94 24 23
87 23 21
85 23 21
69 20 17
85 31 30
79 50 47
83 67 64
91 71 67
83 49 46
80 65 62
85 68 65
88 74 70
87 60 55
88 69 66
91 70 66
89 62 59
92 72 66
89 59 55
90 50 48
101 83 77
91 74 68
102 84 80
111 88 86
86 72 67
91 72 65
97 76 72
94 71 67
101 88 85
88 79 73
85 64 57
94 66 61
91 76 71
110 95 92
89 74 70
96 83 78
91 75 68
112 91 90
91 69 65
93 77 72
84 70 64
104 93 88
102 83 82
103 80 76
98 83 79
110 91 88
92 77 72
107 94 91
91 67 60
90 77 72
113 103 99
111 101 96
103 97 92
106 92 88
99 85 81
104 92 86
104 96 90
97 89 82
103 90 82
88 73 66
88 78 71
90 75 69
99 96 88
104 92 89
97 91 83
98 93 87
100 93 87
96 87 80
100 88 84
101 97 91
86 76 71
100 95 86
99 96 91
91 89 80
103 105 97
97 89 84
97 88 84
100 92 89
109 98 92
95 88 79
80 80 70
105 96 91
99 97 89
94 89 82
99 94 88
99 95 87
90 88 78
110 102 97
107 99 94
101 98 93
100 93 85
111 108 102
103 108 99
102 99 95
90 94 83
81 81 70
105 110 103
101 94 86
92 91 85
92 89 82
92 90 83
92 93 81
86 89 81
91 88 81
94 94 85
93 97 87
95 96 87
90 83 76
97 96 89
75 79 69
95 106 93
88 87 80
78 77 66
99 101 91
87 92 80
95 96 87
104 101 95
89 94 84
91 94 84
93 97 88
96 96 88
85 88 77
85 82 73
97 101 93
77 77 66
100 103 92
82 91 76
89 93 82
79 84 74
84 88 78
77 81 68
87 91 82
74 81 69
91 95 86
90 95 84
77 78 65
87 92 81
76 87 73
85 86 75
78 94 79
77 87 73
72 83 68
77 79 64
78 90 74
79 90 74
73 82 68
76 90 74
86 93 79
80 88 76
72 76 65
67 78 63
74 82 67
86 92 81
80 83 74
76 85 70
67 75 60
64 76 60
77 88 73
77 90 77
74 86 71
72 84 70
77 85 72
73 77 64
73 80 66
68 77 61
67 80 63
67 74 61
73 83 69
71 76 64
58 65 52
62 71 59
58 69 55
73 77 69
48 64 47
29 55 28
34 63 33
32 56 30
35 65 35
36 66 35
34 63 34
38 70 38
38 72 39
41 79 43
44 79 43
42 79 44
38 68 38
41 77 43
40 75 42
43 74 41
35 68 37
38 72 39
43 78 43
41 76 42
39 72 40
44 75 42
39 71 40
39 72 40
40 75 42
40 71 39
38 68 38
41 72 40
37 67 38
39 69 38
40 72 41
38 69 39
39 67 37
32 60 33
33 63 35
33 60 33
33 59 33
32 56 31
33 52 29
0 0 0
0 0 0
0 0 0
0 0 0
0 0 0
0 0 0
0 0 0
0 0 0
0 0 0
0 0 0
0 0 0
32 9 8
82 24 22
73 21 19
80 22 21
90 25 23
82 23 22
81 23 22
74 21 19
82 22 21
82 22 21
84 23 22
85 23 22
81 24 22
95 26 25
95 26 25
84 22 21
87 24 23
87 25 22
93 24 23
98 27 25
89 24 23
102 27 26
93 25 25
89 24 23
95 27 25
105 28 27
94 27 24
97 26 25
92 26 24
101 27 25
90 24 22
86 23 22
81 23 21
97 26 24
84 21 20
81 21 20
87 22 21
81 22 21
79 21 19
66 18 16
76 62 57
80 62 58
79 60 56
82 66 63
88 67 65
88 61 59
95 78 74
99 76 74
83 59 55
85 64 61
82 58 55
88 62 58
86 64 59
99 80 77
89 58 55
91 68 64
79 68 57
101 79 77
93 70 66
94 74 68
93 59 57
95 68 65
91 62 58
93 64 58
102 91 88
96 74 69
97 82 78
100 81 75
99 86 82
98 75 68
99 85 82
102 88 84
101 89 83
96 79 77
107 94 91
98 78 73
100 87 84
91 76 71
95 90 83
103 96 90
92 77 72
101 87 81
101 92 87
98 86 80
113 100 96
96 80 72
91 79 75
104 97 91
92 72 66
113 103 100
97 90 85
100 89 84
98 89 81
105 99 94
92 83 74
102 90 86
111 102 99
106 96 91
103 95 90
109 99 95
100 90 85
94 89 82
106 98 94
96 87 80
100 98 90
98 92 83
92 88 81
101 92 86
104 102 96
91 89 82
102 98 92
104 99 94
104 100 93
105 99 94
106 100 95
102 104 95
102 93 88
103 100 93
105 92 88
98 93 85
103 94 88
79 72 63
99 90 84
110 106 101
100 99 92
102 100 94
94 94 87
106 102 95
98 94 89
102 98 93
97 96 88
96 99 90
93 91 83
85 90 80
94 89 85
87 87 75
88 92 85
98 91 83
95 92 85
95 99 91
95 96 85
89 92 83
96 93 87
84 83 72
85 89 75
91 89 83
92 97 85
77 80 69
95 94 85
87 91 80
76 77 67
86 93 78
103 103 95
96 102 90
80 91 75
82 83 75
86 94 81
86 92 80
77 83 69
85 95 82
92 97 87
86 90 79
88 94 83
75 86 70
85 92 78
79 92 77
87 89 79
85 92 78
80 84 71
88 95 84
71 77 62
81 87 73
84 94 81
74 90 72
73 80 67
87 92 81
80 83 73
80 89 75
78 85 74
78 91 76
82 88 75
75 79 64
71 79 62
72 84 70
77 82 70
74 86 72
82 92 77
66 77 63
72 81 68
70 77 63
78 81 68
68 82 66
74 81 69
73 87 73
78 89 75
69 76 65
56 72 53
74 80 68
77 88 74
76 81 70
69 78 65
72 82 67
62 67 53
75 77 66
59 71 55
58 65 53
31 55 30
37 67 36
32 61 32
35 64 34
34 66 35
36 61 33
37 72 38
38 67 37
36 68 37
40 72 40
36 70 37
42 75 41
42 79 44
44 83 46
44 82 46
44 78 43
43 80 45
41 75 42
40 76 42
40 74 42
41 69 38
39 72 40
41 74 41
42 78 43
41 72 41
38 71 39
39 73 41
38 69 38
41 75 42
38 70 39
35 66 36
37 63 35
39 67 38
37 69 38
35 63 35
33 60 34
37 65 36
31 61 34
29 54 30
0 0 0
0 0 0
0 0 0
0 0 0
0 0 0
0 0 0
0 0 0
0 0 0
0 0 0
0 0 0
0 0 0
25 8 7
71 19 18
78 21 20
69 19 18
73 19 18
83 24 22
86 24 23
71 20 19
80 23 21
86 24 22
82 23 22
90 24 23
94 27 25
89 24 23
90 25 24
86 23 22
86 24 22
93 26 24
89 23 22
94 26 25
96 28 26
87 23 22
95 26 24
91 25 24
95 25 24
102 27 27
92 25 24
93 26 25
95 25 24
101 26 25
89 24 22
90 25 23
88 24 22
82 23 21
108 29 28
87 23 22
88 23 22
87 23 22
77 21 19
92 23 22
84 30 28
78 62 60
83 64 61
77 53 49
94 80 79
94 75 73
83 62 59
92 62 61
88 70 67
82 60 57
91 72 68
88 74 70
90 63 60
82 66 62
84 68 62
100 82 78
98 79 77
96 75 72
96 85 79
93 75 73
105 93 91
98 68 64
98 84 81
91 78 73
103 82 80
106 91 88
89 70 65
97 88 83
100 87 83
105 85 80
96 82 77
109 95 90
94 86 82
108 90 88
105 96 92
89 72 66
100 85 82
100 84 80
92 86 78
102 92 85
105 89 85
112 99 96
109 101 96
99 78 73
100 88 79
103 86 82
105 86 82
93 77 71
93 87 82
97 83 78
108 95 92
107 95 92
99 89 84
104 91 85
105 98 92
101 87 80
85 70 64
107 92 86
98 91 82
105 103 97
99 96 90
99 91 87
98 90 85
108 102 97
100 96 92
114 108 103
100 92 87
99 95 90
103 98 91
93 90 82
91 88 83
94 80 74
96 90 83
93 91 85
100 98 91
89 85 78
97 92 86
100 94 87
106 107 99
100 96 89
106 100 94
107 107 99
96 91 83
93 90 83
91 94 84
105 107 99
97 91 84
94 93 86
108 109 101
96 90 83
98 93 86
89 83 76
87 90 80
99 97 89
91 91 83
96 95 88
100 96 90
80 87 74
83 88 78
92 91 84
97 98 90
84 89 78
81 82 73
89 90 81
73 84 70
87 82 73
99 100 91
92 94 83
95 97 90
103 109 100
92 89 80
96 96 88
83 89 77
84 86 76
96 99 91
81 89 77
99 99 92
91 94 80
84 92 81
85 88 76
83 90 77
85 89 77
92 99 90
84 91 77
91 95 85
76 83 71
80 84 74
81 90 78
70 78 66
74 84 69
89 96 84
78 87 73
90 93 84
76 85 72
81 86 70
64 80 60
84 95 82
78 84 68
77 85 72
68 84 65
75 85 74
77 87 74
73 83 69
68 79 63
83 92 79
79 88 74
75 87 71
70 87 69
73 77 67
67 80 61
71 83 69
73 82 69
67 78 64
61 78 57
73 79 65
78 81 70
74 79 66
63 73 60
65 75 62
67 80 66
74 79 68
74 75 65
67 74 60
75 82 71
42 58 41
29 58 31
34 63 33
33 56 30
35 65 35
36 68 36
36 67 37
36 69 37
39 74 40
37 68 37
38 70 38
45 83 46
41 81 45
39 72 39
41 77 42
44 83 46
42 78 43
41 74 41
37 70 38
43 82 46
45 81 45
40 73 41
42 77 43
37 68 38
39 73 40
40 77 43
39 72 40
41 75 41
39 71 40
41 78 43
39 69 39
36 68 38
37 65 36
39 70 39
38 71 40
37 66 37
35 64 36
36 65 37
34 60 33
37 68 39
33 58 33
0 0 0
0 0 0
0 0 0
0 0 0
0 0 0
0 0 0
0 0 0
0 0 0
0 0 0
0 0 0
0 0 0
38 11 10
79 21 20
89 23 23
72 20 19
75 21 20
79 23 21
83 22 21
87 25 23
87 24 23
87 25 23
84 22 21
90 23 23
86 23 22
84 23 22
84 23 21
90 25 24
86 23 22
95 26 25
100 27 26
92 26 24
94 25 24
94 26 24
98 26 25
101 27 26
100 27 25
98 27 26
93 26 24
96 26 25
94 26 24
99 26 25
88 23 22
88 24 22
93 26 24
90 25 23
102 26 25
88 22 21
81 22 20
76 20 18
77 21 19
83 22 21
76 20 18
76 21 19
72 40 36
75 61 59
86 69 64
77 51 48
75 55 51
87 62 57
84 65 60
99 82 79
81 66 59
80 66 59
84 55 51
85 72 67
97 76 72
90 71 69
99 86 81
91 72 68
84 60 57
92 71 67
89 64 59
101 78 75
97 80 76
92 71 67
103 75 73
87 72 66
103 85 82
100 79 75
96 81 77
93 79 74
96 85 80
100 85 81
97 85 79
107 81 78
104 94 89
101 88 80
91 80 71
91 84 76
93 67 63
89 80 75
100 89 84
103 93 87
95 83 79
101 79 77
106 92 89
91 85 80
102 89 84
90 84 79
106 88 85
98 90 85
97 85 80
106 95 90
100 94 87
107 97 93
109 99 96
104 99 93
97 89 81
101 95 89
94 90 83
100 85 81
98 95 88
105 96 90
95 90 85
102 95 87
103 91 87
104 100 93
108 99 95
100 91 85
106 99 95
105 99 92
115 111 107
104 93 87
104 100 95
111 104 98
99 92 87
104 91 85
95 88 84
99 96 89
103 97 91
86 81 72
108 104 98
101 95 90
102 94 88
92 96 85
99 92 86
95 95 88
97 97 91
92 92 85
93 95 86
93 88 79
100 100 91
87 89 81
103 104 94
96 98 90
95 95 86
101 105 95
89 84 78
81 87 75
88 93 83
100 101 94
103 100 94
91 92 80
95 96 87
90 93 80
88 83 76
96 95 85
95 97 87
93 96 86
91 92 83
100 103 95
85 86 76
96 95 88
83 89 78
85 92 83
95 94 85
83 87 77
92 99 88
83 84 74
80 88 76
87 93 79
81 79 69
83 84 70
82 86 74
79 75 64
77 83 70
83 90 81
87 92 79
86 87 78
93 103 89
82 91 78
83 91 80
77 82 69
75 84 71
90 93 83
86 93 82
89 94 84
73 83 65
85 93 79
90 95 84
73 87 71
80 94 79
77 92 75
74 81 69
69 77 62
67 82 65
75 82 69
75 83 71
75 81 70
83 92 79
71 84 70
73 80 66
76 85 73
85 95 84
82 86 77
74 83 71
73 79 68
68 71 61
69 80 65
71 78 66
65 79 63
70 74 65
67 72 62
62 68 59
45 60 42
33 59 32
33 57 31
33 63 34
40 69 38
37 68 37
34 67 36
39 74 40
38 70 38
37 73 39
42 76 42
40 71 39
40 79 43
42 78 43
39 71 39
42 76 43
46 79 44
44 80 45
43 79 43
43 77 44
43 80 45
48 86 48
42 78 43
43 78 44
42 73 41
40 75 41
38 73 40
41 69 39
38 71 39
39 70 39
38 72 40
36 66 37
37 68 39
37 64 36
35 65 36
36 63 35
34 64 35
35 65 36
36 62 35
36 63 36
35 66 36
35 58 33
0 0 0
0 0 0
0 0 0
0 0 0
0 0 0
0 0 0
0 0 0
0 0 0
0 0 0
0 0 0
0 0 0
34 10 9
77 22 20
69 20 18
77 22 20
84 23 22
79 22 21
84 24 22
75 21 19
87 24 23
80 23 21
89 24 24
89 24 22
86 24 23
92 24 24
97 27 26
96 26 25
91 24 23
90 24 23
92 26 24
95 26 24
92 26 24
92 25 24
100 27 26
99 28 26
97 26 25
101 28 26
98 27 25
95 25 24
98 26 25
105 29 28
87 24 22
88 24 22
94 24 23
92 25 24
91 23 21
85 23 21
92 24 23
89 23 22
80 21 20
82 20 19
82 21 20
65 18 16
71 19 17
74 51 46
68 50 45
97 77 73
91 72 70
91 74 72
90 74 70
80 58 56
92 68 66
77 66 59
92 70 65
92 75 73
84 71 65
89 70 66
92 75 69
96 74 72
89 78 72
96 79 74
93 71 66
93 74 71
102 90 84
87 69 66
85 72 65
100 82 78
101 78 76
97 83 81
97 88 81
108 86 82
88 67 62
97 85 81
90 72 68
106 90 88
95 70 66
91 75 71
106 92 88
97 81 76
99 84 81
94 80 75
98 84 80
98 84 80
98 84 81
109 96 91
97 92 84
90 75 70
99 82 79
95 88 81
102 80 75
111 97 92
112 96 93
102 86 81
90 84 78
103 99 94
93 79 75
103 93 89
95 82 75
86 78 71
99 95 92
102 98 92
111 95 91
112 103 98
111 107 103
111 106 99
109 101 96
102 94 89
110 105 100
105 98 93
102 93 88
103 97 91
115 108 104
102 97 93
104 101 94
101 96 89
107 98 94
97 95 89
98 95 88
95 91 82
101 100 92
106 109 102
100 90 84
97 94 88
95 93 85
104 102 95
101 97 89
89 88 78
108 104 99
93 93 85
95 94 88
98 99 92
94 96 88
95 95 88
102 101 92
94 100 89
93 93 85
92 99 89
92 96 85
91 96 84
96 95 87
90 92 83
99 103 95
90 89 81
87 89 79
85 85 76
93 99 91
90 89 82
93 95 86
85 88 79
80 87 75
87 96 84
84 87 77
84 88 78
87 87 76
89 94 86
85 90 79
91 91 83
86 88 79
87 96 83
94 99 90
95 99 90
101 105 97
80 84 74
75 85 70
87 98 85
81 84 74
81 86 75
84 93 79
82 91 76
78 78 66
75 88 73
77 86 73
84 90 79
77 90 73
82 90 80
82 82 72
75 86 73
81 91 79
82 91 80
85 94 81
74 82 66
73 81 67
76 85 73
78 83 70
80 89 76
73 83 69
76 86 71
70 80 67
70 82 67
60 76 56
70 79 65
69 80 67
73 85 70
78 86 74
61 78 61
72 77 62
71 81 66
70 77 64
60 67 54
63 69 57
68 78 65
64 79 64
58 63 51
49 61 47
28 50 26
31 62 32
32 56 30
31 62 33
34 65 35
37 71 38
43 77 42
40 74 40
45 83 46
40 77 42
42 74 41
44 79 44
40 75 41
41 77 42
43 79 44
39 74 40
41 76 42
42 78 43
43 78 44
41 77 42
46 85 47
42 80 44
42 77 43
43 79 44
42 77 43
42 80 45
43 78 43
44 75 42
39 73 41
42 73 42
37 70 40
42 76 43
35 62 35
39 74 41
39 69 39
38 67 38
34 64 35
34 61 35
36 67 38
35 65 36
32 59 33
30 55 31
0 0 0
0 0 0
0 0 0
0 0 0
0 0 0
0 0 0
0 0 0
0 0 0
0 0 0
0 0 0
0 0 0
32 10 9
76 22 21
78 22 21
78 21 21
82 23 22
77 23 21
84 23 22
83 21 20
90 26 24
82 23 22
83 23 22
93 26 24
87 24 23
88 25 23
90 25 24
93 26 24
97 26 25
93 26 25
95 26 24
90 24 23
101 27 25
96 26 25
108 29 28
103 28 27
102 28 27
97 27 25
102 28 27
102 28 26
107 29 27
100 27 25
97 26 24
96 26 24
96 25 24
94 25 24
94 24 23
93 24 23
93 25 24
89 24 22
82 21 19
82 22 20
79 21 19
84 21 20
78 21 19
52 14 11
75 58 54
83 68 65
81 61 57
89 70 68
93 72 69
82 56 52
95 79 77
97 76 74
85 65 60
86 63 58
92 74 71
87 71 63
104 83 79
91 75 72
93 74 70
94 81 76
91 70 67
97 71 68
98 80 77
92 77 73
102 91 87
91 70 64
97 80 78
89 64 60
92 72 68
97 80 77
102 83 80
87 74 67
98 84 81
92 73 67
91 80 75
100 84 81
115 102 99
92 81 76
108 92 87
89 79 74
115 91 89
81 69 62
90 68 62
97 92 87
97 89 83
100 91 83
114 98 95
91 82 77
89 82 72
110 95 91
99 88 85
103 90 83
107 95 91
105 87 83
97 82 77
93 83 78
105 98 93
99 95 88
108 96 93
108 100 95
107 101 96
88 83 76
89 84 78
100 89 83
103 91 88
88 78 72
96 100 88
100 93 87
90 88 83
94 88 82
96 87 82
89 86 78
97 96 89
103 101 93
102 98 91
100 99 92
94 87 83
102 96 92
104 101 93
106 101 95
106 103 97
92 90 83
94 96 88
96 98 89
85 91 79
96 94 88
101 94 89
98 98 92
88 91 83
85 80 73
110 108 102
98 100 92
86 92 81
99 95 88
99 100 91
95 93 85
97 96 88
95 92 85
94 96 85
90 94 85
93 96 85
98 99 92
87 93 81
94 94 86
92 95 86
101 104 96
88 92 80
91 95 81
97 103 93
88 93 84
88 86 78
86 82 72
90 97 85
88 97 85
99 101 89
80 84 72
84 89 78
80 88 76
95 100 88
84 91 79
89 88 79
78 82 69
89 96 84
80 91 78
84 92 79
81 89 76
80 87 76
83 87 77
89 94 83
79 88 75
80 91 77
77 90 74
80 84 73
77 87 73
79 88 73
80 90 76
76 85 73
71 81 68
94 100 89
75 83 73
88 94 83
73 81 63
82 90 78
87 93 83
71 86 69
85 92 81
75 75 66
79 81 69
76 86 71
67 77 65
78 86 75
77 81 70
51 62 44
59 70 55
71 71 59
66 76 63
76 80 69
69 80 67
64 76 62
66 73 62
64 65 57
53 61 47
30 55 29
34 63 34
37 62 33
31 56 30
36 69 36
36 69 37
38 66 36
40 73 40
44 79 44
41 76 42
41 80 44
39 72 40
41 77 43
37 72 39
45 85 47
44 84 46
48 91 51
44 79 44
47 87 49
44 82 46
40 75 41
46 85 48
44 81 46
43 77 43
42 78 44
45 85 47
40 72 41
38 72 40
40 72 40
39 73 41
40 76 43
41 74 42
40 72 40
38 70 39
34 64 35
34 64 36
36 67 37
37 63 36
36 66 37
35 67 37
37 65 37
37 68 38
29 54 30
0 0 0
0 0 0
0 0 0
0 0 0
0 0 0
0 0 0
0 0 0
0 0 0
0 0 0
0 0 0
0 0 0
21 6 5
75 22 20
77 22 20
73 21 20
83 23 22
80 22 21
82 22 21
90 25 23
80 22 21
86 24 22
79 22 21
81 24 21
84 24 22
92 26 25
97 25 25
98 27 25
88 25 23
89 25 24
96 25 24
95 26 24
105 29 28
95 26 25
99 27 26
102 27 26
96 26 25
106 29 28
98 26 25
102 28 27
105 28 27
106 29 28
102 27 26
96 26 25
95 27 25
106 29 27
102 27 26
107 29 28
95 26 24
84 22 21
87 23 21
85 21 20
86 23 21
87 23 22
80 21 20
72 21 18
73 19 18
74 57 53
91 72 71
77 60 57
88 75 71
85 66 63
82 62 57
94 75 73
88 70 67
86 57 55
92 79 74
88 66 61
86 69 65
84 65 61
89 62 59
83 63 59
95 78 75
81 59 55
98 77 73
92 80 75
89 73 69
87 71 66
84 61 55
95 77 73
91 82 73
91 72 69
96 83 76
100 88 84
98 84 78
82 59 54
106 85 82
103 86 82
90 83 78
95 89 82
88 78 71
85 73 65
108 96 94
94 75 73
90 78 72
94 77 73
95 86 82
102 88 83
98 82 77
95 87 82
97 84 81
100 90 88
93 88 80
108 97 93
94 86 79
94 83 78
92 83 76
100 85 81
99 88 83
102 94 88
103 97 92
92 79 73
103 93 89
97 90 83
95 92 87
110 101 99
97 89 83
94 91 84
96 89 85
94 86 80
96 97 90
100 96 91
109 105 98
100 90 86
95 94 86
93 87 78
99 98 89
103 101 94
100 95 89
101 92 86
85 76 69
96 94 87
106 102 97
101 97 90
95 99 88
110 106 101
97 95 88
95 92 86
89 82 76
99 98 90
101 104 95
95 88 82
91 92 85
93 96 88
96 99 89
95 95 85
94 91 86
100 102 94
93 99 88
100 103 94
95 99 90
83 82 75
92 96 88
90 86 77
81 87 77
90 91 83
92 95 87
94 99 90
91 89 80
87 89 82
100 100 90
89 95 83
90 95 85
96 99 89
93 96 86
85 90 79
98 103 94
93 95 87
93 93 86
88 90 81
90 94 85
85 92 83
85 89 79
79 85 73
87 89 81
73 77 65
83 88 75
67 82 65
85 86 77
84 92 81
75 87 71
85 88 79
81 89 76
80 81 72
80 80 67
65 78 63
79 82 70
74 82 70
92 95 85
61 69 53
78 89 76
86 93 80
80 88 76
77 81 72
77 84 73
65 78 63
76 86 73
74 85 68
71 83 68
69 71 58
73 78 65
66 76 61
75 85 72
73 86 71
72 79 70
59 74 59
64 73 61
57 74 57
53 69 53
61 65 54
53 59 47
70 72 64
60 67 55
27 52 27
30 58 31
34 63 35
32 58 31
36 69 37
35 67 36
38 73 40
39 75 41
37 76 40
38 75 41
43 80 44
42 78 43
42 80 44
43 81 45
43 79 44
42 80 45
45 83 46
43 81 45
47 90 51
46 86 48
41 79 44
44 80 45
46 79 44
44 84 46
41 77 43
44 81 45
42 75 42
44 78 44
42 78 44
41 77 43
41 74 41
41 76 42
41 74 42
40 73 40
39 70 39
39 73 41
38 70 39
41 77 43
36 63 36
36 64 35
35 67 37
35 63 36
38 68 38
34 61 34
0 0 0
0 0 0
0 0 0
0 0 0
0 0 0
0 0 0
0 0 0
0 0 0
0 0 0
0 0 0
0 0 0
36 10 10
78 22 21
76 21 20
79 22 21
85 23 22
82 23 22
79 22 21
80 22 21
82 23 21
82 22 21
91 24 23
89 25 24
94 26 25
93 25 23
96 27 25
92 25 24
91 25 24
99 27 26
96 26 25
98 26 25
97 26 25
98 28 26
105 29 28
99 27 26
100 27 26
104 29 27
102 28 26
104 29 27
99 27 25
110 29 29
98 26 25
104 28 26
105 29 27
105 29 27
104 28 26
96 26 24
92 24 23
97 27 25
88 24 23
90 24 22
86 24 22
82 23 21
79 23 20
70 19 17
73 18 17
82 22 21
70 56 54
67 47 43
77 67 64
79 57 54
79 58 55
83 62 59
86 68 63
80 61 53
85 70 63
82 67 62
87 69 64
86 67 64
87 65 63
82 54 50
87 75 70
86 68 64
93 71 64
99 85 81
96 70 67
95 77 74
88 75 71
92 79 74
90 79 74
93 77 73
93 75 70
97 84 79
92 77 72
85 64 61
93 84 79
101 89 83
97 78 75
108 94 91
97 92 85
90 73 68
102 91 88
98 81 79
88 80 75
107 100 94
101 96 90
100 83 80
104 85 80
102 86 82
102 101 94
96 79 75
101 92 86
93 81 75
93 80 75
103 90 86
90 82 75
99 87 82
101 91 87
95 88 81
105 102 96
97 90 87
97 92 87
93 90 84
103 98 93
95 90 83
95 96 89
104 103 96
87 85 77
91 83 77
104 93 88
100 98 94
100 97 90
101 92 87
82 82 75
108 104 99
100 90 85
105 99 95
104 100 95
102 103 97
104 104 99
94 94 85
91 92 83
98 100 92
95 96 86
90 88 81
89 86 79
98 90 83
104 101 95
106 98 93
94 96 88
95 90 84
92 90 84
83 86 74
93 89 83
92 98 87
101 95 89
90 93 84
93 92 85
87 89 77
97 100 91
90 88 80
84 91 80
89 93 83
91 90 84
87 88 81
90 86 76
85 89 78
84 85 75
84 87 78
81 88 78
89 95 88
82 86 76
90 94 86
97 100 93
78 87 73
87 90 82
88 85 77
79 88 76
92 94 85
82 85 73
70 80 64
83 88 78
75 83 72
85 91 80
86 96 82
73 82 72
81 89 77
79 86 75
83 87 79
70 81 64
72 82 68
71 79 66
74 80 68
78 86 75
75 80 69
70 82 67
93 96 87
76 87 74
83 92 78
83 87 77
80 83 73
70 77 63
66 77 60
82 91 77
71 82 69
72 84 71
67 79 62
78 85 75
70 83 64
62 68 56
74 81 68
65 74 62
70 77 61
74 87 73
71 75 63
69 75 63
67 77 63
74 81 72
59 72 58
68 74 63
56 64 52
33 59 32
30 56 29
33 60 32
35 65 36
32 60 31
36 65 35
37 70 38
37 72 38
40 76 40
43 81 45
38 72 39
44 81 45
41 81 44
43 83 46
43 80 44
46 86 48
40 77 42
49 91 51
45 84 47
46 85 48
49 90 51
46 85 48
43 83 46
47 85 48
44 81 45
43 76 43
42 78 43
45 82 46
38 69 39
43 78 44
43 79 44
39 76 42
42 77 43
43 79 44
42 77 43
40 73 40
41 74 42
38 71 40
35 63 36
39 71 40
37 68 38
36 67 37
33 62 35
33 61 35
29 52 30
0 0 0
0 0 0
0 0 0
0 0 0
0 0 0
0 0 0
0 0 0
0 0 0
0 0 0
0 0 0
0 0 0
38 10 10
80 23 22
75 22 20
75 21 20
78 21 20
89 25 24
86 24 23
83 23 22
86 24 23
93 26 25
86 24 22
88 25 23
90 25 24
98 27 26
93 25 24
95 25 24
97 26 25
101 28 27
96 26 25
98 26 25
94 25 24
102 28 27
98 27 26
99 27 26
101 26 25
117 33 31
107 29 27
104 29 27
102 28 27
111 31 29
107 28 27
109 30 29
101 27 26
105 29 27
104 28 27
94 24 23
102 27 26
89 24 22
95 26 24
93 25 24
74 19 17
85 23 21
80 22 21
87 24 23
77 20 19
70 17 16
65 17 15
80 56 55
68 57 52
81 65 57
84 71 68
73 58 55
81 69 66
88 73 71
82 51 49
70 55 50
87 71 67
88 68 64
75 50 47
85 68 64
94 82 76
88 65 58
81 55 52
95 79 75
98 85 81
93 72 65
95 86 81
78 67 62
88 74 69
80 70 64
87 71 67
87 73 66
91 75 72
96 77 71
89 76 72
91 83 76
91 82 79
99 91 87
98 84 80
104 79 76
101 88 86
101 89 87
94 81 76
91 74 70
105 93 89
93 74 70
92 85 82
92 77 70
90 77 72
90 76 72
93 84 79
96 88 81
92 78 75
91 85 79
97 86 81
94 88 81
95 84 80
89 85 79
98 94 86
93 87 83
95 90 84
93 88 81
108 98 94
97 95 87
93 88 82
94 91 83
95 90 83
90 86 80
92 85 77
97 93 86
110 110 103
98 88 84
104 94 89
93 90 84
106 100 95
89 85 82
96 92 84
85 85 77
95 93 87
101 101 93
101 99 92
95 90 85
88 87 79
97 95 87
87 86 78
98 90 86
96 90 83
76 77 70
89 86 77
89 85 79
93 97 89
97 97 91
94 92 86
96 97 88
94 92 85
101 100 93
99 102 96
97 105 95
89 86 77
81 84 72
85 92 81
93 94 82
83 90 79
99 99 92
89 88 82
91 88 81
87 89 81
78 86 72
97 94 86
97 99 91
87 89 79
86 88 79
88 91 83
88 89 81
80 86 75
74 80 69
72 80 68
84 92 83
83 85 76
88 91 82
77 80 69
93 91 82
91 98 90
81 86 72
94 96 88
75 81 71
78 82 72
80 86 75
74 80 69
70 83 67
80 78 69
77 86 74
79 85 73
67 76 64
90 95 86
77 84 74
83 88 80
70 80 67
80 85 74
84 91 81
73 81 70
79 90 77
77 88 75
66 77 62
67 78 64
57 69 54
66 75 61
75 82 71
61 73 59
67 72 58
61 70 57
60 71 56
51 67 49
58 69 54
62 69 60
65 74 62
61 69 57
67 71 62
49 60 44
34 60 33
29 56 30
34 66 35
35 64 34
34 61 32
38 68 38
39 69 38
38 74 40
40 75 41
39 70 39
43 81 44
44 84 46
41 78 42
45 84 47
43 82 46
45 86 48
47 89 50
47 86 49
49 90 50
43 80 44
46 83 46
42 77 42
45 84 47
47 84 47
47 89 50
42 78 44
46 83 46
44 81 45
44 77 43
43 77 43
45 81 46
45 81 45
39 72 40
44 81 46
41 79 44
40 70 39
36 66 37
39 69 39
44 79 44
39 70 40
38 70 38
36 67 37
35 66 36
33 61 34
38 69 39
31 55 31
0 0 0
0 0 0
0 0 0
0 0 0
0 0 0
0 0 0
0 0 0
0 0 0
0 0 0
0 0 0
0 0 0
38 11 10
83 24 22
76 22 20
90 25 24
90 25 24
85 24 23
81 23 22
85 24 22
87 23 22
83 24 22
88 25 23
90 25 23
98 27 26
87 25 23
86 23 22
99 27 26
95 26 25
95 27 25
104 28 27
98 27 26
97 26 25
103 29 28
101 27 25
106 28 27
107 29 28
106 29 28
102 27 26
112 30 29
106 29 27
109 29 28
106 29 28
109 30 29
104 29 27
101 27 26
102 28 27
101 26 25
100 28 26
90 24 23
92 24 23
99 27 25
94 26 24
94 25 23
76 19 18
87 23 21
86 23 21
73 19 17
69 17 16
71 19 17
72 42 41
82 55 53
68 54 50
84 64 63
83 68 64
80 67 62
81 64 59
78 59 57
83 66 65
96 77 73
99 83 80
84 65 61
79 62 61
87 71 68
81 67 62
86 69 64
86 62 59
79 60 55
94 67 65
85 68 62
92 73 69
90 79 74
81 72 68
90 77 72
83 74 69
93 77 73
99 85 83
84 76 70
89 72 70
81 70 63
100 87 82
97 85 81
98 88 84
85 68 66
100 86 83
87 82 76
96 85 78
95 85 81
93 80 75
106 89 85
97 89 85
84 71 65
91 80 76
96 84 79
85 79 72
94 78 71
92 84 80
97 85 80
100 94 91
94 83 79
90 80 73
99 87 81
83 75 70
97 87 80
96 93 89
104 90 87
88 82 74
88 82 74
104 97 92
103 102 97
91 88 83
95 84 79
95 93 86
89 82 77
75 70 63
88 85 78
98 90 83
96 91 86
94 91 85
96 96 89
89 86 79
94 89 85
81 80 73
96 95 89
91 85 78
89 88 80
97 92 88
88 81 74
93 93 86
88 91 83
93 93 88
93 91 84
96 94 87
92 88 82
84 86 78
102 98 93
96 95 90
101 99 94
74 79 67
88 88 75
76 80 70
86 86 78
82 82 76
87 90 82
85 87 79
88 92 83
92 90 83
81 80 71
85 91 81
87 92 84
77 82 72
92 92 84
81 90 75
90 95 86
87 91 84
77 80 70
94 99 90
80 84 74
85 89 81
79 82 74
84 89 79
90 87 81
77 84 74
107 109 103
68 75 62
77 82 71
79 87 77
89 89 82
82 81 71
76 85 72
86 95 85
79 81 72
71 81 68
83 89 79
62 78 58
67 79 64
80 83 73
54 64 48
67 78 65
83 88 77
67 78 64
80 83 74
73 81 68
75 85 70
67 77 64
73 79 65
70 75 66
65 77 62
57 68 52
56 67 53
73 84 70
67 79 66
65 75 59
78 81 70
61 67 57
73 76 67
63 66 57
68 67 59
64 70 59
48 55 41
33 62 33
32 50 26
33 63 34
35 66 35
32 58 31
38 72 39
35 65 34
40 79 42
41 80 43
37 69 37
40 77 42
43 78 43
43 83 46
45 84 47
44 82 46
44 83 46
46 86 48
47 85 48
46 83 47
45 86 47
47 86 48
46 87 49
45 84 47
46 87 48
46 86 48
44 80 45
46 81 45
45 85 47
46 82 46
43 78 44
44 81 45
45 82 46
41 76 43
45 84 47
44 78 44
42 74 42
41 76 43
40 72 40
39 67 37
39 68 39
38 67 38
41 71 40
41 73 41
39 74 41
35 64 36
36 63 35
27 48 27
0 0 0
0 0 0
0 0 0
0 0 0
0 0 0
0 0 0
0 0 0
0 0 0
0 0 0
0 0 0
0 0 0
36 10 10
79 22 21
76 22 20
77 21 20
86 24 23
87 24 23
84 24 22
87 25 23
90 25 24
101 27 26
88 24 23
82 23 22
90 25 24
97 27 26
90 25 24
90 26 24
95 27 26
108 29 28
105 29 28
97 27 26
102 28 27
107 30 29
108 30 28
102 28 27
107 29 28
108 29 28
111 31 30
111 31 29
110 30 29
107 29 27
111 30 29
103 28 26
104 28 27
111 30 29
98 27 25
103 28 27
101 26 25
104 28 27
88 24 22
89 24 22
92 24 22
84 22 20
94 26 24
78 21 19
83 21 20
81 22 20
91 22 21
66 16 15
71 16 15
67 46 45
66 52 46
69 51 48
68 51 48
76 61 57
92 76 75
89 73 70
88 60 58
79 60 55
77 57 52
82 63 57
78 65 58
84 56 51
94 72 69
81 68 65
89 75 72
86 74 68
92 83 78
84 62 57
78 55 50
81 66 64
88 70 66
89 82 77
93 71 66
89 80 76
76 63 58
91 87 81
92 80 77
92 74 72
88 68 63
102 86 83
83 75 68
91 79 73
84 63 58
94 88 83
89 78 73
93 83 78
92 82 76
88 77 68
83 77 70
89 80 76
89 70 65
92 82 77
94 89 81
83 72 65
91 79 75
101 88 83
81 78 69
85 75 69
89 85 77
86 71 68
100 89 85
98 87 82
97 87 80
83 78 72
95 91 83
96 91 86
92 88 79
98 91 87
92 89 82
96 93 87
86 84 75
94 90 84
88 84 78
90 85 77
98 96 90
97 94 88
91 91 85
91 86 79
86 86 77
82 75 67
86 80 75
86 81 74
88 89 83
91 89 83
90 82 75
98 93 88
85 84 76
76 77 65
94 91 84
82 81 73
86 78 73
85 82 75
77 76 68
89 89 83
82 87 79
96 97 91
91 86 80
83 86 78
87 86 77
96 90 85
93 90 86
87 85 77
88 95 85
80 80 71
86 82 75
88 85 78
81 88 77
89 96 88
86 92 82
85 89 80
86 85 78
74 83 69
74 77 68
91 94 85
86 91 78
78 83 75
76 81 71
92 97 89
69 77 66
82 87 77
76 81 72
82 91 80
76 84 72
77 86 76
85 88 78
76 79 71
82 89 78
76 81 70
78 82 70
76 79 71
72 78 68
80 84 74
68 77 66
80 85 75
85 88 80
61 70 57
65 76 61
63 72 58
71 74 64
82 85 74
68 70 62
69 72 62
72 79 67
65 73 61
75 76 66
61 68 57
62 74 60
60 73 59
71 81 71
63 62 52
67 67 57
57 66 54
57 67 54
55 61 53
57 62 53
65 69 60
44 58 40
34 67 35
30 51 27
34 66 35
34 66 34
35 63 33
37 68 36
39 67 36
35 65 35
37 74 40
40 74 41
44 83 46
39 75 40
40 77 41
42 81 44
43 79 44
46 85 47
44 83 46
46 85 48
47 89 49
45 82 46
47 91 51
47 90 50
47 88 49
45 85 47
48 88 50
47 89 50
44 81 46
44 82 46
46 84 47
44 80 45
42 81 44
45 81 46
46 79 45
40 75 42
41 78 44
42 75 42
39 74 40
41 77 43
40 71 40
40 77 42
38 71 39
37 70 39
36 65 37
36 66 37
36 63 36
33 59 33
36 67 38
34 59 33
0 0 0
0 0 0
0 0 0
0 0 0
0 0 0
0 0 0
0 0 0
0 0 0
0 0 0
0 0 0
0 0 0
25 7 7
79 22 21
86 24 22
77 22 21
90 24 23
83 23 22
82 23 21
81 23 21
80 23 22
90 25 24
90 25 23
85 24 23
104 28 27
95 26 25
94 26 25
94 25 25
109 29 28
106 28 27
98 27 26
106 29 28
104 28 27
104 28 27
101 28 27
107 29 27
107 30 29
118 32 31
108 29 28
109 29 29
100 27 26
107 29 27
102 27 26
113 31 29
110 29 28
106 29 28
101 26 25
108 29 28
108 29 28
105 28 27
96 24 23
90 25 23
89 25 22
84 23 21
86 22 21
91 25 23
84 23 21
72 19 17
76 20 18
72 18 16
71 18 16
64 17 16
58 53 46
65 48 47
67 52 47
70 55 51
73 63 60
69 57 53
66 56 47
59 45 40
78 68 64
79 66 61
75 57 51
78 55 52
73 64 59
76 54 50
72 59 52
67 54 48
80 64 59
67 54 46
66 50 45
81 61 57
72 58 53
92 77 73
88 71 69
81 73 64
75 60 55
98 78 77
95 87 84
78 60 55
90 71 67
80 65 60
85 72 68
88 75 69
78 65 61
90 75 73
75 66 63
80 68 64
94 79 75
87 78 71
79 71 65
73 63 58
88 76 71
79 63 56
87 74 71
82 70 66
82 76 70
85 80 73
92 90 85
80 67 62
73 67 60
94 80 75
78 74 67
73 70 63
97 85 82
81 74 68
88 83 80
80 70 64
75 73 64
88 79 74
80 73 67
72 70 60
86 78 71
84 76 68
90 83 77
92 85 77
84 81 75
82 73 66
80 70 63
85 79 72
86 80 73
78 83 74
92 89 83
83 71 66
87 88 81
89 86 80
80 81 69
90 93 86
90 81 75
83 79 71
80 80 71
73 72 66
91 88 83
84 84 76
75 76 63
84 89 77
94 88 82
74 80 65
72 78 65
69 74 62
78 75 66
84 86 78
86 88 80
81 85 75
82 85 77
81 84 77
79 85 75
70 78 66
70 73 64
87 88 79
78 79 71
74 76 68
76 73 65
69 73 64
73 75 65
71 73 62
75 79 68
86 91 84
82 83 74
81 81 70
79 78 70
75 82 71
72 81 70
69 72 61
77 85 73
70 78 66
69 74 63
75 79 66
81 88 76
77 82 71
73 78 69
71 78 66
59 75 58
68 71 63
71 73 63
66 73 62
51 64 49
52 65 50
65 70 59
56 68 52
76 84 73
61 68 56
66 76 66
62 67 59
53 60 47
69 75 63
53 59 47
57 71 56
68 75 65
56 68 55
72 75 66
64 73 64
64 67 59
54 59 49
56 69 54
48 56 44
59 68 58
35 45 33
28 51 28
29 56 29
32 63 33
33 61 33
31 60 32
37 68 37
40 78 42
37 69 37
36 65 36
41 78 43
44 82 45
41 80 44
43 82 45
43 80 45
42 79 44
47 91 50
45 84 46
47 87 49
51 98 54
46 86 48
49 93 51
46 86 48
50 91 52
45 84 47
45 85 47
47 91 50
42 79 44
42 81 45
46 86 48
47 88 49
47 85 48
44 83 47
45 82 46
40 74 41
40 76 43
42 76 43
42 77 43
41 79 44
39 73 41
45 82 46
41 74 42
39 70 40
39 70 39
39 75 42
38 70 40
37 67 37
37 71 40
36 66 37
36 67 38
0 0 0
0 0 0
0 0 0
0 0 0
0 0 0
0 0 0
0 0 0
0 0 0
0 0 0
0 0 0
0 0 0
31 9 8
79 23 21
80 22 21
83 24 22
90 26 24
85 24 23
85 24 23
92 25 24
87 25 24
85 24 23
85 23 22
82 23 22
93 25 24
86 24 23
96 26 25
100 27 26
104 29 28
106 29 28
103 27 27
101 27 27
107 29 27
116 32 31
102 28 26
110 30 28
111 31 30
109 30 29
121 33 32
106 29 28
113 31 29
108 29 28
108 29 28
109 29 28
105 28 26
108 29 28
105 30 28
106 28 27
105 28 27
101 27 26
103 28 27
105 27 27
99 27 25
88 25 23
83 21 20
88 23 22
82 21 20
82 23 21
73 18 17
72 20 18
80 20 19
76 20 19
51 21 17
48 41 37
59 52 46
59 49 44
50 36 31
61 51 48
58 50 40
63 46 43
62 48 43
58 43 38
58 31 25
68 50 48
71 49 45
68 58 51
63 50 45
78 67 65
66 61 53
61 42 36
84 62 59
75 53 49
78 67 62
76 61 57
85 72 67
77 61 55
77 63 60
78 69 64
72 59 52
81 71 66
71 56 53
80 66 63
76 68 63
84 66 62
81 69 64
80 60 56
69 55 50
74 67 61
67 59 52
77 59 53
65 46 38
79 64 59
60 54 42
67 58 51
71 66 58
75 62 58
93 70 68
79 68 63
78 72 66
71 64 60
76 65 59
73 64 58
71 58 53
78 63 56
68 57 53
74 61 54
69 66 60
70 66 54
81 79 73
78 79 70
79 73 68
66 60 51
75 77 67
70 65 55
70 69 61
84 80 76
73 57 52
67 71 61
64 63 54
69 69 60
67 59 53
79 71 66
59 58 44
83 79 74
65 58 52
68 68 59
86 80 75
67 65 60
72 73 63
72 70 64
74 72 66
70 62 53
75 68 63
81 75 69
74 67 60
67 66 58
65 63 55
56 62 49
72 79 69
71 67 59
65 64 51
70 64 57
62 62 53
61 68 57
58 66 52
71 71 59
68 68 60
71 70 61
78 78 69
58 63 52
66 69 58
71 68 59
68 67 56
67 68 61
61 68 57
65 69 57
58 63 54
74 77 70
59 68 53
63 68 55
67 67 60
59 56 45
69 68 57
66 69 59
63 70 58
52 61 46
65 67 57
47 59 44
61 65 55
55 66 54
56 59 47
48 61 46
63 69 59
61 65 56
57 58 48
56 62 48
61 63 49
53 60 48
50 47 35
47 57 42
53 56 44
61 65 54
69 78 65
68 61 54
51 58 43
48 57 46
64 64 58
52 59 45
50 56 45
58 61 52
53 54 45
52 60 49
52 53 44
69 68 63
41 46 39
41 43 31
52 50 44
23 43 21
27 52 26
29 54 28
34 60 33
33 65 35
37 70 38
36 65 35
36 70 37
40 75 41
43 76 42
41 78 43
43 85 47
44 78 43
46 84 46
45 87 48
43 82 45
48 87 49
47 88 49
51 95 53
47 89 50
47 90 50
48 91 51
46 86 48
50 94 53
50 92 52
49 92 51
48 93 52
48 89 49
47 86 48
46 83 46
46 84 47
47 85 48
46 87 49
46 86 49
47 85 48
43 82 45
44 83 47
39 75 42
42 76 42
40 73 41
41 71 40
37 68 38
43 76 43
38 66 37
39 71 40
39 73 41
39 70 39
36 64 36
36 68 38
30 53 30
0 0 0
0 0 0
0 0 0
0 0 0
0 0 0
0 0 0
0 0 0
0 0 0
0 0 0
0 0 0
0 0 0
37 11 10
70 19 19
83 23 22
85 24 22
81 22 21
86 24 23
89 25 24
95 26 25
88 24 23
84 24 22
93 26 24
97 28 26
101 27 27
91 26 25
92 25 24
98 28 26
107 29 27
92 26 25
100 27 26
109 30 29
98 27 26
103 29 27
114 32 30
106 30 28
113 30 29
107 29 28
106 29 27
117 32 31
113 31 30
109 30 29
108 29 28
109 30 28
108 30 28
111 30 28
107 29 28
109 29 28
107 29 27
105 28 27
111 30 29
104 29 27
96 27 25
95 25 24
90 23 22
89 24 23
85 23 22
88 23 22
81 22 20
70 18 16
70 18 16
71 19 17
61 17 15
54 38 33
61 52 43
60 51 48
67 53 49
65 50 48
70 61 58
65 43 40
54 44 40
65 54 50
61 51 42
61 49 44
69 54 50
70 52 50
75 65 61
72 55 51
71 53 51
66 42 37
72 57 52
74 63 61
78 69 65
65 47 44
72 53 48
72 55 52
77 60 57
77 63 59
72 62 55
76 60 58
91 81 79
81 69 64
67 52 47
74 63 60
76 70 66
73 60 53
77 62 58
83 72 67
78 59 55
88 67 64
76 66 58
82 71 65
82 66 64
85 71 68
84 75 68
88 74 72
86 77 74
65 63 54
81 64 58
75 66 60
78 64 60
73 63 57
81 75 68
79 59 56
77 67 62
80 78 72
74 73 67
78 70 62
75 68 62
84 78 74
75 67 59
88 87 78
75 70 65
84 78 73
84 73 69
83 81 74
83 77 71
83 72 67
82 78 72
80 73 67
74 73 65
78 73 66
75 70 60
80 72 65
78 77 69
63 62 55
74 76 66
72 76 67
70 60 51
82 83 77
78 78 71
66 68 59
76 73 65
82 82 73
83 82 74
68 73 63
88 89 81
83 83 77
80 79 72
90 90 80
81 84 76
75 75 69
55 62 48
64 70 58
74 73 66
66 66 56
68 69 60
70 75 62
79 84 73
67 69 61
93 88 81
74 74 65
68 63 54
63 64 52
53 60 46
83 82 76
68 69 61
75 78 69
72 78 69
66 65 53
70 76 65
64 69 58
66 68 58
74 75 68
57 67 54
76 71 64
61 72 56
59 68 57
59 61 50
60 60 51
70 75 66
59 67 53
62 69 58
59 67 51
63 61 52
66 78 63
69 70 59
54 61 48
57 66 53
59 66 56
51 57 45
55 66 50
64 63 51
56 67 53
65 68 61
59 63 51
54 60 48
50 57 47
56 63 52
54 60 50
58 67 54
53 52 46
60 69 57
45 56 42
60 61 54
49 51 43
42 47 35
25 46 23
32 59 32
31 56 29
34 63 34
34 60 32
35 66 35
38 71 39
38 72 39
41 76 42
43 82 45
42 77 42
45 82 45
45 85 46
45 85 47
46 82 46
47 88 49
47 88 49
48 90 50
47 89 49
51 95 53
49 92 51
47 91 51
51 92 52
47 88 50
47 88 49
50 90 51
47 85 48
49 88 50
46 89 50
45 83 46
47 87 48
45 84 47
46 89 50
45 86 48
44 82 46
44 78 44
44 80 45
45 84 47
43 76 43
40 76 43
39 74 41
40 73 41
43 73 41
41 76 43
39 72 40
35 63 36
36 66 37
39 69 39
36 66 37
36 62 35
0 0 0
0 0 0
0 0 0
0 0 0
0 0 0
0 0 0
0 0 0
0 0 0
0 0 0
0 0 0
0 0 0
38 11 10
80 23 21
80 21 21
77 22 21
84 24 22
94 26 25
82 23 22
94 26 25
91 25 24
94 26 24
86 25 23
97 26 26
89 24 23
99 27 26
100 27 26
107 30 28
89 24 23
95 26 25
101 28 27
105 29 28
103 28 27
117 31 30
102 28 27
112 29 29
110 31 29
111 30 29
111 29 28
113 30 29
107 29 28
116 32 30
115 32 31
108 29 28
117 32 30
101 28 26
108 28 27
114 32 30
108 30 29
104 28 27
109 29 28
104 27 26
101 27 26
102 26 25
98 28 25
102 27 26
90 24 22
92 25 23
87 22 21
74 20 18
83 22 20
71 19 17
52 16 14
51 37 33
49 43 37
61 41 36
67 50 46
63 53 50
61 44 39
56 44 36
65 51 47
60 44 39
73 53 52
81 68 64
70 50 48
70 55 50
80 62 60
73 47 44
73 60 56
77 57 55
72 56 50
79 54 52
72 57 53
81 61 58
68 62 57
62 47 42
78 58 51
82 71 66
77 63 59
77 64 58
70 61 55
74 65 60
73 60 55
82 68 65
83 66 64
75 71 65
82 77 70
86 73 67
88 78 73
81 65 57
85 73 70
86 78 73
72 63 59
94 84 81
88 73 69
78 65 61
80 63 59
80 76 69
96 81 79
83 80 71
80 70 66
84 73 70
84 72 68
87 84 78
79 72 66
97 87 85
81 79 72
89 81 77
83 75 69
84 79 74
75 67 60
88 84 76
78 73 70
81 68 62
98 93 87
88 84 77
79 77 68
81 79 71
77 79 71
82 78 73
75 72 63
82 73 68
76 70 64
73 71 64
79 74 68
79 80 74
83 82 75
85 80 74
77 80 71
73 66 60
75 68 63
74 73 64
80 84 73
87 83 78
87 89 82
71 74 67
73 75 64
77 77 70
74 74 65
77 76 68
81 81 76
70 78 66
80 83 73
88 86 79
77 82 74
75 80 69
85 85 77
87 88 79
76 80 69
77 76 69
84 77 69
77 73 63
71 71 65
68 76 62
72 79 70
70 75 65
73 77 67
75 81 69
70 79 66
65 70 60
71 75 64
69 72 63
59 66 56
62 67 57
71 71 65
66 71 58
56 67 54
62 66 57
72 67 59
59 61 53
66 66 57
60 71 57
69 73 63
69 70 59
75 73 63
65 67 60
61 74 60
65 76 61
69 78 67
64 69 59
61 71 59
66 70 61
53 57 41
53 61 48
67 70 61
61 65 55
66 71 62
45 54 40
53 64 49
52 64 49
47 52 42
51 60 47
69 69 61
54 58 48
50 56 44
50 61 47
49 53 45
27 48 25
33 56 30
32 60 32
34 68 36
38 70 37
40 75 41
35 67 35
37 69 37
41 78 43
36 72 39
42 79 43
45 87 48
45 88 48
47 92 51
46 86 48
47 89 49
48 89 50
48 92 51
50 94 53
49 89 50
49 91 51
49 87 49
50 94 52
45 86 48
52 98 55
52 94 53
50 92 52
43 80 45
48 90 50
47 86 48
45 86 48
49 88 50
48 88 50
47 85 48
45 81 46
43 79 44
41 76 43
49 92 51
42 78 44
43 76 43
43 76 43
40 75 42
38 74 41
36 70 39
40 71 40
37 69 39
37 68 38
36 63 36
37 66 37
32 57 32
0 0 0
0 0 0
0 0 0
0 0 0
0 0 0
0 0 0
0 0 0
0 0 0
0 0 0
0 0 0
0 0 0
41 11 11
87 25 23
77 21 20
82 23 22
91 26 24
87 24 23
87 25 23
81 23 22
92 26 25
88 24 23
89 25 24
95 27 25
94 25 24
99 28 27
94 27 25
98 27 26
100 28 26
98 27 26
101 27 26
107 30 28
105 28 27
111 30 29
106 29 27
109 30 29
113 31 29
108 30 29
107 29 28
116 31 30
107 29 28
106 29 28
114 31 29
114 31 30
114 31 30
112 31 29
120 32 31
118 32 31
114 31 30
102 28 26
107 29 28
105 28 27
99 27 25
98 26 25
93 25 24
95 26 24
93 25 23
91 24 22
87 23 21
75 21 18
77 19 18
73 20 17
62 27 25
60 54 48
50 41 34
66 54 50
77 63 61
65 49 45
65 41 37
74 57 54
72 56 53
66 52 47
69 59 55
77 56 53
70 56 51
81 64 62
71 55 49
77 59 52
83 68 63
79 59 54
86 75 71
86 73 70
90 72 68
88 74 70
86 75 72
78 62 57
76 72 63
74 59 55
74 62 57
79 72 63
73 62 57
79 68 63
77 70 67
85 74 69
93 81 79
77 60 55
92 72 70
84 76 71
78 68 66
75 64 60
86 79 75
83 75 70
82 74 69
85 78 73
83 75 72
96 75 71
79 62 58
90 79 76
93 87 82
81 66 63
83 79 72
87 80 74
77 74 68
94 81 77
78 70 65
84 77 70
91 80 75
91 83 79
95 83 80
82 75 70
78 72 67
80 74 69
84 79 74
90 84 78
89 80 76
79 71 66
79 72 67
89 85 81
87 78 75
82 83 79
82 83 77
96 93 89
94 91 84
87 81 76
86 82 78
83 81 76
90 89 82
78 74 66
76 78 71
89 84 79
72 70 64
81 82 73
88 84 79
80 80 71
91 93 86
84 77 71
86 85 79
79 78 71
92 91 83
85 84 75
68 74 65
94 87 82
82 79 75
85 84 77
73 74 66
83 81 75
84 88 80
80 79 72
80 79 72
81 83 76
81 80 74
76 79 69
80 80 70
73 72 64
78 81 72
72 72 62
75 78 70
76 78 68
66 73 62
77 78 69
74 77 68
64 69 61
73 79 69
66 73 59
74 81 69
66 76 63
66 74 63
80 85 75
61 67 53
68 72 61
58 72 56
65 74 62
70 75 64
65 71 57
60 63 52
73 81 70
60 64 54
71 76 66
70 80 69
69 71 64
74 79 69
69 74 64
74 74 66
56 61 51
62 73 60
60 67 56
63 66 55
62 66 57
62 70 60
56 64 54
65 65 59
57 65 54
64 59 51
60 67 57
49 54 44
48 53 43
44 49 39
27 55 28
28 54 29
33 58 31
35 62 33
41 79 43
37 70 38
39 71 39
43 82 45
40 76 42
43 79 43
42 83 44
43 82 45
45 84 46
44 81 44
46 89 50
50 91 51
51 95 53
47 90 50
46 87 49
50 95 53
52 95 54
49 94 53
50 94 53
49 93 52
49 89 51
51 95 53
49 93 52
50 95 54
44 84 47
48 88 50
46 87 49
47 88 50
47 86 49
46 84 47
45 85 48
46 81 46
44 84 47
41 74 41
46 85 48
44 80 45
40 74 41
40 72 40
38 66 37
40 72 41
40 72 41
37 70 39
39 72 40
37 63 36
37 71 40
32 61 35
0 0 0
0 0 0
0 0 0
0 0 0
0 0 0
0 0 0
0 0 0
0 0 0
0 0 0
0 0 0
0 0 0
33 9 9
88 25 23
87 24 23
79 22 21
87 25 24
95 27 25
86 24 23
80 22 21
85 24 22
85 24 23
92 26 24
100 28 27
94 26 25
102 29 27
100 27 26
99 28 26
106 29 28
102 28 27
110 30 29
116 32 31
104 29 27
114 31 30
113 31 30
110 30 29
112 30 29
110 30 29
112 31 29
117 31 30
111 30 29
114 31 29
113 31 30
112 30 29
124 34 33
115 32 31
114 32 30
114 32 30
115 31 30
107 29 28
101 28 27
106 29 27
103 28 27
103 28 27
97 26 25
101 26 25
88 24 22
91 25 23
75 18 17
86 24 22
71 19 16
76 19 17
63 18 16
68 53 50
75 58 50
68 64 55
66 46 44
70 56 52
71 49 47
71 54 48
85 66 64
80 71 67
76 57 55
84 68 63
81 66 61
80 64 61
80 67 63
76 61 59
88 62 57
86 75 71
75 67 65
82 67 61
81 63 60
84 64 61
80 60 56
89 71 69
86 78 73
70 52 48
80 65 59
82 64 58
87 67 64
80 69 64
80 67 63
83 64 60
84 74 69
94 81 78
90 80 76
84 73 69
78 66 61
91 78 74
91 80 77
91 77 71
95 84 80
93 83 78
95 86 83
85 74 69
88 82 77
89 79 77
89 78 75
93 79 76
90 86 82
95 80 77
92 80 77
97 87 84
95 82 79
94 86 81
86 79 74
86 75 71
83 79 71
93 83 78
87 83 76
98 93 86
86 82 77
91 86 81
102 100 96
87 81 75
86 82 78
90 85 81
94 91 84
81 73 69
85 83 76
83 80 72
83 85 77
91 89 83
87 82 76
87 78 72
94 93 89
87 84 80
92 88 82
94 80 76
87 80 74
89 90 83
92 88 82
79 77 72
96 97 88
78 85 75
85 83 76
91 86 79
79 84 76
89 87 81
85 89 80
82 85 77
90 91 82
90 84 78
81 81 73
78 79 74
81 84 77
70 72 63
84 85 76
86 79 71
88 93 84
83 85 78
85 84 79
82 77 69
76 81 69
74 84 73
70 77 64
72 75 66
78 81 72
85 77 72
74 75 65
76 81 73
90 93 80
79 83 73
68 71 63
82 90 78
82 82 74
71 75 66
75 79 67
75 81 72
66 68 58
75 80 71
56 65 55
65 75 64
68 73 64
61 69 58
61 72 57
61 72 60
69 79 67
75 74 67
62 64 56
57 62 53
66 75 61
70 69 63
62 65 56
61 76 60
62 69 57
61 65 53
51 60 48
50 60 46
53 62 50
58 62 51
66 71 61
61 64 57
59 61 52
42 46 39
49 51 43
29 57 29
33 63 33
34 66 36
36 65 36
40 74 41
34 66 34
41 76 41
42 81 44
41 77 42
42 80 44
45 84 46
48 89 50
47 90 49
46 87 49
49 92 52
46 88 48
48 91 50
50 97 54
49 92 52
52 99 55
48 89 50
49 91 51
50 93 52
47 92 51
54 99 56
50 95 53
50 91 52
49 90 50
45 87 49
50 94 54
45 86 48
47 87 49
47 84 47
47 82 47
44 81 46
44 80 45
41 76 43
46 82 46
44 82 46
40 76 42
42 76 43
39 75 42
44 78 44
43 78 44
38 70 39
36 65 37
41 72 41
38 68 39
40 73 41
31 58 32
0 0 0
0 0 0
0 0 0
0 0 0
0 0 0
0 0 0
0 0 0
0 0 0
0 0 0
0 0 0
0 0 0
40 12 11
78 22 21
79 22 20
83 22 21
79 22 21
77 22 21
98 26 26
88 25 23
88 24 23
92 26 24
99 28 27
96 27 25
96 27 26
96 27 26
103 29 28
102 28 27
102 28 27
105 30 28
106 29 28
102 28 27
103 29 28
109 30 29
109 31 29
117 32 30
111 31 29
109 29 28
108 28 28
108 30 28
120 33 32
112 30 29
115 31 30
118 32 31
116 32 31
117 32 31
117 32 31
116 31 30
120 33 32
116 31 30
106 28 27
114 31 30
111 30 29
102 28 26
93 25 24
101 27 26
99 26 25
91 25 23
92 25 23
82 22 20
86 23 21
73 19 17
74 27 24
63 57 52
78 57 55
71 62 55
78 52 50
75 60 56
75 54 52
75 61 59
81 65 59
81 57 53
72 57 54
75 60 56
80 66 62
74 55 53
85 75 71
86 66 61
84 60 59
77 63 60
76 57 55
76 60 56
76 65 60
76 64 59
77 63 62
86 76 72
78 70 62
86 76 72
84 71 65
82 72 68
81 68 62
90 83 79
81 70 67
81 72 68
89 75 72
84 77 71
78 77 70
85 77 72
91 70 69
85 72 68
92 81 76
91 81 79
91 77 74
94 89 85
92 89 85
86 77 70
99 89 87
92 81 76
91 78 73
92 89 84
93 86 81
88 78 75
96 90 85
95 85 80
92 83 78
91 84 81
95 93 87
107 102 98
88 83 78
99 94 88
95 96 89
92 84 80
87 74 67
100 100 94
98 92 88
104 98 94
92 91 85
96 89 83
92 91 84
99 97 92
85 80 74
95 94 88
105 98 94
90 88 81
88 89 82
82 82 75
100 102 94
95 92 83
85 78 72
98 94 87
93 95 87
79 84 74
86 87 81
90 87 81
88 89 84
87 87 81
91 87 80
92 86 80
80 83 75
93 93 84
82 82 74
84 86 77
94 98 90
86 94 85
84 81 75
79 84 74
86 85 79
89 91 84
90 91 81
81 76 71
79 83 76
77 77 69
77 77 70
82 85 78
94 94 87
78 86 74
81 83 76
81 83 73
72 81 70
80 81 74
81 88 78
85 91 81
76 77 68
81 86 78
79 82 74
77 81 72
79 78 69
68 76 62
90 90 83
66 73 61
69 73 63
68 73 63
71 69 63
71 80 69
75 79 71
63 71 57
75 81 71
96 97 90
70 77 63
76 77 66
67 75 63
71 73 62
68 75 62
70 69 61
72 75 66
60 67 56
62 67 56
65 74 62
57 67 52
61 71 59
66 74 61
60 70 58
54 64 49
68 71 64
65 64 55
62 65 57
51 59 45
31 54 28
36 67 36
35 67 35
33 65 34
37 74 39
41 76 42
41 76 42
42 77 42
44 83 45
42 82 45
47 84 47
48 89 50
46 85 47
49 91 50
51 95 54
50 95 53
48 90 50
49 88 49
48 89 49
51 96 54
47 89 50
52 94 53
51 95 54
48 89 50
51 95 53
50 92 52
49 91 51
42 81 45
49 94 52
45 86 48
46 88 49
44 84 47
47 84 47
44 84 47
44 81 45
44 83 46
46 85 48
42 78 44
44 82 46
42 79 44
40 74 42
43 80 45
40 75 42
38 73 41
41 75 42
37 71 40
39 70 39
39 69 39
37 64 36
31 55 31
0 0 0
0 0 0
0 0 0
0 0 0
0 0 0
0 0 0
0 0 0
0 0 0
0 0 0
0 0 0
0 0 0
32 9 8
87 23 23
81 22 21
87 24 23
85 24 22
91 26 24
84 24 22
87 24 23
95 26 24
95 27 25
98 27 26
95 26 25
99 28 27
104 29 28
103 29 28
103 29 27
93 25 25
107 30 29
107 30 28
106 28 27
110 30 29
107 29 28
111 30 29
113 31 30
110 31 29
111 30 29
114 32 30
113 31 30
112 30 29
114 31 30
115 31 30
123 35 33
112 30 29
121 33 31
114 31 30
112 31 30
113 31 30
109 29 29
116 31 30
111 29 28
112 31 29
99 27 25
98 26 25
102 28 26
104 28 27
95 24 23
93 25 23
92 24 23
74 20 19
74 19 18
78 24 22
68 53 47
64 45 43
69 47 45
80 52 50
86 72 70
82 65 62
83 77 72
81 64 62
76 62 58
80 69 64
72 60 54
80 67 65
79 62 59
86 69 66
77 61 59
86 66 65
84 71 68
76 67 61
76 68 63
85 66 64
92 80 77
91 76 72
84 68 62
80 65 61
82 71 67
84 68 63
92 78 76
78 70 64
87 74 70
99 93 89
91 83 79
97 86 81
83 67 64
96 79 76
96 79 76
91 84 80
84 81 70
94 83 80
88 85 79
92 86 82
91 83 79
85 81 72
87 74 71
99 92 86
89 82 76
88 81 78
87 79 73
104 99 94
90 87 83
100 91 88
105 98 95
97 92 87
93 89 84
91 83 78
100 90 86
88 87 81
100 96 91
102 93 89
104 97 92
97 89 85
88 84 77
91 88 84
95 84 76
102 92 88
111 101 98
95 94 88
96 94 88
91 90 85
93 93 85
98 97 90
96 95 90
85 81 74
91 89 84
89 89 84
94 89 84
89 85 77
89 86 79
96 86 81
92 90 85
97 98 92
92 93 86
90 92 82
99 94 88
95 88 84
85 84 78
90 89 83
86 88 83
92 90 84
88 86 79
90 87 81
86 87 81
92 90 83
90 90 83
88 91 85
93 95 86
85 84 78
86 89 80
92 90 85
83 85 77
83 88 79
81 81 73
87 91 84
80 78 71
84 86 78
77 84 71
85 86 77
86 88 77
75 78 69
83 81 73
76 83 72
83 91 81
88 91 85
80 86 75
81 82 75
81 82 71
76 82 72
78 87 77
72 76 66
73 81 71
80 88 78
67 76 67
74 83 73
74 71 62
74 76 65
75 83 73
70 77 67
77 81 73
64 73 61
60 70 58
72 84 69
59 71 59
70 76 66
56 67 56
70 81 69
60 71 57
62 70 61
70 75 64
75 78 67
57 65 53
56 61 53
58 64 55
56 66 53
66 71 64
50 60 49
27 50 26
33 62 33
37 68 37
35 69 37
36 66 36
40 77 41
41 77 42
40 79 43
41 79 44
46 82 45
44 83 45
51 93 52
47 90 49
47 90 50
47 88 49
48 89 50
49 91 51
51 95 53
52 99 55
53 96 54
54 101 57
47 87 49
51 94 53
49 91 51
50 92 51
54 102 57
47 89 50
48 91 51
48 85 48
54 103 58
51 93 52
47 88 49
45 84 47
45 82 46
46 82 46
46 86 49
43 80 45
44 80 45
44 77 44
43 81 46
45 82 46
41 77 43
42 75 42
39 73 42
40 76 43
39 69 39
39 71 40
40 72 41
36 67 37
32 56 32
0 0 0
0 0 0
0 0 0
0 0 0
0 0 0
0 0 0
0 0 0
0 0 0
0 0 0
0 0 0
0 0 0
35 9 9
83 23 22
88 24 23
86 24 23
87 24 23
89 24 23
98 27 26
97 27 26
92 26 25
97 26 25
100 28 27
93 25 25
96 26 25
99 27 26
92 25 24
98 27 26
108 30 29
97 27 25
106 27 26
111 31 30
115 31 30
106 29 27
118 33 31
116 32 31
116 31 30
119 32 31
110 30 29
124 34 33
116 32 31
116 32 31
117 32 31
121 34 32
115 32 30
113 31 29
112 30 29
112 31 29
116 31 29
114 31 30
113 31 29
106 29 28
109 30 29
109 29 27
102 28 27
92 25 24
88 24 22
102 27 26
91 24 23
87 24 23
86 23 21
87 22 21
82 25 24
70 61 55
75 61 56
82 72 70
87 76 74
79 63 59
83 62 59
75 53 50
73 65 60
86 69 66
81 67 62
87 67 64
87 71 69
89 72 70
78 65 61
80 71 66
87 64 61
86 75 70
88 68 65
97 70 67
91 79 76
87 72 68
90 77 73
93 74 72
91 75 70
93 86 82
85 68 63
100 88 85
105 89 87
96 79 76
93 80 76
90 81 77
89 81 74
96 88 84
86 75 70
89 80 77
98 83 80
92 86 81
99 85 81
96 90 85
105 93 89
93 87 82
91 76 72
92 85 79
97 88 85
90 82 78
94 82 77
90 85 80
104 95 92
98 89 84
101 99 97
92 86 82
94 83 79
97 89 86
105 101 98
101 96 92
94 88 85
100 100 94
100 95 90
98 92 87
92 88 82
95 86 82
95 95 90
99 93 88
93 93 89
95 89 84
99 99 93
88 88 82
104 102 96
106 100 96
108 101 98
98 91 86
96 98 91
100 93 87
103 102 97
103 100 96
99 92 86
92 89 81
96 91 85
94 93 87
93 89 83
99 100 95
100 98 93
93 95 90
106 98 95
99 97 92
95 96 90
90 87 80
84 86 80
93 92 85
94 93 88
103 101 96
100 104 97
92 89 82
86 84 78
89 84 76
78 83 72
87 89 80
84 85 76
95 92 86
92 92 82
88 90 81
95 98 90
76 82 74
78 87 75
83 81 76
79 83 76
79 84 76
87 85 76
85 90 81
91 93 88
73 83 71
82 84 74
80 81 72
85 88 77
85 89 81
77 81 70
74 83 72
68 74 65
82 87 79
74 79 72
82 84 76
78 75 65
79 85 74
76 81 70
72 82 68
70 79 68
73 77 66
69 72 64
69 75 66
68 74 62
69 75 65
70 75 66
69 72 63
67 73 62
74 78 67
66 74 64
67 73 63
56 63 52
68 76 66
73 81 72
58 67 57
61 66 57
63 71 58
57 68 55
32 61 32
32 60 32
33 66 35
39 76 41
39 75 41
41 73 39
42 84 45
42 79 43
41 79 44
44 81 44
44 85 47
47 88 49
51 94 52
49 93 52
50 95 53
49 92 51
51 96 54
50 94 53
50 95 53
50 93 53
48 91 50
51 96 54
49 93 52
58 109 61
51 92 52
52 96 54
50 95 53
51 97 55
47 87 49
52 96 54
49 90 50
46 83 47
47 88 49
47 83 47
48 87 49
47 86 49
47 89 50
43 78 44
42 78 44
42 77 43
42 80 45
42 78 43
39 75 42
40 72 40
39 74 41
39 71 41
41 73 41
40 73 42
36 66 37
33 59 33
0 0 0
0 0 0
0 0 0
0 0 0
0 0 0
0 0 0
0 0 0
0 0 0
0 0 0
0 0 0
0 0 0
40 12 11
82 23 22
84 24 22
78 21 20
97 26 26
90 25 24
88 24 23
96 26 25
91 26 24
89 24 23
94 25 25
94 26 25
98 27 26
96 26 26
97 27 26
105 29 28
107 29 28
106 29 28
112 31 30
106 30 28
106 30 28
109 31 29
112 31 30
122 34 32
113 30 29
120 33 31
119 32 31
119 33 32
121 32 32
122 32 31
117 32 30
120 34 32
110 30 29
115 31 30
115 32 31
119 31 30
111 30 28
117 32 31
111 30 29
107 29 28
108 29 28
107 29 28
102 28 27
103 27 27
99 26 25
96 25 24
98 25 24
95 25 24
84 22 21
73 19 17
75 39 38
73 59 57
74 65 59
77 66 63
88 70 68
83 66 62
81 67 65
89 71 69
81 75 69
82 68 63
77 59 56
80 63 59
90 67 65
83 68 64
91 76 73
82 71 66
77 69 65
88 76 72
87 74 71
82 66 63
88 70 66
95 88 82
88 73 70
94 77 73
92 78 73
83 70 65
94 78 75
89 76 72
100 90 86
89 74 72
90 80 75
92 78 73
88 77 72
96 84 80
92 85 81
96 87 84
90 79 75
99 84 79
108 100 97
106 89 86
101 95 89
89 80 77
102 90 88
101 87 83
102 88 85
91 82 77
114 102 98
95 86 81
100 95 90
98 88 86
104 93 89
109 100 96
112 98 95
100 95 90
105 95 92
92 87 83
99 95 91
99 94 90
109 104 99
102 91 85
101 96 90
104 101 94
102 99 92
108 101 96
94 94 88
95 93 88
101 90 86
99 89 87
109 104 99
94 95 88
105 99 96
91 86 81
99 98 93
102 98 93
99 96 91
90 91 82
91 93 87
103 96 92
97 101 93
98 99 92
95 96 90
100 98 92
101 99 94
101 90 86
95 100 89
100 103 96
100 94 91
95 94 86
100 101 95
88 92 84
97 95 89
97 101 92
93 95 88
99 97 92
100 102 94
90 94 85
86 88 81
86 98 84
86 90 81
88 86 79
86 86 78
88 90 81
96 99 90
91 91 86
84 87 78
90 96 87
90 91 84
85 89 80
85 90 80
84 87 78
81 81 71
77 79 71
91 95 87
84 92 82
87 88 80
90 94 87
81 85 77
79 86 76
86 91 83
79 89 78
75 82 73
78 84 75
76 81 72
79 84 76
78 83 76
72 80 71
72 81 68
73 79 72
78 83 73
76 78 70
75 84 71
72 79 69
65 71 61
72 79 68
64 74 63
63 78 63
67 69 61
60 71 58
72 76 68
59 68 55
60 66 55
56 62 53
58 67 56
54 59 50
60 61 53
34 64 35
33 67 35
38 72 38
36 68 36
39 76 41
37 74 39
42 78 43
42 79 43
44 86 46
45 89 49
50 92 51
48 90 49
52 100 56
47 91 50
50 94 53
47 95 52
51 98 55
52 98 55
48 91 51
52 98 55
49 95 54
49 94 53
52 99 56
48 90 50
50 91 52
48 90 51
49 91 51
47 90 50
51 93 52
49 91 52
48 90 51
45 87 48
45 85 48
47 87 49
44 84 47
44 84 47
46 86 48
42 77 44
43 78 44
44 79 45
41 75 42
41 74 41
40 76 43
39 72 40
42 77 44
39 69 39
37 69 39
42 77 43
39 68 38
34 61 34
0 0 0
0 0 0
0 0 0
0 0 0
0 0 0
0 0 0
0 0 0
0 0 0
0 0 0
0 0 0
0 0 0
27 7 7
82 23 22
84 24 22
85 24 22
89 24 23
82 23 22
89 25 24
89 24 23
97 27 26
93 26 24
96 27 25
97 27 26
93 26 25
99 27 26
101 27 26
101 28 27
105 28 27
107 30 29
114 31 30
108 30 29
111 31 29
115 32 31
114 31 30
108 30 29
113 31 30
116 32 31
115 31 30
118 32 31
116 31 30
112 30 29
113 32 30
118 32 31
125 35 33
126 34 33
116 31 30
125 35 33
112 31 29
122 33 32
112 28 28
108 29 28
121 33 32
108 29 28
109 29 28
114 30 29
91 24 23
101 26 25
84 23 21
82 21 20
85 22 21
75 18 17
79 29 27
81 68 65
83 61 59
82 61 58
80 70 65
89 71 70
91 77 75
73 58 55
94 68 65
83 66 64
90 74 71
93 77 72
87 74 69
87 72 71
79 70 65
90 80 74
86 67 65
88 74 70
86 70 65
87 71 67
92 78 73
88 76 70
90 78 75
88 75 70
90 77 74
93 80 76
99 81 77
95 87 82
91 81 74
88 78 74
97 88 84
106 95 92
101 82 79
113 102 100
98 81 77
95 83 80
98 87 84
104 89 87
98 88 84
100 88 85
107 97 93
102 91 87
89 83 76
98 89 86
96 91 86
109 102 100
100 96 92
96 94 88
102 95 90
99 94 88
100 90 85
104 99 95
102 99 93
106 103 97
99 90 86
95 90 83
102 97 92
105 101 96
106 101 96
96 92 86
99 97 91
110 102 98
109 107 103
104 96 92
110 103 99
106 98 95
98 94 89
110 111 106
96 90 86
89 89 83
108 108 101
107 107 102
114 110 107
106 100 95
109 110 104
109 105 101
105 98 94
100 99 93
104 108 98
108 107 102
100 101 96
102 103 97
100 95 90
103 100 95
102 99 93
104 105 98
97 98 92
92 93 85
96 96 88
98 100 94
94 101 91
103 101 96
94 91 84
96 100 94
102 101 94
101 102 95
99 103 95
95 99 90
89 93 86
84 85 77
95 100 91
91 93 86
87 92 82
88 94 83
91 94 87
89 92 83
91 89 84
85 90 81
87 89 82
91 99 87
94 96 86
85 89 80
85 90 81
82 85 75
87 91 83
82 84 77
78 82 71
85 88 79
84 92 83
86 94 84
74 84 72
86 93 82
79 81 72
72 77 70
74 79 69
85 88 81
80 87 77
78 84 75
75 84 73
75 79 69
70 78 69
63 71 62
63 71 62
70 75 64
67 74 65
78 85 75
75 79 70
65 70 59
62 69 58
68 76 64
64 71 61
70 72 62
62 71 58
71 77 68
59 65 56
34 70 37
34 67 36
34 65 35
37 74 40
42 79 44
39 75 41
39 77 42
47 87 49
41 84 45
49 90 50
46 86 48
49 91 51
49 90 50
50 94 53
48 90 51
51 95 53
52 99 55
53 96 54
53 99 55
48 91 51
52 96 54
52 95 54
50 97 55
54 101 57
52 96 54
48 90 50
51 93 52
50 93 53
49 88 50
48 87 49
46 84 47
47 89 50
46 84 48
45 84 47
49 89 50
48 89 49
43 78 44
43 81 46
43 78 44
42 77 43
43 80 45
43 81 46
39 71 40
42 71 41
39 75 42
41 73 42
38 68 38
40 70 39
40 71 40
35 62 35
0 0 0
0 0 0
0 0 0
0 0 0
0 0 0
0 0 0
0 0 0
0 0 0
0 0 0
0 0 0
0 0 0
42 12 11
87 24 23
85 24 23
92 26 25
95 27 25
87 25 23
97 27 26
91 25 24
85 25 23
89 26 24
95 26 25
103 28 27
96 27 25
100 27 25
101 28 27
97 27 26
102 29 27
111 31 29
112 30 29
109 30 29
111 31 30
106 29 28
114 31 30
112 31 30
116 32 31
116 31 30
119 32 31
119 33 32
125 35 33
125 33 32
120 34 32
122 34 33
125 34 33
119 32 31
126 34 33
116 32 30
124 33 32
120 32 31
112 30 29
114 31 30
109 29 28
105 29 27
105 28 27
112 29 28
105 28 26
99 27 25
89 24 23
90 23 22
83 23 21
78 21 19
76 33 31
81 65 64
86 64 62
79 60 58
80 67 65
84 66 63
76 59 56
86 70 69
80 67 63
91 73 69
83 67 63
85 72 68
86 64 61
90 76 72
96 79 76
95 74 73
108 87 86
101 81 79
99 81 77
104 86 84
99 86 84
81 77 72
98 82 79
89 75 71
95 76 74
101 79 77
89 77 73
93 83 77
107 88 86
92 75 69
101 87 83
95 89 86
86 73 70
99 85 82
95 86 82
94 87 82
96 87 82
96 87 83
104 95 91
103 89 88
111 108 103
106 96 94
108 99 95
113 105 102
106 94 90
104 98 94
110 105 99
102 92 89
111 100 96
108 100 97
102 90 86
104 101 96
106 96 94
111 101 96
107 102 97
101 95 91
107 106 102
116 104 99
102 97 92
101 96 92
102 94 88
105 106 101
97 96 90
98 96 90
116 110 107
109 98 94
95 95 88
112 101 96
105 96 91
108 105 101
102 103 96
108 102 97
103 104 96
105 107 101
109 106 101
99 92 89
99 100 91
96 96 89
106 104 98
102 103 98
109 105 101
95 92 87
102 102 96
108 102 97
104 98 93
102 101 96
99 98 93
103 99 93
97 97 89
93 98 90
105 105 100
103 101 96
102 102 95
98 99 92
96 98 90
100 104 98
101 97 92
104 104 97
102 105 97
91 93 85
90 92 86
105 104 99
104 101 97
96 98 91
86 90 80
99 99 91
94 97 89
91 97 84
86 90 81
95 95 89
87 96 84
90 95 87
83 87 76
88 94 85
85 90 79
78 87 74
95 97 90
85 82 73
85 94 83
81 85 75
84 92 83
81 91 78
77 84 74
82 86 77
80 83 74
77 85 73
74 85 74
78 83 74
82 87 79
73 80 71
73 76 70
76 89 75
73 83 69
77 80 72
67 72 61
76 82 72
79 85 74
64 72 61
63 72 61
65 76 61
66 71 60
69 78 66
66 74 62
70 78 67
60 70 58
36 70 38
34 66 36
40 76 41
36 71 38
43 81 44
45 85 47
43 81 45
44 80 44
43 83 45
46 85 47
44 85 47
46 85 47
48 89 50
47 88 49
53 100 56
53 101 56
51 98 54
50 94 52
52 100 56
54 100 56
51 94 52
54 99 56
50 96 54
52 98 55
53 99 56
52 97 55
51 97 54
49 92 51
53 97 55
47 89 49
48 92 52
47 86 48
48 89 50
44 83 47
45 86 48
45 82 46
41 76 42
44 80 46
47 82 47
41 79 44
41 74 42
41 77 43
44 82 46
43 75 42
43 79 44
43 75 43
38 67 38
40 71 40
40 70 40
31 58 33
0 0 0
0 0 0
0 0 0
0 0 0
0 0 0
0 0 0
0 0 0
0 0 0
0 0 0
0 0 0
0 0 0
41 12 11
86 25 23
86 23 22
84 25 23
90 25 24
87 24 23
88 24 23
90 26 24
95 27 24
89 25 23
92 26 25
95 26 25
105 30 28
110 31 30
105 29 28
101 28 27
107 30 29
105 29 28
115 32 31
111 30 29
108 29 28
107 30 28
115 32 30
114 32 31
116 31 31
117 32 31
119 32 31
122 33 32
120 32 31
125 34 33
121 33 32
119 32 31
121 32 31
113 32 30
119 33 32
122 34 32
115 30 30
116 31 30
117 32 31
121 33 32
120 32 31
112 31 30
109 30 28
96 26 24
98 27 26
105 29 27
98 27 26
93 25 23
89 24 22
89 23 22
71 28 25
82 63 61
79 55 52
78 63 59
83 68 67
88 71 68
82 60 57
80 63 61
81 75 70
87 68 63
99 84 82
82 66 63
87 70 68
91 75 72
95 78 75
94 86 81
103 92 88
82 71 68
97 82 77
93 79 77
100 85 81
80 69 66
81 73 69
94 81 77
98 86 83
97 88 83
93 78 74
103 91 87
88 77 75
95 85 81
95 78 77
105 85 83
98 88 84
106 100 97
105 89 86
106 98 95
101 90 87
97 89 86
107 100 96
101 87 84
102 99 94
91 87 82
107 95 90
113 103 99
109 99 95
110 101 98
103 97 93
106 104 98
108 97 94
106 106 101
104 98 93
104 92 88
116 105 102
112 103 99
107 104 100
110 103 101
109 102 96
107 104 100
114 108 105
108 102 98
104 94 91
108 107 101
114 111 108
105 99 95
108 98 95
111 103 100
110 106 101
107 101 96
102 100 96
111 106 100
110 108 103
102 99 93
101 98 94
114 114 108
112 110 105
106 98 94
107 106 100
110 106 102
103 105 99
109 107 100
102 104 97
105 108 101
97 101 93
102 106 99
107 105 99
114 111 106
99 97 93
103 101 96
103 105 98
112 115 108
99 102 96
93 96 89
98 94 88
97 99 91
94 99 90
97 97 88
102 102 96
99 101 95
96 95 87
99 101 93
95 92 85
95 95 90
101 108 99
96 100 90
90 94 85
98 99 94
93 92 86
91 94 84
96 95 88
89 93 83
91 95 86
90 96 86
96 93 88
83 90 82
84 91 81
95 102 92
93 99 90
89 92 85
84 91 81
91 93 87
76 82 71
82 87 78
81 88 77
89 98 89
75 82 71
81 84 76
74 82 70
73 83 71
78 85 75
74 82 72
75 79 70
85 89 79
76 82 72
70 75 64
73 78 68
76 82 74
72 79 68
66 75 64
72 79 68
80 86 75
72 79 68
65 74 63
73 80 67
74 77 70
63 72 61
35 70 38
35 62 33
38 70 38
42 83 46
43 83 45
41 80 43
43 82 45
43 83 46
42 80 44
46 86 48
46 87 48
49 95 53
50 94 52
53 98 55
50 95 53
52 98 55
52 98 55
54 101 57
52 100 56
51 96 54
50 93 52
55 102 58
53 101 57
53 101 57
50 95 54
52 94 53
48 86 49
52 95 54
50 89 51
51 96 54
49 92 52
51 97 54
50 90 51
45 84 47
49 92 52
46 85 48
45 84 47
45 85 48
45 83 47
44 83 46
42 77 43
43 76 43
43 81 45
38 69 39
43 80 45
40 73 41
43 74 42
42 77 44
36 66 38
34 60 34
0 0 0
0 0 0
0 0 0
0 0 0
0 0 0
0 0 0
0 0 0
0 0 0
0 0 0
0 0 0
0 0 0
39 12 10
84 23 23
81 23 22
88 25 23
86 24 23
90 25 24
96 27 26
94 27 26
94 26 25
94 26 25
91 24 24
97 26 25
92 26 25
111 30 29
104 29 28
99 28 26
114 32 31
108 30 29
115 31 30
112 31 30
111 31 30
108 30 29
112 31 30
112 31 30
117 33 31
122 34 33
120 33 32
126 34 33
124 34 33
123 33 32
117 32 31
123 34 33
128 34 33
128 35 34
128 35 33
121 32 31
123 34 32
111 30 29
108 30 29
123 34 32
109 29 28
103 29 27
112 29 29
98 26 24
106 28 27
100 27 25
96 27 25
96 25 24
87 22 21
84 22 21
78 26 25
78 54 52
94 71 68
87 72 70
82 73 68
88 74 71
92 75 72
94 74 72
88 64 63
83 73 68
88 78 76
96 78 75
88 75 72
89 70 68
94 80 75
94 75 71
101 80 77
99 83 81
100 81 77
96 80 76
89 77 73
96 82 79
99 89 86
95 82 80
99 83 81
101 86 81
102 90 86
94 80 78
109 95 93
101 88 84
114 104 102
107 88 86
104 88 84
112 99 96
101 89 84
103 93 90
99 88 84
106 100 93
106 97 92
109 100 98
108 100 96
102 92 88
110 99 96
111 99 96
110 102 98
108 100 97
96 92 88
109 99 96
104 96 92
110 102 98
112 104 101
110 104 102
106 99 95
111 109 104
107 106 99
108 105 101
110 105 102
102 96 92
112 110 106
107 103 98
109 101 97
108 101 97
119 111 108
107 104 100
109 109 102
116 108 106
107 104 99
107 103 99
107 102 97
108 110 105
107 107 102
107 102 97
111 106 100
103 106 98
116 111 104
116 111 107
109 102 98
101 101 95
108 105 101
105 102 97
114 109 105
105 102 94
112 110 107
111 108 105
107 107 100
111 110 105
106 105 98
95 99 92
100 100 92
110 111 106
109 110 104
105 105 98
102 106 101
99 100 95
103 104 97
107 111 105
97 96 89
101 99 93
104 103 98
102 104 96
98 103 93
105 107 100
99 104 96
90 96 87
92 95 87
93 101 91
88 96 87
98 101 94
90 93 85
96 100 92
89 91 83
88 95 85
88 92 84
87 93 84
88 89 83
93 97 88
84 92 83
89 96 85
82 88 78
85 89 80
96 100 90
85 86 79
93 96 88
82 89 78
87 91 82
81 87 77
81 91 80
79 86 76
78 83 75
81 87 77
81 87 77
72 79 68
77 89 77
80 85 77
81 90 79
86 92 82
85 85 78
76 85 75
74 79 71
69 77 67
67 77 66
67 75 65
68 75 64
71 75 66
63 75 62
33 67 35
37 76 40
39 73 40
41 78 42
41 78 43
43 82 45
45 87 47
45 84 47
44 84 46
49 91 50
47 91 50
49 95 53
48 89 49
51 97 54
53 98 55
50 96 54
53 100 56
52 98 56
51 95 53
55 102 58
54 104 58
53 98 55
51 96 54
56 106 60
53 99 56
52 99 55
50 92 52
50 92 52
52 97 54
48 89 50
51 97 55
49 94 53
47 88 49
46 86 49
42 80 45
48 89 50
43 79 44
44 83 47
47 89 50
42 78 44
45 82 46
44 84 47
41 72 40
41 74 42
36 68 38
41 73 41
39 71 39
42 76 43
39 69 39
30 57 32
0 0 0
0 0 0
0 0 0
0 0 0
0 0 0
0 0 0
0 0 0
0 0 0
0 0 0
0 0 0
0 0 0
30 9 8
91 24 24
88 26 24
86 24 23
90 25 24
86 23 22
88 24 23
90 26 24
87 25 23
96 27 26
108 30 29
105 29 28
97 27 26
98 27 26
99 28 27
109 30 29
123 34 33
110 31 30
105 29 28
117 33 31
116 33 31
117 32 31
113 30 29
118 32 31
121 33 32
120 34 32
120 34 32
125 35 34
125 34 33
124 33 33
121 33 32
123 34 32
126 34 33
117 33 31
127 35 34
123 33 32
125 34 33
112 30 29
119 32 31
121 33 32
119 32 31
115 31 30
111 30 29
108 29 28
107 29 27
98 27 26
99 27 26
92 23 22
98 26 25
86 23 21
78 30 30
86 75 69
86 72 68
89 74 71
89 64 60
92 74 72
83 75 70
98 75 71
88 68 65
80 69 65
94 75 74
91 76 75
98 81 81
100 82 79
93 78 75
86 68 64
94 81 78
91 78 75
95 82 80
94 72 70
99 82 80
102 87 84
99 87 82
104 93 90
103 91 88
92 75 72
104 88 85
104 96 93
107 86 84
100 91 87
108 93 90
107 99 95
113 101 98
99 94 88
114 102 100
105 92 88
102 94 92
107 100 98
104 96 92
103 93 91
108 99 95
112 103 99
114 105 102
112 102 101
110 99 96
101 93 88
112 107 104
106 91 87
105 98 94
110 103 99
106 99 96
108 96 93
117 110 107
105 96 93
102 99 94
114 104 101
107 98 95
106 103 98
114 99 95
115 107 103
114 111 108
107 103 99
108 108 103
117 112 108
112 109 104
122 118 115
123 118 116
114 111 105
110 104 101
110 110 106
110 106 103
107 110 103
111 108 103
116 113 108
105 105 100
114 109 104
109 110 105
103 98 94
108 108 104
123 117 113
117 117 112
110 110 104
107 107 100
107 106 101
108 103 99
109 106 101
109 108 100
101 99 94
111 107 101
117 112 109
110 115 107
105 105 97
98 98 91
111 112 107
102 104 97
100 103 96
95 100 91
97 103 96
97 105 96
102 102 95
104 108 102
104 107 101
106 108 102
97 98 90
97 100 92
95 95 90
94 98 89
91 98 90
99 101 96
107 104 99
91 97 88
95 99 89
94 96 89
90 99 88
101 107 97
92 97 87
86 92 81
84 90 81
92 91 84
88 95 84
94 100 90
83 90 78
91 92 84
82 86 75
90 99 89
88 91 83
83 88 76
91 101 90
82 90 79
83 85 78
79 84 75
81 86 76
74 81 68
82 88 79
75 84 72
89 94 85
76 80 72
68 76 65
69 77 67
76 80 71
72 83 72
73 79 70
70 78 67
71 80 70
66 75 64
37 73 39
38 69 38
40 78 42
41 77 42
40 75 41
43 82 45
45 86 48
46 90 50
47 93 52
51 91 51
52 96 54
51 98 55
51 97 54
52 99 55
51 98 55
54 102 57
55 103 58
52 95 54
56 104 58
56 103 58
58 106 60
55 101 57
54 100 56
55 101 57
55 100 56
52 97 55
54 101 57
50 96 55
51 95 54
49 91 51
50 94 53
48 89 51
46 89 50
48 91 51
47 87 49
45 84 47
45 81 45
46 86 49
46 85 48
44 79 45
45 77 44
41 75 42
42 78 44
44 79 44
42 79 45
44 78 44
39 73 41
38 71 40
42 78 44
34 63 35
0 0 0
0 0 0
0 0 0
0 0 0
0 0 0
0 0 0
0 0 0
0 0 0
0 0 0
0 0 0
0 0 0
38 11 10
83 23 22
93 26 25
90 26 24
91 26 25
88 25 24
87 25 23
100 28 27
94 25 24
95 27 26
97 28 26
102 28 27
96 26 25
102 29 27
107 30 29
105 29 27
95 27 25
106 29 28
104 29 28
107 29 28
119 33 32
120 34 32
112 31 30
120 32 31
125 34 33
128 35 34
122 33 32
125 34 33
123 34 33
126 35 34
115 31 30
123 33 33
122 33 32
128 35 34
122 34 33
126 35 34
126 34 33
114 30 29
125 34 33
118 32 31
123 33 32
115 32 30
113 31 30
110 31 29
106 28 27
98 27 26
97 26 25
97 26 25
104 27 26
90 23 22
77 37 36
82 70 67
90 75 73
80 60 57
84 70 66
100 83 81
91 73 70
92 69 67
89 70 69
88 83 77
92 80 79
97 82 79
90 76 71
99 83 78
88 78 74
107 98 96
97 81 79
99 85 82
95 81 78
96 83 82
105 90 87
102 84 82
106 97 94
104 88 84
111 99 95
109 92 90
102 89 86
114 102 100
94 80 76
104 88 85
108 90 88
107 101 97
96 90 85
103 92 91
108 100 95
102 95 88
106 93 92
106 95 91
113 103 98
112 103 101
105 94 92
108 95 91
112 100 97
109 100 96
116 110 107
113 109 104
119 109 106
111 103 98
103 98 93
116 105 103
110 108 103
108 100 97
116 111 106
118 118 112
110 106 101
113 110 105
116 107 103
115 107 103
114 112 108
115 109 106
111 109 105
116 114 109
114 110 104
114 108 104
114 116 110
107 103 98
115 112 107
120 114 111
107 104 100
113 112 107
107 106 99
113 112 109
120 114 110
111 111 105
111 111 106
108 111 105
113 108 105
114 113 108
106 102 96
108 100 93
116 113 109
113 113 107
111 106 101
112 111 106
116 117 112
116 117 110
118 120 113
103 105 98
111 110 105
108 109 102
124 122 118
107 103 96
111 110 104
102 103 96
104 107 99
99 104 97
101 104 96
102 97 92
106 105 100
102 105 98
107 108 99
114 113 107
88 95 85
98 101 93
103 107 101
102 106 98
99 104 96
98 99 92
103 106 98
98 105 95
91 92 86
104 104 97
96 103 93
84 89 83
94 93 87
96 99 90
91 96 86
89 93 83
96 98 92
95 96 89
85 94 83
87 97 86
92 97 88
89 96 86
91 95 86
90 94 87
82 85 77
82 87 78
92 94 86
92 96 88
84 91 82
82 84 75
82 89 80
80 81 75
85 91 81
85 90 81
84 91 81
94 95 89
73 81 71
71 81 69
72 79 70
79 86 76
71 76 67
77 87 77
73 77 68
36 67 37
37 71 38
42 81 44
44 85 46
40 78 42
48 89 50
46 87 48
45 85 47
48 89 50
49 95 52
54 101 56
51 94 52
53 97 54
53 100 56
52 100 56
57 107 60
56 102 57
55 104 58
55 102 57
54 102 57
54 101 57
54 100 56
53 102 57
54 99 55
53 99 56
51 97 54
52 98 55
55 102 58
51 94 53
49 93 53
49 92 52
47 84 48
50 89 51
47 87 49
47 86 48
48 93 52
46 86 49
43 78 44
41 77 43
43 80 45
39 72 41
39 75 42
44 80 45
40 70 40
42 78 44
45 80 46
39 73 41
38 70 40
41 78 44
37 65 37
0 0 0
0 0 0
0 0 0
0 0 0
0 0 0
0 0 0
0 0 0
0 0 0
0 0 0
0 0 0
0 0 0
42 11 11
88 24 23
95 27 25
88 24 23
93 25 25
93 25 25
87 25 24
88 24 23
88 25 23
96 27 26
96 27 26
100 28 27
103 29 28
94 26 25
102 28 27
108 30 28
106 29 28
107 30 28
111 31 30
122 34 33
120 34 32
114 31 30
107 30 29
122 34 33
119 32 32
121 33 32
121 34 33
115 31 30
117 32 31
124 33 33
122 34 32
126 35 33
130 36 35
124 34 33
123 34 33
126 34 33
129 34 34
127 35 34
136 36 35
116 31 30
119 32 30
111 31 29
115 31 30
115 31 30
108 28 27
99 28 26
103 28 26
98 27 25
97 25 24
90 24 23
87 26 25
88 78 75
93 71 70
86 66 65
90 73 71
95 80 77
98 75 73
88 69 67
86 74 70
100 83 82
99 78 76
93 80 75
97 84 80
99 88 84
87 72 68
87 76 70
88 77 74
94 79 76
101 88 86
110 95 93
103 90 87
95 83 80
97 84 83
96 91 83
109 101 98
103 91 88
105 86 84
102 92 89
113 101 100
105 96 92
115 96 93
97 87 84
112 103 99
108 98 96
108 96 91
109 101 96
100 94 88
107 97 94
113 100 98
103 95 90
114 107 103
113 99 96
107 98 95
106 98 94
119 112 109
107 108 102
112 103 98
112 108 101
112 97 94
122 112 109
121 111 106
122 113 110
112 101 97
114 106 103
121 118 114
110 100 97
117 113 107
118 114 107
116 113 107
117 117 111
111 107 102
115 112 108
126 120 118
117 113 109
112 107 103
109 105 102
111 111 106
112 112 107
122 120 115
117 117 111
114 110 106
125 120 115
116 112 108
116 116 109
118 119 113
117 113 107
120 118 111
117 110 106
119 119 113
110 112 106
110 111 105
111 105 101
108 110 103
120 118 111
112 114 108
115 113 108
109 111 105
107 109 103
104 100 95
111 113 103
111 112 105
101 103 96
109 112 105
107 108 103
120 118 113
100 106 99
110 109 103
108 104 98
102 99 96
103 107 98
106 106 99
98 98 93
103 101 95
100 109 97
106 106 99
107 113 105
98 102 94
101 104 97
93 91 83
100 100 93
96 102 94
99 106 97
90 92 87
99 103 94
92 97 87
95 105 96
95 102 93
98 104 95
91 93 86
87 95 83
95 96 88
98 101 94
83 91 81
93 97 89
88 92 85
90 96 88
86 91 81
88 95 82
85 93 82
92 98 90
86 95 85
80 87 76
79 89 76
80 86 75
89 92 83
89 102 87
81 90 78
80 84 75
76 85 74
76 88 76
72 76 68
83 91 82
71 77 68
76 78 70
66 78 65
36 68 37
39 75 40
40 78 43
43 81 45
42 84 46
43 84 46
46 86 48
46 89 49
49 95 52
50 92 52
49 92 51
53 99 56
49 93 52
56 105 59
57 106 60
54 104 58
53 102 57
53 100 56
55 103 58
55 105 59
54 101 57
53 99 55
56 106 60
56 104 59
54 102 57
55 101 57
55 104 59
51 96 54
51 94 53
53 96 55
49 93 52
49 90 51
53 97 55
48 90 51
46 87 49
47 91 51
49 89 50
49 89 50
46 86 48
46 87 49
42 77 44
39 75 42
40 70 40
43 78 44
41 73 41
42 76 43
38 72 41
39 70 40
38 67 38
36 61 35
0 0 0
0 0 0
0 0 0
0 0 0
0 0 0
0 0 0
0 0 0
0 0 0
0 0 0
0 0 0
0 0 0
37 10 10
89 25 24
89 24 24
89 25 24
86 24 23
89 25 24
95 26 25
98 27 26
97 28 26
103 29 27
102 29 27
99 27 26
101 28 27
110 31 29
104 29 28
107 30 28
110 31 30
111 31 29
109 30 29
113 31 30
120 33 32
122 33 33
113 31 30
118 32 31
129 36 35
121 33 32
120 33 32
122 33 32
120 32 31
125 35 33
117 32 31
133 37 36
127 34 33
122 33 32
127 35 34
120 33 32
133 36 35
119 32 31
132 35 34
115 31 30
123 33 32
109 30 28
109 30 28
108 28 28
116 31 30
103 27 26
96 25 24
102 27 26
95 26 25
92 24 23
88 35 33
97 82 82
85 67 64
90 71 70
91 75 73
92 80 78
96 85 81
92 71 67
94 81 78
101 80 79
96 81 77
100 85 83
98 83 82
92 80 77
99 86 81
99 87 85
97 79 76
102 89 87
105 87 84
107 100 95
103 86 85
106 91 90
107 93 88
97 83 78
105 94 90
106 93 90
101 91 87
104 94 90
105 93 91
101 91 87
112 101 98
107 100 95
114 102 99
101 100 94
109 95 92
108 98 95
106 97 93
121 111 108
118 109 106
112 104 100
107 99 95
106 100 97
122 109 106
112 106 102
113 110 107
112 103 99
122 111 108
109 100 95
110 95 92
118 111 107
114 104 101
118 109 106
111 103 99
108 107 102
117 115 111
114 108 104
130 122 121
111 108 103
120 110 106
121 111 109
117 113 109
111 106 102
124 122 118
113 110 106
116 116 110
120 113 109
110 107 103
126 120 117
115 113 108
115 116 112
114 109 105
123 121 117
119 118 113
115 115 108
112 112 106
107 108 100
118 110 107
115 111 106
120 121 116
121 119 113
114 109 102
118 117 111
118 112 107
116 116 107
108 104 100
119 117 114
112 110 105
108 111 104
120 123 117
114 112 107
113 113 108
107 107 103
111 111 105
111 115 107
115 114 109
110 111 106
118 116 110
115 115 108
101 103 96
110 113 104
101 104 96
104 107 98
102 106 99
104 109 103
103 107 98
101 106 95
106 107 101
95 97 88
98 99 92
102 104 98
101 103 97
101 108 97
101 107 99
97 100 92
98 97 92
96 96 88
90 91 85
87 92 82
92 97 88
100 102 94
95 102 91
82 89 79
87 92 84
89 98 86
92 100 90
85 95 83
85 90 81
89 97 87
84 94 81
83 90 80
76 85 73
82 92 80
83 90 80
78 84 75
77 89 76
79 88 75
80 90 78
78 87 76
87 94 84
80 88 79
70 75 67
73 81 71
88 96 87
66 76 65
74 83 72
36 71 39
36 68 37
39 76 41
42 80 44
44 85 47
50 99 55
44 84 46
48 89 50
47 91 51
49 89 50
53 100 56
55 101 57
55 104 58
52 101 57
52 98 55
55 104 58
52 97 55
52 100 56
57 108 61
53 100 56
54 102 58
58 111 63
51 98 55
52 99 55
52 97 55
52 99 55
51 94 53
54 100 57
49 90 51
51 95 53
50 95 53
52 96 54
49 90 51
50 92 52
45 85 49
45 87 49
50 91 52
42 80 45
47 87 49
42 80 45
45 82 46
45 86 48
44 78 44
42 77 43
43 80 45
40 73 41
39 75 42
43 79 45
38 68 39
30 59 33
0 0 0
0 0 0
0 0 0
0 0 0
0 0 0
0 0 0
0 0 0
0 0 0
0 0 0
0 0 0
0 0 0
33 8 8
93 27 25
86 24 23
86 23 23
86 25 23
93 25 24
96 26 25
92 27 25
94 26 25
101 29 27
94 26 25
95 25 25
101 28 27
109 29 28
107 30 29
109 31 29
107 29 28
107 30 29
116 32 31
116 32 31
112 32 30
113 32 30
120 33 32
120 33 32
117 32 31
117 33 32
122 33 32
121 33 32
126 34 34
120 33 32
131 36 34
130 36 35
125 34 33
125 35 34
136 36 35
133 37 36
119 33 31
117 31 31
118 33 31
122 33 32
119 32 31
123 33 32
108 29 28
111 30 29
108 29 28
106 29 28
102 28 26
101 28 26
93 24 23
92 24 23
88 33 32
86 67 65
85 67 66
95 76 75
91 74 70
98 85 82
97 81 79
89 70 68
94 73 70
100 89 86
99 82 80
96 74 71
100 79 77
94 80 78
111 92 90
100 86 83
103 86 82
97 78 76
116 96 94
105 93 91
102 91 88
106 88 84
100 94 87
109 90 89
104 93 89
106 92 87
101 90 87
109 95 90
112 108 104
112 94 90
113 101 98
103 97 91
117 97 95
106 92 90
105 91 88
105 92 89
101 92 89
103 97 93
106 101 97
129 113 112
103 96 92
111 104 100
112 102 98
116 107 104
122 114 110
119 109 106
120 109 106
117 111 107
114 108 105
122 109 106
110 102 98
118 105 102
125 118 114
119 110 107
130 124 120
120 115 110
118 110 107
111 107 102
122 116 112
123 116 113
126 120 116
125 121 117
115 113 109
118 116 110
118 114 111
123 118 114
121 116 111
112 112 107
126 124 119
116 117 112
122 120 114
115 112 108
117 116 111
123 117 114
115 116 110
119 119 113
117 113 108
118 112 108
118 118 114
119 121 114
118 116 110
113 111 107
118 118 111
115 117 113
106 111 102
114 121 113
120 118 113
116 113 109
114 116 109
114 113 107
111 115 108
110 112 105
115 116 109
109 110 104
116 117 112
109 113 105
111 107 101
112 115 108
107 109 103
107 112 104
106 111 103
107 108 100
113 112 105
102 108 99
100 106 99
102 107 100
97 106 94
102 107 98
103 108 100
99 104 97
108 113 107
104 106 98
95 98 90
97 106 95
102 107 98
96 101 91
93 99 90
106 111 104
97 101 93
86 100 86
96 99 90
91 99 89
101 104 95
85 91 81
86 96 84
93 98 91
98 103 95
84 93 80
88 92 86
94 101 92
80 94 81
89 92 81
83 92 78
86 94 81
76 84 74
86 98 85
82 84 74
80 89 77
75 83 72
74 85 73
77 83 73
83 93 83
80 88 77
75 83 73
84 94 83
37 70 37
41 76 41
44 81 45
45 88 48
41 79 44
46 86 48
45 87 48
47 87 49
46 87 48
49 90 50
49 94 52
52 101 56
56 102 58
52 98 55
54 102 57
54 106 59
55 107 60
55 104 58
57 108 61
55 103 58
59 110 63
53 98 55
54 104 59
55 105 58
52 97 55
54 103 58
51 97 54
52 95 54
51 95 54
50 95 54
48 91 51
48 91 51
50 95 53
50 93 52
47 87 49
49 89 50
51 96 54
44 83 47
43 82 46
44 82 46
42 77 43
43 79 44
40 75 43
43 81 45
41 74 42
46 83 47
41 75 42
39 73 41
39 71 40
31 55 31
0 0 0
0 0 0
0 0 0
0 0 0
0 0 0
0 0 0
0 0 0
0 0 0
0 0 0
0 0 0
0 0 0
41 12 11
87 24 23
90 26 24
88 24 23
89 25 24
89 24 23
91 25 24
91 25 24
94 26 24
90 25 24
95 27 25
92 25 24
103 29 27
99 27 26
100 28 27
112 30 29
109 30 29
106 30 29
113 31 30
117 32 31
111 31 30
113 32 31
122 34 33
118 33 31
125 34 33
124 34 33
125 34 33
125 35 34
135 37 36
131 36 35
131 36 35
128 36 34
139 37 37
127 34 33
128 35 34
126 34 33
118 32 31
126 34 33
122 33 31
128 35 34
126 34 33
123 33 32
117 32 30
114 31 29
109 31 29
108 29 27
109 29 29
100 26 25
92 25 23
95 26 24
89 33 32
91 72 70
94 76 73
95 75 73
98 77 76
102 90 87
99 82 80
89 73 71
100 87 85
96 76 73
97 78 76
106 89 88
106 82 81
99 83 79
93 83 79
105 87 84
105 94 92
98 86 83
97 80 76
105 93 91
106 90 87
112 90 88
99 86 81
113 97 95
103 90 86
106 93 90
99 89 87
115 106 103
109 97 92
117 102 99
114 99 94
111 100 97
107 94 90
114 101 99
113 97 94
121 119 114
119 105 102
110 101 96
105 97 93
108 102 98
114 111 108
119 110 106
116 109 106
113 102 98
118 112 108
120 113 110
118 115 112
113 103 99
113 104 101
116 112 108
125 114 110
118 103 100
122 114 111
120 115 110
123 121 116
115 109 105
124 121 116
124 119 114
125 127 121
125 119 116
120 118 113
124 122 119
119 118 112
120 120 114
134 131 128
117 112 108
118 115 110
123 121 116
122 122 117
127 122 117
117 113 109
123 121 116
131 125 122
132 127 123
126 122 117
121 118 114
119 114 109
114 113 109
115 114 108
115 116 111
120 115 110
119 120 112
111 107 101
122 119 113
117 116 111
112 114 107
122 123 117
117 116 110
110 111 106
129 127 124
116 117 111
111 108 103
116 113 109
119 118 112
113 118 109
105 110 102
103 105 98
111 110 103
106 110 102
107 108 102
110 116 106
103 105 98
103 109 102
108 112 103
109 113 105
116 119 112
107 106 99
106 108 103
102 105 96
107 106 99
106 108 99
99 104 95
98 105 96
109 113 107
102 108 100
101 102 95
104 102 95
99 103 97
90 99 88
95 102 92
95 100 93
94 103 92
97 102 93
98 99 91
96 100 91
91 98 90
88 98 86
85 96 84
93 101 92
91 94 86
84 94 82
84 88 80
91 98 89
81 87 77
85 95 83
78 86 76
92 99 90
83 85 78
83 91 81
77 86 75
79 83 75
81 89 78
82 88 77
76 87 74
66 77 63
39 66 37
38 73 40
43 76 42
41 81 44
42 80 45
50 90 51
45 87 48
49 93 51
46 89 49
48 95 52
48 92 51
51 98 55
51 98 55
57 106 60
54 102 57
53 102 57
56 105 59
54 102 57
54 103 58
52 100 56
53 96 54
55 104 58
57 108 61
56 105 60
51 99 56
52 97 55
56 105 60
54 98 56
51 97 55
50 93 53
53 98 56
49 92 52
51 96 54
49 91 52
45 86 49
44 82 46
48 90 51
45 85 48
45 82 47
45 82 46
44 79 45
45 80 45
41 75 42
42 76 43
42 75 42
44 78 45
41 72 41
42 76 43
38 68 38
39 70 40
0 0 0
0 0 0
0 0 0
0 0 0
0 0 0
0 0 0
0 0 0
0 0 0
0 0 0
0 0 0
0 0 0
33 9 9
96 27 26
88 25 24
87 24 23
91 25 24
98 27 26
95 27 26
101 28 27
92 26 25
96 27 26
95 26 25
104 29 28
103 29 27
105 29 28
114 32 30
105 29 28
111 31 30
112 31 30
116 33 31
114 32 30
118 32 31
112 31 29
125 34 34
118 32 31
114 31 30
115 31 30
119 33 32
129 36 34
126 33 32
128 34 33
132 36 35
133 37 36
131 36 35
123 34 32
130 35 34
132 35 35
130 35 34
127 35 34
110 30 29
129 36 35
130 35 34
116 32 31
119 32 31
116 31 30
118 31 30
103 28 27
96 26 24
99 28 26
102 27 26
91 24 22
82 31 29
85 70 67
99 82 81
98 75 73
99 75 72
103 82 80
93 78 75
94 80 77
96 83 79
109 94 91
107 95 93
99 78 76
100 87 84
97 82 79
107 95 93
94 79 76
109 92 90
101 87 86
106 87 84
107 90 86
119 99 97
109 93 89
104 85 82
107 90 87
114 101 98
109 95 93
103 93 90
109 96 95
103 91 88
110 101 96
115 101 98
107 99 97
110 95 91
120 102 100
119 110 106
110 98 96
109 99 96
119 113 108
116 109 105
118 103 100
115 105 102
119 107 105
119 114 110
128 117 115
118 108 105
119 111 107
119 114 109
118 108 105
118 111 108
115 105 102
130 125 122
123 113 109
124 121 117
126 121 117
125 118 114
132 126 121
125 116 113
124 120 117
126 122 117
127 120 116
124 121 117
121 117 114
122 118 114
133 124 123
126 120 115
121 119 115
123 121 118
118 117 112
125 121 118
131 132 127
131 124 121
128 128 124
116 115 110
128 123 120
114 115 108
127 125 121
121 118 113
121 120 115
114 114 108
122 120 116
120 123 116
118 116 111
112 116 109
120 119 112
119 118 113
120 122 114
117 121 115
118 115 111
125 123 118
116 116 112
118 116 111
119 124 117
113 114 108
116 115 109
121 122 116
111 114 108
112 110 105
111 112 106
105 111 102
119 118 113
120 120 115
114 118 112
105 109 102
111 115 108
107 113 105
105 109 102
104 109 102
105 108 100
98 102 95
102 106 97
110 116 107
100 105 97
103 109 100
99 105 96
107 110 102
97 102 95
97 103 94
96 104 95
103 109 99
92 99 88
98 102 94
94 99 91
90 95 86
96 100 91
88 96 85
95 103 92
86 99 86
95 97 90
88 101 88
81 85 77
87 96 87
86 94 85
94 101 91
94 104 93
84 94 83
90 94 85
85 97 83
82 90 79
86 92 84
85 91 81
82 86 75
75 87 75
82 92 81
81 88 78
81 86 74
37 72 38
40 75 41
41 83 44
42 79 44
43 82 45
46 87 48
45 84 47
51 95 53
53 99 55
51 92 52
51 99 55
49 92 52
51 95 54
52 97 54
54 102 58
57 108 61
57 107 60
54 103 58
55 105 59
56 109 62
54 102 57
55 104 59
50 94 53
53 100 56
52 98 55
57 102 58
55 103 58
53 101 57
52 98 55
52 99 56
48 90 51
51 93 53
50 94 54
46 85 48
50 95 53
51 91 52
47 87 49
45 84 47
45 84 47
42 79 44
42 81 45
45 83 47
45 83 47
42 77 44
44 81 46
42 78 45
41 76 43
38 71 40
39 74 42
33 60 34
0 0 0
0 0 0
0 0 0
0 0 0
0 0 0
0 0 0
0 0 0
0 0 0
0 0 0
0 0 0
0 0 0
38 10 10
85 23 23
91 27 25
85 24 23
89 25 24
91 26 25
94 26 25
94 26 25
96 27 26
93 26 25
99 28 27
104 30 28
100 28 27
100 28 26
106 30 28
105 30 28
102 28 27
104 28 27
112 32 30
115 32 31
115 32 31
111 31 29
114 31 30
125 35 34
116 32 31
126 36 34
127 35 33
119 33 32
132 37 35
127 35 34
128 35 33
118 32 31
131 35 34
126 34 33
124 33 32
124 33 32
126 34 33
124 34 32
122 34 32
117 32 31
122 33 32
117 32 31
108 30 28
116 31 30
110 30 29
112 31 29
109 30 28
108 29 28
99 27 25
105 29 27
101 42 40
93 74 72
92 72 70
95 78 76
104 83 82
91 74 70
95 77 74
96 82 79
98 77 75
107 88 86
102 89 86
107 81 80
105 94 91
106 96 92
110 96 93
103 94 90
100 86 84
106 92 89
107 97 93
102 92 91
102 93 90
107 97 94
119 98 95
117 102 101
106 92 91
125 113 112
121 110 108
118 105 102
119 106 103
115 103 100
111 103 100
117 112 107
112 94 90
104 94 91
115 108 104
114 107 103
120 110 106
129 116 114
121 113 109
125 113 111
121 115 112
117 103 100
117 110 106
124 118 115
117 105 102
117 108 104
120 114 109
116 109 106
121 116 112
126 122 119
132 127 125
127 119 115
120 109 107
125 122 118
131 123 121
125 120 115
115 113 108
132 118 115
120 115 112
125 122 119
130 128 124
130 125 121
120 116 113
130 120 116
127 119 114
116 114 109
127 122 119
129 124 117
129 126 122
141 138 134
131 130 125
124 122 118
131 129 123
126 123 118
122 117 114
122 125 119
112 109 106
123 123 118
124 123 119
118 119 114
128 126 120
122 123 117
117 117 112
128 125 120
120 124 118
132 129 125
123 122 114
118 119 114
119 121 114
117 118 111
125 127 122
108 111 104
126 128 122
114 117 110
111 114 105
120 120 114
114 119 112
111 116 107
116 121 115
107 108 103
118 120 114
116 116 111
112 113 107
107 111 103
108 111 105
110 114 105
104 104 98
105 106 101
106 108 101
110 109 104
106 109 101
105 105 97
107 112 104
100 103 96
103 109 101
104 110 103
99 101 95
94 98 89
94 98 89
100 104 94
100 105 97
99 99 91
96 106 95
103 106 100
98 103 94
98 100 92
94 100 89
96 107 96
97 102 93
82 92 82
87 94 82
86 95 85
87 97 87
87 96 85
87 94 83
84 93 82
83 96 83
87 96 85
77 87 76
91 96 87
82 91 81
75 86 73
79 87 73
78 84 75
77 86 73
40 76 41
40 75 40
41 80 44
45 86 48
49 95 53
47 89 50
48 94 52
47 90 50
49 93 52
48 92 51
52 98 56
54 103 58
55 103 58
53 102 57
57 105 59
55 106 59
53 102 57
58 110 62
56 105 60
54 101 57
53 100 56
55 105 59
54 103 58
53 102 57
54 101 57
53 99 56
53 101 57
53 100 56
57 99 56
52 95 54
49 91 51
50 92 52
48 89 50
49 94 52
49 89 51
46 83 47
47 89 51
42 79 45
46 88 50
46 85 48
45 84 47
45 81 45
46 84 47
42 80 45
42 77 43
37 73 41
44 79 45
41 73 41
40 71 40
33 61 34
0 0 0
0 0 0
0 0 0
0 0 0
0 0 0
0 0 0
0 0 0
0 0 0
0 0 0
0 0 0
0 0 0
36 10 9
90 25 24
87 25 23
92 25 24
97 27 26
94 26 25
99 27 26
100 28 27
97 27 26
103 29 27
99 28 27
92 26 25
99 27 26
104 29 28
99 27 26
105 29 27
108 30 29
108 30 28
113 30 29
112 32 30
110 31 29
120 33 32
122 34 33
118 32 31
129 35 34
130 37 35
125 35 34
130 35 35
124 34 33
129 36 35
131 36 35
137 37 36
135 36 35
128 35 34
126 34 33
126 35 34
130 36 35
124 34 33
125 34 33
126 34 33
127 35 34
125 34 33
126 35 33
124 33 32
111 30 29
111 29 28
101 27 26
106 28 27
94 25 24
98 26 24
93 33 32
88 71 68
91 74 72
102 84 81
93 76 73
95 76 76
101 83 81
105 91 89
106 78 76
98 81 78
108 95 90
96 86 84
101 86 84
104 88 85
107 90 86
106 91 89
110 95 93
101 89 86
102 85 84
100 91 87
115 96 92
111 101 97
108 97 93
115 96 94
116 104 103
103 88 87
114 100 97
109 96 92
111 96 93
108 95 93
111 103 98
121 110 106
115 107 104
115 109 106
117 103 100
111 102 98
113 107 103
118 104 101
112 107 103
116 109 106
124 115 113
118 108 105
117 110 104
117 109 106
114 111 107
126 116 113
131 123 121
114 111 106
117 112 107
123 118 114
122 111 109
125 115 112
121 116 111
121 115 110
124 113 110
136 129 127
122 116 112
129 125 123
121 120 115
133 130 127
123 121 117
120 114 109
128 125 120
119 110 106
124 121 118
119 119 115
124 118 113
122 123 118
132 126 123
133 129 125
128 122 119
121 120 115
124 123 119
125 125 118
136 132 128
118 118 113
126 125 120
123 119 115
116 115 108
130 123 119
134 133 127
127 127 123
126 127 121
124 124 118
129 131 126
122 118 115
124 124 118
123 122 117
111 113 107
116 117 110
121 126 120
122 123 117
112 112 107
121 126 119
111 114 108
117 118 112
116 118 112
127 127 121
127 129 122
114 116 111
114 120 111
108 114 105
116 117 111
109 110 104
103 106 98
108 114 105
106 108 101
109 112 106
103 109 101
110 111 104
101 105 95
102 106 97
96 101 92
97 103 94
100 105 97
100 107 96
104 111 100
102 108 99
105 108 99
105 112 102
101 106 97
97 99 91
90 102 90
96 103 94
95 103 93
92 99 91
95 101 91
90 101 90
92 95 88
90 100 88
87 95 85
90 98 87
83 91 80
87 99 87
85 93 82
84 95 82
86 96 85
85 94 84
84 93 83
82 86 77
86 92 81
86 94 83
73 81 69
80 87 75
77 88 75
39 75 41
43 80 44
43 83 45
42 80 44
45 88 49
53 100 56
48 90 50
50 94 53
51 97 54
51 100 56
52 97 54
54 103 58
55 101 57
51 97 54
56 105 59
55 104 58
53 99 55
58 109 62
53 103 58
59 110 62
57 106 60
61 115 65
54 103 58
54 103 58
53 100 57
51 96 54
52 99 55
55 101 57
50 97 54
52 96 54
49 90 51
51 95 54
48 89 50
50 91 52
47 86 49
46 86 48
44 84 47
43 80 45
45 83 47
48 90 51
43 78 44
46 85 48
44 78 45
45 82 46
42 78 44
38 70 39
45 83 46
40 70 40
41 72 41
33 60 34
0 0 0
0 0 0
0 0 0
0 0 0
0 0 0
0 0 0
0 0 0
0 0 0
0 0 0
0 0 0
0 0 0
38 10 9
93 25 24
92 26 24
92 27 25
95 26 25
84 24 23
94 27 25
94 26 25
101 29 27
102 28 27
107 28 28
96 27 26
102 29 27
108 30 29
114 31 30
111 31 30
103 28 27
111 30 29
110 31 30
109 30 29
115 32 30
121 33 32
115 31 30
115 32 30
121 33 32
120 34 32
121 34 32
136 37 36
128 35 34
131 36 35
130 36 35
135 37 36
121 33 32
136 37 36
123 33 32
133 36 35
130 36 35
127 35 33
129 35 34
133 36 35
128 34 33
127 34 33
118 32 31
118 32 31
107 29 28
114 30 29
109 29 28
109 29 28
106 28 27
98 27 25
91 35 33
93 79 76
99 81 79
96 75 73
99 80 78
98 76 74
98 76 74
106 93 89
105 88 85
103 87 84
110 86 83
115 89 89
106 98 94
109 95 93
100 86 83
106 85 84
105 95 89
114 96 93
106 93 91
110 92 90
104 89 86
112 100 97
107 101 95
110 89 86
113 96 94
116 103 101
120 111 108
109 94 91
111 97 93
121 108 106
111 103 99
119 110 107
111 96 93
118 98 96
120 113 109
116 106 103
115 109 104
128 114 111
126 116 113
125 121 116
123 112 109
129 121 117
117 110 107
126 117 114
128 120 116
120 110 107
117 110 105
122 116 112
127 122 118
127 113 110
124 118 114
123 116 111
124 115 113
121 112 109
121 120 115
132 127 124
123 120 115
136 127 124
131 121 120
133 128 124
119 117 112
129 124 121
127 123 120
134 132 127
123 122 117
127 121 118
121 119 115
132 129 125
133 132 129
131 128 123
127 127 121
121 120 116
129 128 124
130 125 120
121 120 116
134 130 125
130 127 123
127 128 124
121 121 116
120 119 113
118 120 114
122 124 117
122 125 119
125 124 118
122 123 117
121 118 115
119 123 116
122 125 119
120 123 115
120 125 118
124 123 119
118 119 112
119 116 111
121 123 117
117 120 113
122 124 118
120 121 115
113 116 110
121 123 117
120 119 115
110 113 107
117 120 114
112 117 109
115 116 109
119 119 113
107 116 106
116 119 112
111 112 105
113 118 110
110 113 105
102 109 100
97 105 96
104 107 98
102 108 98
106 112 105
105 105 99
108 113 105
105 108 101
99 101 92
106 114 104
109 116 107
100 110 98
102 104 98
95 104 94
96 106 95
93 99 90
91 102 91
99 102 93
87 95 86
89 95 84
89 98 88
88 96 86
99 101 92
94 95 87
97 102 93
82 88 78
92 97 88
91 101 90
85 94 83
83 94 81
93 97 90
83 94 82
78 91 78
78 89 76
80 88 79
41 76 42
41 77 42
43 80 44
45 85 47
43 82 45
48 90 50
49 96 53
50 96 53
53 101 56
53 99 55
53 100 56
53 99 55
56 109 61
56 105 59
56 106 60
55 101 57
56 109 61
56 107 60
56 108 60
56 105 59
57 106 60
57 107 61
53 100 56
57 104 59
58 108 61
55 104 59
53 99 56
54 99 56
52 98 55
55 103 59
51 95 53
48 88 49
50 92 52
50 95 53
50 93 53
47 86 49
48 86 49
48 89 50
45 82 46
49 88 50
41 78 44
44 81 46
42 79 44
42 77 44
42 74 42
40 74 42
39 67 38
38 69 39
42 77 44
35 64 36
0 0 0
0 0 0
0 0 0
0 0 0
0 0 0
0 0 0
0 0 0
0 0 0
0 0 0
0 0 0
0 0 0
33 9 9
84 24 22
93 26 25
82 23 22
94 26 25
93 26 25
96 27 26
92 25 24
100 28 27
105 28 28
108 30 29
102 28 27
104 28 27
104 29 27
108 29 28
107 29 28
110 31 29
113 32 30
113 31 30
109 29 28
120 33 32
123 34 33
115 32 30
120 33 32
128 36 34
124 34 33
123 34 33
124 34 33
130 35 34
125 34 33
127 35 34
128 35 34
133 37 36
132 37 35
128 34 33
133 36 35
140 39 38
123 34 33
130 34 33
125 34 33
127 33 33
117 32 31
127 34 33
115 31 30
116 32 31
110 30 29
110 30 28
106 30 28
108 30 28
104 28 27
96 30 29
107 85 84
101 81 81
97 80 79
101 83 82
100 84 80
103 83 80
98 79 75
100 81 80
106 90 88
101 77 74
98 84 81
112 97 94
106 89 87
108 93 91
107 90 87
111 91 89
111 92 89
109 88 86
109 99 97
118 105 101
106 91 89
106 92 88
105 95 93
115 105 102
115 99 97
107 97 95
105 98 94
116 101 99
119 108 106
120 108 107
117 104 101
121 107 105
107 96 93
121 115 112
118 114 110
110 100 96
116 102 99
118 109 106
117 109 105
126 117 114
118 108 103
125 116 114
121 113 110
118 110 104
118 111 108
129 122 118
126 118 114
121 112 109
118 111 107
133 129 125
126 118 115
132 125 122
121 119 114
134 127 124
129 121 120
128 124 120
129 125 121
132 129 125
125 122 118
128 127 122
121 119 115
131 124 121
128 125 121
134 131 126
126 120 115
132 126 124
130 130 125
134 127 124
132 128 125
125 124 120
131 129 126
122 125 120
131 129 125
129 131 125
126 125 121
124 127 121
120 117 111
131 129 124
125 126 120
124 123 119
126 129 122
118 118 112
128 130 125
135 132 128
118 121 114
118 122 115
120 122 113
121 119 112
126 128 121
116 117 110
119 120 114
115 117 110
123 122 118
115 119 110
119 122 116
122 121 117
117 119 113
120 123 117
119 120 114
122 124 117
112 121 111
117 118 111
111 118 109
122 122 116
105 113 102
113 117 109
111 112 103
116 119 112
112 118 109
109 115 105
112 116 107
106 115 104
107 108 100
104 107 99
109 114 105
108 112 103
102 109 100
107 113 105
100 102 93
93 104 93
106 114 104
95 99 90
97 104 95
99 105 97
97 105 95
93 95 89
98 101 91
88 96 85
89 99 87
94 104 94
85 98 84
87 99 86
92 100 89
91 103 88
91 100 89
95 104 93
86 94 81
87 97 86
78 90 77
84 95 83
77 90 77
80 87 77
80 90 80
76 85 73
40 77 42
44 82 44
42 80 44
45 88 48
46 88 49
47 90 50
50 93 51
50 96 54
51 96 53
51 95 53
53 98 55
54 101 57
55 102 57
54 104 58
54 102 57
58 107 60
54 106 59
57 108 61
55 104 58
55 103 58
57 105 60
57 106 60
57 105 60
56 108 61
55 103 58
52 99 56
58 109 62
54 101 57
49 95 53
52 97 55
47 92 51
50 95 53
49 93 52
49 91 51
50 89 51
49 87 50
47 90 51
48 91 52
49 90 51
45 84 47
43 81 46
41 78 44
46 83 47
45 84 47
42 78 44
41 74 42
40 76 42
40 73 42
44 81 46
29 54 31
0 0 0
0 0 0
0 0 0
0 0 0
0 0 0
0 0 0
0 0 0
0 0 0
0 0 0
0 0 0
0 0 0
31 8 8
88 25 24
88 25 23
92 26 24
97 27 26
95 27 26
82 23 22
95 26 25
103 29 28
93 26 25
94 25 25
97 27 26
105 29 28
103 29 27
109 31 29
106 29 28
107 30 29
113 32 30
116 32 31
116 33 31
122 34 33
118 33 31
112 31 29
125 35 34
116 32 30
125 34 33
129 36 35
128 35 34
132 37 36
130 36 35
129 35 34
132 36 35
133 37 36
130 35 34
132 37 35
133 37 36
128 35 34
132 36 35
129 35 34
129 36 34
124 34 33
138 37 36
124 33 32
126 34 33
128 35 34
113 30 29
107 30 28
106 28 27
104 27 26
107 29 27
97 40 39
98 82 81
102 81 79
105 83 81
103 83 81
104 86 84
103 83 81
104 87 85
106 85 83
99 84 81
113 93 93
104 86 84
102 89 85
109 92 88
109 94 91
114 96 93
111 98 97
113 100 96
117 97 95
106 98 94
112 102 99
108 97 94
114 101 97
114 97 94
111 96 94
108 96 94
113 98 95
117 109 104
121 111 108
110 100 96
119 104 102
120 104 102
124 112 110
119 107 104
124 106 104
117 108 104
130 117 115
127 116 114
133 123 120
130 114 113
127 118 115
128 121 118
129 119 116
111 105 99
119 113 109
123 115 113
129 118 115
135 125 121
123 111 109
129 120 118
128 118 115
133 125 121
133 123 119
132 116 114
129 128 124
125 121 117
133 124 120
132 127 124
134 129 126
128 126 122
127 125 122
129 126 120
134 128 125
132 126 122
140 133 130
138 133 130
122 120 115
124 121 117
132 131 126
136 135 130
130 128 124
133 132 128
125 124 118
128 124 120
127 124 118
122 122 116
128 128 123
138 137 133
136 137 133
131 130 124
131 129 126
129 127 122
120 122 116
121 123 116
132 133 128
128 125 121
118 118 112
125 128 121
126 125 119
127 129 123
123 127 120
123 121 115
121 120 116
116 116 111
123 130 123
122 122 118
125 128 120
120 122 113
120 122 116
121 123 118
111 111 107
119 121 114
121 122 117
106 111 102
112 117 109
115 117 109
114 115 109
115 120 112
110 112 104
109 112 104
114 116 110
117 120 114
111 116 108
105 112 102
108 113 105
108 112 104
105 110 102
113 115 108
112 115 107
98 105 97
98 101 92
98 108 95
97 100 91
92 99 89
104 107 97
98 109 96
95 101 94
95 105 96
98 104 95
91 104 90
89 96 86
90 99 87
97 104 94
96 100 91
90 95 86
96 104 93
93 94 86
80 88 78
91 100 87
84 95 82
85 88 78
85 96 83
84 96 82
88 97 86
86 100 86
42 81 44
42 81 44
42 79 43
46 87 48
46 88 49
49 93 52
52 97 54
52 97 55
49 95 53
54 101 56
56 104 59
53 99 55
53 101 56
56 106 60
56 104 59
55 104 58
59 113 64
54 106 59
57 108 62
58 110 62
58 110 62
55 105 59
57 107 61
55 106 60
53 100 57
55 103 58
53 100 56
52 97 54
53 101 57
54 101 57
53 100 57
49 90 51
46 85 48
47 90 51
51 94 53
48 88 50
46 87 49
46 88 50
50 91 51
46 83 47
40 77 44
44 84 47
46 83 47
46 83 47
44 80 45
40 76 43
44 78 45
43 78 44
44 78 44
37 67 38
0 0 0
0 0 0
0 0 0
0 0 0
0 0 0
0 0 0
0 0 0
0 0 0
0 0 0
0 0 0
0 0 0
42 12 11
86 23 22
94 26 25
92 25 24
90 25 24
92 24 23
99 28 27
92 25 24
103 29 27
93 26 25
101 28 26
106 29 28
102 28 27
109 30 29
105 29 28
110 31 30
111 32 30
110 31 29
120 33 32
123 34 33
118 33 32
116 32 31
125 34 33
127 35 34
121 32 31
126 35 34
124 34 33
131 37 35
125 35 33
123 34 33
131 36 35
134 38 36
130 36 35
134 36 35
128 35 34
134 36 35
134 37 36
133 37 36
137 37 37
138 37 36
118 32 30
120 33 32
121 33 31
117 32 31
124 34 33
109 30 29
111 30 29
112 29 28
99 27 26
105 28 27
101 40 39
92 75 72
97 77 75
92 78 77
109 94 93
99 82 80
102 84 80
110 88 87
109 92 89
103 84 82
106 90 87
103 91 87
113 92 89
111 91 89
108 95 91
111 95 92
111 95 92
110 91 87
119 101 99
107 94 92
106 88 86
110 98 96
115 98 96
120 98 95
118 110 106
117 99 96
117 107 104
127 115 112
121 108 106
120 105 103
118 101 98
116 107 102
117 107 105
120 115 111
125 113 111
125 116 112
121 112 109
117 104 102
129 117 115
120 110 107
120 106 104
120 109 106
125 123 118
129 121 118
127 119 116
125 116 113
123 113 111
124 119 114
141 134 131
120 116 110
133 123 120
122 119 115
128 119 117
126 121 115
128 122 119
123 118 115
126 124 118
143 136 133
131 130 124
131 127 123
135 130 126
133 129 125
132 127 124
130 126 122
131 130 125
127 128 123
135 134 130
122 119 114
124 119 114
132 125 122
126 124 120
133 133 127
135 127 122
131 130 126
132 129 124
127 129 123
136 133 129
131 132 127
140 134 130
125 122 117
126 127 121
122 120 115
129 128 123
127 129 123
126 129 123
120 123 115
124 126 119
120 117 111
123 124 119
128 130 124
127 126 121
115 121 114
121 121 117
118 120 114
125 124 120
122 125 118
126 123 119
117 120 113
118 118 111
120 124 117
118 120 113
113 117 109
117 118 111
111 115 107
115 119 111
119 116 109
118 121 115
106 114 104
109 113 106
111 113 106
108 111 104
102 109 99
106 112 104
106 114 105
104 106 99
108 113 104
104 109 99
107 113 103
107 113 104
101 108 98
99 105 95
105 115 103
105 109 101
102 111 102
101 106 96
101 103 95
101 109 100
102 104 96
91 101 90
99 106 96
100 107 98
90 100 89
96 101 92
93 102 93
92 100 91
95 103 92
83 97 82
95 102 93
85 99 84
83 91 83
84 91 81
89 91 83
87 92 80
80 87 77
77 88 74
42 81 45
44 82 45
46 82 47
48 91 51
48 91 51
50 95 53
51 97 54
52 99 54
51 97 54
55 106 60
56 107 60
55 105 59
54 103 58
56 107 61
56 104 59
55 104 59
53 100 57
55 105 59
57 106 60
50 97 54
60 113 64
55 105 59
55 104 58
56 106 60
55 105 59
57 107 61
53 101 56
51 96 55
55 103 58
54 100 57
49 88 51
54 98 56
51 93 53
50 90 51
47 88 50
51 93 53
46 87 49
47 89 50
46 82 46
45 84 47
46 84 47
40 77 44
43 81 46
44 83 46
43 78 44
43 79 44
44 85 48
36 70 40
39 72 40
35 60 35
0 0 0
0 0 0
0 0 0
0 0 0
0 0 0
0 0 0
0 0 0
0 0 0
0 0 0
0 0 0
0 0 0
33 9 9
81 23 22
85 23 23
91 25 24
92 26 25
94 26 25
92 26 25
100 28 27
101 27 26
94 26 25
108 30 29
102 29 27
97 27 26
106 30 29
100 27 26
105 29 28
112 31 29
117 32 31
116 32 31
120 33 32
120 33 32
122 33 32
122 34 33
126 34 33
125 35 34
127 35 34
129 35 35
126 35 34
135 36 35
135 37 36
131 36 35
130 35 35
130 36 35
129 35 34
130 35 34
132 35 35
132 37 35
129 35 34
140 38 37
130 35 34
128 35 34
122 32 31
113 30 29
121 33 32
125 33 32
118 32 31
111 29 28
106 29 27
107 29 28
104 27 25
97 36 33
98 80 77
102 81 79
102 82 79
108 82 81
104 85 83
102 90 88
107 87 84
105 83 80
105 90 85
114 99 96
106 90 88
117 98 96
115 97 93
106 85 83
111 98 95
107 92 90
105 91 88
107 95 93
118 96 94
116 101 99
107 100 94
119 101 99
118 106 104
118 106 104
120 109 106
112 100 98
116 103 101
115 100 98
122 111 109
118 101 98
117 101 99
112 106 101
125 113 110
116 106 104
119 111 108
117 107 105
116 106 101
125 113 110
131 117 116
121 114 110
125 114 112
121 114 110
131 121 119
128 119 113
132 122 119
137 127 124
131 123 119
124 125 120
130 122 117
138 133 131
126 122 119
130 126 122
120 114 109
132 126 124
128 121 118
134 127 124
138 124 123
134 127 124
129 125 122
133 126 123
132 126 123
133 128 124
126 122 119
139 133 131
137 132 131
133 130 126
137 132 129
133 131 128
136 131 128
133 129 125
140 141 134
132 129 124
124 125 119
134 128 123
128 124 120
134 132 126
135 135 132
125 126 122
134 131 127
129 129 124
132 131 125
132 122 120
132 133 126
130 131 125
121 123 116
125 127 120
123 127 120
121 120 114
127 125 120
131 131 126
133 136 128
128 132 126
130 130 126
129 130 124
126 128 120
113 118 110
119 122 115
120 126 119
124 131 122
117 122 115
126 128 123
117 117 111
111 116 108
114 118 110
116 120 114
109 111 104
113 117 109
108 113 106
117 118 111
109 111 104
127 130 124
117 116 111
109 113 105
112 117 109
105 110 101
93 101 91
101 109 98
102 99 91
103 113 101
109 115 106
104 105 97
98 108 97
98 101 93
96 104 93
107 115 105
101 110 98
101 109 99
99 105 96
97 109 97
89 98 88
94 103 94
96 102 91
93 99 89
99 106 96
98 99 88
97 105 95
85 99 84
89 94 84
90 97 87
83 92 81
87 92 82
89 98 86
88 97 84
76 89 76
45 87 48
44 87 47
47 88 49
46 88 48
46 88 49
50 96 54
48 94 52
53 104 57
51 99 55
52 98 55
56 105 59
55 106 59
53 103 58
57 108 61
58 110 62
55 103 58
55 104 59
58 107 61
57 107 60
56 105 59
58 109 61
61 115 65
57 108 61
53 98 55
55 104 59
61 112 64
58 107 61
52 98 55
55 104 59
53 99 56
54 102 57
47 92 52
53 99 56
51 97 55
50 91 51
49 89 51
50 92 52
49 93 52
47 87 50
44 81 46
46 83 47
48 90 51
44 83 47
41 75 42
42 78 44
41 79 45
39 70 40
39 73 41
41 73 41
36 66 37
0 0 0
0 0 0
0 0 0
0 0 0
0 0 0
0 0 0
0 0 0
0 0 0
0 0 0
0 0 0
0 0 0
46 13 12
91 25 24
87 24 23
96 27 26
93 25 24
96 27 26
95 26 25
106 30 28
101 28 26
98 27 26
107 30 28
106 29 28
104 28 28
103 28 28
103 29 28
107 29 28
108 30 29
115 32 31
118 32 31
118 32 32
118 33 32
114 32 30
118 32 31
124 35 33
120 33 32
126 35 33
129 36 35
121 33 32
134 36 35
126 35 34
130 35 34
138 38 37
125 34 33
130 35 34
130 35 34
139 38 37
132 36 35
142 39 38
133 37 35
126 34 33
132 36 35
123 33 32
119 33 32
122 33 32
119 33 32
117 32 31
111 30 29
112 30 29
107 28 27
102 27 26
102 37 36
110 87 85
107 84 81
96 75 73
109 88 86
110 84 83
105 85 83
106 90 87
105 90 89
109 93 90
110 89 87
123 106 105
113 99 95
108 86 84
115 102 99
115 99 97
112 103 99
122 104 102
121 100 98
113 102 99
114 101 99
110 94 92
120 105 102
114 100 95
114 104 99
121 115 110
111 101 98
134 121 119
113 104 101
117 102 100
116 113 110
120 111 109
124 118 116
131 119 117
127 115 114
127 120 116
112 100 96
117 108 105
122 109 106
131 123 120
133 119 116
122 118 115
123 119 114
123 118 114
128 119 115
128 120 117
134 126 122
127 123 119
127 120 118
128 122 118
134 127 123
127 123 118
131 130 125
131 123 120
141 137 134
134 127 122
131 120 115
131 126 123
131 125 122
135 130 126
136 132 129
129 129 123
138 135 131
144 142 139
128 125 121
127 124 120
132 128 125
132 133 128
136 136 131
139 136 133
133 128 123
136 134 129
136 135 130
134 132 128
140 137 134
131 131 126
128 129 123
135 132 128
130 129 124
129 128 123
129 131 125
128 129 124
133 129 124
144 142 137
127 131 125
135 134 129
140 140 135
137 136 130
128 129 122
132 130 125
121 128 119
120 123 116
129 127 122
120 122 117
119 121 115
120 123 115
128 127 123
123 126 120
120 121 114
116 119 113
122 126 118
114 120 113
119 120 114
117 121 115
123 120 114
122 126 119
112 116 108
116 118 111
113 121 112
112 117 111
123 129 122
108 109 101
109 115 106
106 112 103
108 116 107
108 115 106
107 114 106
113 116 110
108 116 107
98 105 95
102 105 97
100 107 96
100 106 97
108 111 104
107 113 106
101 108 99
98 103 94
97 108 97
101 103 95
104 105 95
104 111 102
88 98 87
92 101 92
98 108 96
92 97 88
87 94 83
99 104 95
87 100 85
92 99 89
92 100 89
96 103 95
83 93 80
93 98 89
83 92 81
76 93 76
40 78 43
46 87 48
46 90 50
45 86 47
48 91 51
48 93 51
50 96 54
54 103 58
51 98 55
53 99 55
55 101 57
56 107 60
55 104 58
56 103 59
56 108 60
59 108 61
58 109 61
58 111 63
55 106 59
58 109 62
56 105 59
57 105 60
58 110 62
55 103 58
57 107 61
52 101 57
55 103 58
56 106 59
56 105 60
50 95 54
52 99 56
51 97 55
48 91 52
50 94 53
49 91 51
52 94 53
47 86 49
47 88 50
49 90 51
46 85 48
45 84 47
45 85 47
40 76 43
44 82 46
44 77 44
41 76 43
42 76 44
42 73 42
41 75 42
38 68 38
0 0 0
0 0 0
0 0 0
0 0 0
0 0 0
0 0 0
0 0 0
0 0 0
0 0 0
0 0 0
0 0 0
37 10 10
88 25 24
83 24 22
87 25 23
90 25 24
93 26 25
92 25 24
100 28 27
107 31 29
107 31 29
102 29 27
104 29 28
105 30 28
109 30 29
103 30 28
103 29 28
114 31 30
113 31 30
120 34 32
118 32 31
123 34 33
116 32 31
116 32 31
124 34 33
122 33 32
124 34 33
128 35 34
137 37 36
124 34 33
118 32 31
130 36 35
133 37 36
129 35 34
130 36 35
140 39 37
125 34 33
125 34 33
130 34 34
130 35 34
132 36 35
124 34 33
128 35 34
126 34 33
120 31 31
119 32 31
116 31 30
112 30 29
110 29 28
105 28 27
104 28 27
101 35 34
106 79 78
119 99 97
107 91 88
108 88 85
106 89 86
110 90 87
108 87 85
108 86 84
112 90 87
107 92 88
112 92 90
108 91 89
104 94 90
109 90 87
121 104 102
109 99 96
111 94 91
118 95 94
119 101 99
113 99 96
123 110 108
121 108 107
109 94 92
117 104 101
120 106 105
120 107 104
123 108 106
116 103 99
124 114 111
119 112 110
114 111 106
130 118 116
128 120 117
124 110 108
124 114 112
125 109 107
131 121 118
122 109 105
122 110 107
128 116 113
132 127 123
131 123 121
129 118 116
119 115 110
131 126 123
126 118 115
131 124 119
130 124 121
137 136 131
119 111 107
132 128 121
133 128 124
134 127 124
142 134 132
118 118 112
136 132 129
129 125 121
136 129 127
133 128 124
133 127 124
134 131 127
133 129 125
133 125 123
131 127 122
137 132 128
127 119 116
125 128 121
139 138 134
127 126 119
154 146 143
138 133 130
136 133 129
138 134 131
139 139 135
140 132 128
137 133 129
128 129 123
131 130 125
130 129 124
139 135 133
129 130 123
138 139 131
141 142 137
130 132 126
139 140 134
127 126 121
120 123 116
126 129 124
130 129 125
123 128 121
128 131 125
126 125 119
136 134 129
122 126 117
124 127 121
122 124 118
130 129 124
129 133 127
121 122 116
121 122 116
118 116 111
118 122 114
119 124 117
114 119 111
119 122 112
116 122 115
117 119 115
120 127 118
106 114 104
117 120 113
120 126 118
113 120 112
114 119 111
107 113 104
117 120 112
112 116 107
117 117 111
107 113 102
109 117 108
113 119 110
110 118 109
102 112 100
100 105 97
99 105 96
101 105 98
102 108 100
98 106 95
94 99 90
99 105 96
94 102 91
103 103 94
91 100 90
88 96 87
90 97 88
96 98 90
85 95 81
93 98 88
87 97 86
94 101 92
87 93 84
83 92 80
86 96 83
82 94 79
79 95 78
42 83 46
44 90 49
47 91 50
46 88 49
48 92 51
48 94 53
48 92 51
53 99 55
52 98 55
56 106 60
53 101 57
54 102 57
52 99 56
57 106 60
55 105 59
57 107 61
57 105 60
58 111 62
57 105 59
59 109 62
58 109 62
57 106 60
55 105 59
56 104 59
56 103 59
55 104 59
52 96 55
51 96 54
52 99 56
51 96 53
50 92 52
50 95 53
50 92 52
52 94 53
45 84 47
52 96 55
46 86 48
47 90 51
48 90 51
43 77 43
45 85 48
47 84 48
43 77 44
40 75 42
41 75 42
41 72 42
44 75 43
42 73 42
38 70 39
40 73 41
0 0 0
0 0 0
0 0 0
0 0 0
0 0 0
0 0 0
0 0 0
0 0 0
0 0 0
0 0 0
0 0 0
33 10 9
91 26 25
90 24 24
87 24 23
97 27 26
96 26 26
94 26 24
98 28 26
105 28 27
99 27 26
103 29 28
102 28 27
99 28 27
105 28 28
107 29 28
107 30 29
113 31 30
110 31 29
121 34 33
117 32 31
114 31 30
119 33 31
119 32 31
122 34 33
122 34 33
122 34 33
129 35 34
132 36 35
135 38 36
133 36 35
136 37 36
142 38 38
132 35 34
144 39 38
136 36 36
144 40 39
130 35 34
132 35 35
131 36 35
122 33 32
130 35 34
136 36 35
125 34 33
120 34 32
111 30 29
115 32 30
112 31 30
108 30 28
110 29 28
97 24 23
99 39 36
102 80 79
114 89 88
113 92 90
98 77 76
101 81 79
113 90 90
109 93 91
114 91 89
113 95 92
109 92 88
124 109 105
112 98 96
109 95 91
119 102 99
105 94 90
110 103 97
113 99 97
114 98 95
115 96 95
127 110 108
115 104 101
125 107 104
117 103 99
119 104 102
121 105 104
125 110 108
123 108 105
118 100 99
125 120 116
131 117 115
117 108 106
131 117 114
128 114 113
123 111 107
118 112 109
112 102 99
127 119 115
131 120 116
127 117 114
131 118 114
131 114 112
134 120 118
130 119 115
138 128 125
129 119 116
130 119 116
121 117 114
135 126 124
136 130 125
133 125 122
127 119 116
127 120 117
136 132 128
127 124 119
136 128 126
143 136 134
136 134 129
140 133 129
132 125 122
134 127 124
128 125 120
136 136 131
134 132 128
136 136 130
135 132 128
138 135 131
137 132 127
134 132 128
141 139 136
140 137 134
136 133 127
137 132 129
129 130 124
133 132 129
130 125 121
138 138 133
139 138 133
136 138 133
141 138 136
127 133 124
128 128 122
134 132 127
129 133 127
134 134 128
124 127 122
130 131 126
136 138 132
131 129 123
127 131 124
129 130 125
122 128 120
134 132 127
128 127 122
134 135 129
124 125 120
129 130 124
122 123 116
127 131 123
123 125 118
126 129 122
126 128 122
123 126 120
124 119 116
119 121 116
121 125 117
119 127 118
115 117 110
117 117 111
119 121 113
112 117 108
125 126 121
119 122 115
111 114 106
108 115 107
114 125 114
106 114 105
115 116 112
110 116 107
108 114 106
105 113 102
107 113 104
103 110 102
99 104 94
118 123 114
100 107 97
104 110 99
102 109 100
98 104 96
100 103 96
96 104 94
101 111 99
97 106 96
100 111 98
93 100 90
87 97 86
92 97 88
91 105 90
96 101 91
90 102 89
97 106 95
90 97 87
88 100 87
86 95 85
80 86 77
41 76 41
43 86 47
41 81 44
50 98 55
48 93 52
51 99 55
52 98 55
52 100 55
51 97 55
56 105 60
54 103 58
54 106 59
58 108 61
57 107 60
60 114 65
55 104 58
59 109 61
56 108 61
58 108 61
56 104 59
53 99 56
57 111 63
56 105 59
59 112 64
56 104 59
54 102 58
53 101 57
58 107 60
51 97 55
54 99 56
52 98 55
52 98 56
50 93 53
53 99 56
49 94 53
48 90 50
48 90 51
45 84 47
45 85 48
45 84 47
45 83 47
48 88 50
45 81 46
46 83 47
43 79 45
40 73 41
44 79 45
42 77 44
41 77 44
35 64 36
0 0 0
0 0 0
0 0 0
0 0 0
0 0 0
0 0 0
0 0 0
0 0 0
0 0 0
0 0 0
0 0 0
35 10 9
87 24 23
92 25 24
96 27 26
92 25 24
92 26 24
88 25 24
99 27 26
95 26 25
95 27 25
103 28 27
102 29 28
111 30 29
113 32 31
119 33 32
111 31 29
110 30 29
114 31 30
120 34 32
109 31 30
116 33 31
120 33 32
112 31 30
119 34 32
126 35 34
122 32 31
125 34 33
129 35 34
124 35 33
134 36 35
127 35 34
130 35 34
134 36 35
133 36 35
121 33 32
137 37 37
130 35 34
128 34 34
123 34 32
136 37 36
130 35 34
124 34 33
123 34 33
131 36 35
122 33 32
121 32 32
118 32 31
116 32 30
114 30 29
103 28 27
97 38 38
103 87 86
97 83 80
106 84 83
105 84 80
105 88 87
109 90 88
108 95 92
106 90 88
113 94 93
115 95 93
114 96 92
113 93 91
121 106 104
105 93 90
113 98 95
112 91 89
118 100 96
114 99 96
114 98 97
116 99 98
117 104 101
126 116 113
124 114 111
118 107 103
122 106 104
117 107 104
113 104 99
116 100 98
118 104 103
123 110 107
114 105 102
115 106 102
125 111 110
122 113 110
133 124 121
137 130 126
133 122 120
130 121 119
127 121 118
130 123 119
131 122 120
127 124 117
125 112 110
137 131 128
141 133 129
127 121 118
136 129 126
138 135 131
133 126 124
131 122 120
138 134 131
135 131 127
142 135 133
136 134 129
131 127 123
129 123 119
134 127 123
133 133 126
140 136 132
143 141 137
146 145 142
143 139 135
133 134 129
143 135 132
147 142 139
141 138 134
134 131 126
144 141 137
136 132 127
133 132 127
132 135 130
136 133 129
143 141 136
137 136 132
134 133 128
129 125 121
138 138 134
142 141 137
126 127 122
133 129 124
134 138 131
130 132 126
123 125 119
133 135 129
140 141 136
126 129 122
128 129 123
123 123 118
140 137 134
124 131 124
128 130 124
128 126 123
125 125 118
123 127 122
121 123 116
125 127 121
126 130 123
123 125 118
116 120 114
125 126 119
124 126 119
125 127 121
108 114 106
120 122 116
128 128 123
119 120 115
109 115 106
115 120 112
117 119 112
111 118 109
112 114 107
112 118 109
107 115 106
116 124 115
113 120 111
114 115 109
101 107 100
114 118 111
111 118 107
100 105 97
104 112 101
114 117 110
106 111 102
100 108 97
106 111 102
100 109 99
103 110 100
95 101 91
105 111 102
101 105 95
98 104 95
95 103 92
92 99 89
98 105 93
100 109 100
95 99 91
96 103 93
97 105 95
92 104 93
93 102 91
92 102 90
85 96 85
82 93 80
87 98 84
42 79 44
42 85 46
49 96 53
49 96 54
51 95 53
51 97 55
52 99 55
50 97 54
52 101 57
52 100 56
62 115 65
54 103 57
54 101 56
53 103 58
57 106 59
56 108 61
59 112 63
55 106 60
56 106 60
57 106 61
57 108 61
60 112 64
56 106 60
56 104 59
57 105 59
57 103 59
53 99 56
53 100 56
54 98 55
54 100 57
50 96 54
51 95 53
50 93 53
51 93 52
49 92 52
52 95 54
48 89 51
49 91 51
46 86 49
43 81 46
48 89 51
41 77 43
43 79 44
41 78 44
46 82 47
45 86 49
46 79 45
39 74 42
39 74 42
32 58 33
0 0 0
0 0 0
0 0 0
0 0 0
0 0 0
0 0 0
0 0 0
0 0 0
0 0 0
0 0 0
0 0 0
48 13 13
93 26 25
91 25 24
97 28 26
95 26 25
93 26 25
96 27 26
95 27 25
96 27 26
105 29 28
99 27 26
102 29 27
108 30 29
108 29 29
115 32 31
111 31 30
110 31 30
110 31 30
111 31 30
115 32 31
120 34 32
120 33 32
118 32 31
121 33 32
118 33 32
126 35 33
128 35 34
133 36 35
128 34 33
135 37 36
129 34 33
141 38 37
127 34 34
132 37 35
138 37 36
136 37 36
136 36 35
137 37 36
133 35 34
134 37 36
128 35 34
129 36 34
127 34 34
116 31 30
121 34 32
120 32 31
112 30 29
122 33 32
111 29 29
107 27 26
105 41 40
106 88 86
102 80 77
104 87 85
105 85 83
112 92 90
112 99 97
107 91 88
106 95 91
115 95 93
105 85 83
109 88 87
114 97 94
115 100 99
111 91 89
112 101 99
120 108 106
121 106 103
115 103 102
130 109 108
114 96 94
115 99 96
113 101 99
117 102 99
123 112 109
123 106 104
123 111 109
127 114 111
125 110 107
135 122 121
121 110 107
125 113 111
122 107 103
131 121 119
125 118 115
122 110 108
128 121 119
124 113 110
130 124 121
126 113 111
124 116 112
132 124 120
133 125 123
131 123 121
132 124 120
125 118 115
135 133 128
140 132 130
135 124 121
134 126 124
129 126 122
130 122 119
142 137 135
142 136 134
123 125 117
135 132 128
142 139 135
129 124 120
138 133 130
135 130 125
135 132 128
143 139 135
133 131 126
144 132 129
143 136 133
135 135 131
135 132 128
141 139 135
141 140 135
139 133 129
131 130 126
149 146 142
138 137 132
143 139 135
132 131 125
139 138 133
140 141 136
129 128 123
140 137 131
133 132 127
133 136 130
144 143 139
132 132 127
128 127 122
131 135 128
131 130 126
133 137 131
124 125 118
135 134 127
123 126 120
132 136 129
141 143 138
124 128 122
134 137 132
127 131 124
121 125 117
124 125 119
128 131 124
121 124 117
119 122 115
112 118 109
123 122 116
126 130 124
121 126 116
122 123 118
116 122 114
120 122 116
110 116 107
110 115 106
124 126 119
112 117 108
112 120 112
118 124 116
106 112 104
119 119 110
111 115 107
111 115 108
123 124 117
106 112 103
115 121 114
118 121 114
108 111 105
110 117 107
113 116 108
99 106 98
106 113 105
104 109 100
103 110 100
103 109 98
105 115 103
108 111 102
100 111 100
93 103 92
97 101 92
96 100 91
97 105 91
96 101 90
85 97 84
94 103 92
93 101 91
91 104 91
93 100 88
90 99 89
90 97 87
86 94 83
43 80 44
45 88 48
43 83 45
48 94 52
49 95 53
52 100 55
50 98 54
53 103 58
54 102 57
53 103 57
53 100 56
57 108 61
53 99 56
59 111 63
55 106 60
55 105 59
56 107 60
57 109 61
57 108 61
57 107 60
56 106 60
56 107 60
62 115 65
53 101 57
57 107 60
57 107 61
53 102 57
53 101 57
53 99 56
54 98 56
56 104 59
52 98 55
52 93 53
50 93 53
50 93 53
51 93 53
48 91 51
45 86 48
45 83 47
46 84 48
48 92 52
41 76 43
43 78 44
45 80 45
39 75 42
42 78 44
43 80 45
42 75 42
42 75 42
36 59 34
0 0 0
0 0 0
0 0 0
0 0 0
0 0 0
0 0 0
0 0 0
0 0 0
0 0 0
0 0 0
0 0 0
36 9 9
92 26 24
91 25 24
87 25 24
93 26 25
98 27 26
93 26 25
97 28 26
104 29 28
107 29 28
99 28 27
101 27 27
110 30 30
105 30 28
104 28 27
109 30 29
113 31 30
115 32 31
116 32 31
120 33 32
113 31 30
128 36 35
116 32 31
120 32 31
129 36 35
124 34 33
122 33 32
135 37 36
123 33 32
128 35 34
140 38 37
127 34 33
136 37 36
134 37 35
137 37 36
131 36 34
131 36 35
138 37 37
125 33 33
132 35 35
121 33 32
141 38 37
130 35 34
122 34 33
118 32 31
126 33 32
110 31 29
119 31 31
114 31 30
109 30 29
99 40 38
106 82 80
109 92 89
109 92 89
109 97 95
107 83 80
106 83 81
108 90 88
110 94 91
114 94 91
111 96 94
120 100 99
122 106 104
119 102 101
115 100 97
116 99 96
114 97 96
114 101 98
117 103 99
113 99 97
122 105 102
121 103 100
114 100 98
118 100 98
126 107 107
120 108 106
119 112 109
121 110 107
135 126 123
121 107 105
138 124 123
130 115 112
126 119 117
126 113 110
125 116 113
126 110 109
121 117 112
129 118 116
132 122 119
119 112 110
130 118 116
124 118 113
133 125 122
134 122 118
132 122 119
133 121 119
129 119 116
134 131 127
136 131 128
126 116 113
135 129 125
137 132 129
134 131 128
140 136 133
132 126 122
134 133 127
140 137 132
141 135 133
136 130 128
135 133 128
134 127 123
134 131 128
138 134 130
139 136 132
145 138 134
147 145 141
137 135 131
148 143 140
129 126 122
135 132 129
129 128 124
136 134 129
130 128 123
144 142 137
140 142 137
146 146 140
136 135 130
142 139 136
136 134 130
134 134 129
139 141 136
128 128 122
143 143 137
135 136 131
142 140 134
128 123 119
127 130 125
131 133 126
135 135 129
129 129 124
134 136 130
130 130 123
125 128 121
133 136 130
130 132 124
122 127 120
126 130 123
127 132 124
117 120 114
124 130 122
129 131 123
128 133 124
119 127 117
125 129 121
120 122 113
116 118 111
120 127 119
118 121 114
120 123 117
122 125 119
122 127 118
113 117 111
115 117 112
115 121 113
114 120 113
104 108 101
122 127 119
109 113 105
106 110 101
113 122 111
102 107 100
118 124 114
109 109 103
101 110 99
103 111 103
105 115 103
95 100 92
97 108 96
103 109 101
105 111 100
98 106 95
96 102 94
102 108 99
103 112 102
95 100 88
101 110 96
94 105 93
96 103 92
96 109 95
97 108 95
98 105 95
86 95 84
85 96 84
90 106 90
84 98 82
44 82 45
44 83 46
46 85 46
52 97 54
49 94 52
52 100 56
50 94 52
52 99 56
53 99 55
55 101 57
57 108 61
56 108 61
55 105 59
55 106 59
59 110 62
56 106 60
60 113 64
59 110 62
60 112 63
57 109 62
58 112 63
60 113 64
56 108 61
55 104 59
53 102 57
55 103 58
53 101 57
55 100 57
55 104 59
52 99 56
53 100 57
53 100 57
50 95 54
50 93 53
54 98 56
47 88 50
51 94 54
46 87 49
44 85 48
47 89 51
46 82 46
45 84 47
44 85 48
43 76 44
45 84 47
40 73 42
42 78 44
41 79 44
41 78 44
32 57 33
0 0 0
0 0 0
0 0 0
0 0 0
0 0 0
0 0 0
0 0 0
0 0 0
0 0 0
0 0 0
0 0 0
42 11 10
83 23 23
92 25 24
94 27 25
88 26 24
100 28 26
96 27 26
96 27 25
99 27 26
99 27 26
96 27 26
111 32 30
100 27 26
111 31 30
112 32 30
114 31 30
110 30 29
106 30 29
115 32 30
113 31 30
110 30 29
124 35 33
123 35 33
126 35 33
124 35 33
128 36 34
126 34 33
132 37 35
121 33 32
133 37 36
125 34 33
136 36 35
131 36 35
132 36 35
123 34 33
124 35 33
133 36 35
123 34 33
132 36 35
131 36 35
137 37 36
125 34 33
127 33 33
120 32 31
125 33 32
122 33 32
121 33 31
119 32 31
108 29 28
107 28 27
103 38 37
108 85 84
110 97 94
104 88 84
108 91 90
107 85 83
110 91 89
103 84 82
123 107 105
113 92 91
111 90 88
113 95 92
111 97 91
124 102 99
117 98 93
117 100 97
116 101 99
113 98 96
119 93 92
121 104 101
115 103 99
123 107 105
118 104 101
123 109 107
122 111 109
129 114 113
119 106 103
132 117 115
130 119 116
121 111 107
128 117 115
119 107 105
128 117 116
131 119 117
135 122 118
132 125 122
120 112 109
127 122 119
126 117 113
122 114 109
140 132 129
130 123 119
137 126 123
125 114 112
135 126 121
143 137 133
141 126 125
141 127 126
130 125 121
141 133 130
143 135 132
145 141 138
144 132 130
141 131 128
141 136 132
129 127 123
137 133 130
144 137 133
140 133 130
135 129 126
143 135 132
145 139 135
137 135 132
140 137 132
130 129 124
139 134 131
135 131 129
134 136 129
141 136 132
134 130 127
146 141 137
135 133 130
137 135 131
141 139 136
135 137 131
139 144 138
135 135 131
137 139 133
134 133 128
137 138 132
125 127 122
137 135 132
134 136 131
131 134 126
137 136 133
139 133 128
129 135 126
131 131 127
133 136 129
131 131 125
131 133 126
137 137 133
129 133 126
127 129 122
130 135 128
127 130 125
135 136 130
128 131 123
118 123 115
121 122 116
127 129 123
127 130 123
126 128 120
125 131 122
116 120 114
122 125 118
121 128 118
120 124 117
117 119 112
116 119 109
118 121 114
126 131 124
113 115 109
110 114 106
119 122 116
111 117 110
120 124 113
116 120 112
106 112 104
108 114 104
105 113 103
105 111 103
108 115 105
105 114 104
102 113 100
109 115 108
107 114 104
108 113 104
105 111 102
105 113 103
104 113 103
115 116 109
101 107 97
98 105 95
111 116 109
102 109 100
94 107 94
93 103 91
94 105 93
95 102 93
95 101 92
99 104 94
92 106 92
92 104 92
84 93 78
43 83 46
46 87 48
47 91 50
51 93 52
48 94 52
50 94 53
49 95 53
56 106 60
56 104 59
57 110 62
57 109 61
56 107 60
56 107 60
55 103 58
56 107 60
60 116 66
57 105 60
58 112 63
56 105 59
61 115 65
58 107 60
60 114 65
59 112 63
53 101 57
54 103 58
53 101 57
57 105 59
53 98 56
51 96 54
53 99 56
51 94 53
49 93 52
51 93 52
52 98 56
48 91 51
45 85 48
47 88 50
47 86 48
47 88 49
47 84 48
45 85 48
47 85 48
47 88 50
44 79 45
43 76 43
41 78 44
42 77 43
44 78 44
42 77 44
34 66 36
0 0 0
0 0 0
0 0 0
0 0 0
0 0 0
0 0 0
0 0 0
0 0 0
0 0 0
0 0 0
0 0 0
41 12 11
87 25 23
98 27 26
100 27 26
95 26 25
93 25 24
102 27 27
99 27 26
95 27 25
103 29 28
94 26 25
102 28 27
110 30 29
108 31 29
117 32 31
114 32 31
111 31 30
111 31 30
113 32 30
116 32 31
113 31 30
122 34 33
123 34 33
130 37 35
133 36 35
127 34 33
126 34 33
119 33 31
134 36 35
125 35 33
142 38 38
129 36 35
130 35 34
130 34 33
138 38 37
133 36 35
124 34 33
124 34 33
123 34 33
127 33 33
125 34 33
126 35 34
133 36 35
128 35 34
123 34 32
113 30 29
117 30 29
118 33 31
116 30 29
109 29 28
106 43 42
109 87 86
107 93 90
107 88 87
106 89 87
121 95 94
109 89 86
113 94 91
114 92 92
112 94 91
113 91 90
118 102 98
118 94 92
110 94 91
115 101 99
115 98 96
123 107 105
122 102 98
122 109 107
119 98 96
120 103 101
118 108 105
114 98 96
130 114 111
126 114 109
124 111 109
128 116 114
124 110 107
126 112 109
133 116 114
130 119 116
124 108 107
122 110 108
127 119 115
141 131 128
124 113 110
136 124 121
130 121 119
134 125 120
130 124 121
134 128 125
136 126 124
132 127 123
125 121 116
129 120 118
137 133 131
134 127 124
147 137 134
138 138 133
133 128 126
136 128 125
141 136 133
133 129 126
140 129 126
136 132 129
147 138 135
138 133 130
133 130 127
137 130 127
149 143 140
136 135 132
127 122 119
136 131 127
142 141 138
141 140 136
141 137 135
135 133 129
136 132 128
147 144 140
139 135 131
137 139 132
139 138 133
145 142 139
145 139 137
145 144 141
136 139 133
144 142 137
137 134 130
135 133 128
142 141 137
133 133 129
133 131 125
134 131 127
133 133 127
135 133 128
137 136 131
127 128 123
136 131 125
130 130 125
146 144 140
132 137 129
134 133 128
133 135 129
139 140 134
132 133 127
134 134 129
122 127 120
135 140 132
126 131 125
124 127 119
127 131 124
123 127 120
125 127 120
134 137 131
117 119 112
114 120 113
124 128 122
122 124 117
114 124 114
117 122 115
115 118 111
119 122 115
111 114 107
110 115 107
116 120 112
120 128 119
114 121 111
113 117 110
116 123 113
108 113 105
111 114 108
111 119 110
107 117 107
113 119 108
106 114 104
107 112 103
110 113 105
108 115 103
104 109 99
103 112 102
102 112 101
103 109 100
104 110 101
105 114 102
102 108 99
100 109 97
98 110 97
94 106 94
93 105 93
97 106 96
99 106 97
91 103 89
95 104 93
90 101 88
89 98 88
44 84 46
45 85 47
46 90 50
50 98 54
52 101 56
49 92 52
53 102 57
50 98 55
53 100 56
55 102 57
53 104 57
56 106 60
53 104 58
59 110 62
55 107 60
57 108 61
58 110 62
61 119 67
58 111 63
57 107 61
59 110 62
61 115 65
58 109 62
57 108 61
59 107 61
56 107 60
56 103 59
56 104 59
55 99 56
54 101 57
50 95 54
54 99 56
53 98 56
50 95 54
50 91 52
46 88 49
47 88 49
47 85 48
47 88 50
50 92 52
45 85 48
47 86 49
46 87 49
43 77 44
43 81 46
44 81 46
40 74 42
38 71 40
41 73 41
36 63 36
0 0 0
0 0 0
0 0 0
0 0 0
0 0 0
0 0 0
0 0 0
0 0 0
0 0 0
0 0 0
0 0 0
44 12 12
87 24 23
95 27 26
86 24 23
99 28 27
93 26 24
91 25 24
93 27 25
107 30 28
106 30 28
99 28 26
104 29 28
107 30 29
104 29 28
107 29 28
109 30 29
109 31 29
120 33 32
116 33 31
118 32 31
122 33 32
119 33 32
117 32 31
131 36 35
127 35 34
130 36 35
132 36 35
135 37 36
131 35 34
129 36 34
121 33 32
127 34 33
140 38 37
139 38 36
139 38 37
141 38 38
137 37 36
138 37 36
132 36 35
124 33 33
129 35 34
129 34 33
127 35 34
123 33 32
115 31 30
113 30 29
118 31 30
109 28 27
111 30 29
104 27 26
104 45 43
107 89 87
113 92 90
117 96 95
115 96 93
116 93 91
110 92 91
112 99 96
110 93 91
112 95 91
122 99 96
112 93 91
116 96 95
109 101 98
113 96 94
115 103 100
110 100 97
114 102 99
113 98 95
113 101 97
118 105 101
114 102 99
111 101 98
129 111 110
127 115 112
120 109 107
129 114 111
126 112 110
126 116 114
120 108 104
124 112 109
128 117 115
130 118 116
128 111 109
123 117 113
131 118 114
135 124 120
135 122 119
122 118 114
131 125 121
135 124 120
140 129 127
131 124 121
142 133 131
140 131 129
139 126 125
139 128 127
135 126 124
129 122 118
137 132 129
136 130 126
142 134 130
136 132 128
142 137 133
132 126 124
139 135 131
143 140 135
132 126 123
138 133 129
142 136 132
144 143 138
140 140 136
143 141 138
140 137 133
140 137 133
136 129 125
130 126 123
143 142 137
140 137 133
135 135 130
129 127 122
142 140 133
136 136 132
142 137 133
143 142 138
136 137 131
144 144 140
137 137 132
139 139 134
135 133 128
137 136 133
130 132 127
138 137 134
142 141 137
132 132 128
131 133 127
131 132 126
137 135 130
138 139 134
134 137 130
135 137 132
135 135 129
129 128 122
129 132 126
125 123 117
124 132 122
136 138 132
124 124 118
122 126 118
136 138 131
131 132 126
125 125 121
123 128 120
115 117 112
124 131 123
127 129 124
125 131 123
122 127 119
130 133 127
127 130 123
113 118 110
111 117 109
122 120 114
117 120 113
116 118 111
119 128 119
111 118 110
113 117 110
104 114 104
115 120 113
114 124 112
110 116 106
105 114 105
114 117 110
104 114 102
108 112 105
100 110 98
105 111 104
105 108 100
108 111 102
100 108 97
100 108 99
110 119 108
105 109 103
101 110 97
99 105 95
98 103 93
97 103 91
104 112 99
93 102 92
97 105 93
94 105 94
91 98 89
89 94 85
84 98 83
46 86 48
48 93 51
51 94 52
49 93 52
53 101 57
51 97 54
53 99 56
53 101 56
52 99 56
55 105 59
54 102 57
56 105 59
53 102 58
56 109 61
55 107 60
57 106 60
54 103 58
56 107 60
58 107 61
60 114 64
58 110 62
55 106 59
60 111 63
58 109 62
55 103 59
55 105 59
54 103 58
56 104 59
54 101 57
50 97 55
54 103 58
51 96 54
48 90 51
51 96 54
49 92 52
47 85 48
47 86 49
46 86 49
49 92 51
41 76 43
46 84 48
45 87 49
42 79 45
44 79 45
43 77 44
44 84 48
44 77 44
39 72 41
40 74 41
38 70 40
0 0 0
0 0 0
0 0 0
0 0 0
0 0 0
0 0 0
0 0 0
0 0 0
0 0 0
0 0 0
0 0 0
46 12 12
88 25 24
99 28 27
87 24 23
97 27 26
93 26 25
89 25 24
97 28 26
91 25 24
100 28 27
103 29 28
100 28 27
108 30 29
101 27 26
111 31 30
108 30 29
109 29 29
114 31 30
119 32 31
124 35 34
118 32 31
117 32 31
122 34 33
118 32 31
124 34 33
131 36 35
126 34 33
135 37 36
130 35 34
131 36 35
130 36 35
128 34 33
138 37 37
145 39 39
129 35 34
117 32 31
139 38 37
134 36 36
130 35 34
129 35 34
132 36 35
121 32 31
133 36 35
116 32 30
123 33 32
123 34 32
122 33 32
111 29 28
117 31 30
108 27 27
110 40 38
109 89 87
110 88 85
109 89 87
108 89 87
109 90 89
115 98 94
112 95 92
116 99 98
118 97 97
116 97 95
124 103 102
118 106 103
117 99 96
119 101 98
122 98 96
126 113 111
128 111 108
119 101 97
119 100 97
124 111 109
130 110 108
118 105 102
119 102 100
128 114 113
121 109 106
123 111 109
129 114 112
119 108 105
124 115 113
133 124 121
125 119 116
121 114 110
128 118 115
130 118 117
129 119 116
141 133 131
132 121 119
134 124 122
130 122 119
129 123 119
134 127 124
136 128 125
140 128 126
128 118 116
133 123 118
135 123 121
133 124 121
136 130 126
139 132 129
132 125 123
139 134 131
139 133 131
143 134 129
141 136 134
146 143 140
136 132 129
136 134 130
140 137 133
136 137 130
141 139 135
136 134 128
137 135 131
139 135 131
136 133 129
135 137 131
145 141 137
141 137 134
144 143 138
145 144 138
141 138 135
146 145 140
140 140 135
141 136 132
140 137 133
140 141 137
138 138 133
132 134 128
141 142 137
151 152 148
141 139 135
133 132 126
141 139 134
141 142 136
133 134 130
129 129 124
134 133 129
139 139 135
136 137 130
137 140 134
136 136 130
138 143 136
129 135 127
124 126 121
132 135 129
128 132 125
132 135 128
128 129 125
133 136 129
127 129 122
125 130 123
131 136 129
125 127 121
127 131 124
115 119 111
122 124 117
122 124 118
126 130 124
122 123 117
117 122 113
117 122 112
125 131 122
111 115 108
118 120 113
112 117 108
118 123 115
117 121 113
111 116 107
111 117 105
118 124 116
109 119 108
110 117 107
110 116 106
108 114 105
105 113 104
102 110 98
105 110 101
103 114 101
102 110 101
100 106 98
106 113 104
102 106 97
104 113 102
101 107 99
102 109 99
98 106 93
103 110 100
97 110 97
103 110 99
92 102 90
98 105 92
94 104 94
103 110 102
92 101 90
89 100 86
44 88 48
44 89 48
47 91 51
47 91 50
51 98 55
55 107 60
52 99 56
57 107 60
53 100 56
53 101 57
53 101 57
60 112 64
59 112 63
56 105 59
58 111 63
58 110 62
61 118 66
57 107 61
57 109 62
59 110 63
58 112 63
57 109 62
56 104 59
57 106 60
58 111 62
55 100 57
56 105 60
54 101 57
55 102 58
57 104 59
51 98 56
52 96 55
54 99 56
51 94 53
51 92 52
51 95 54
46 88 49
48 90 51
45 83 47
47 84 47
44 82 46
48 86 49
44 84 47
44 80 45
44 81 46
45 84 48
42 78 45
41 75 42
40 74 42
35 66 37
0 0 0
0 0 0
0 0 0
0 0 0
0 0 0
0 0 0
0 0 0
0 0 0
0 0 0
0 0 0
0 0 0
36 11 10
87 24 23
96 27 25
96 27 26
90 26 24
97 27 26
91 25 24
94 25 25
99 28 26
107 29 28
102 28 27
103 29 28
102 28 27
107 29 29
113 31 30
113 31 30
112 31 30
109 30 29
112 32 30
119 32 31
125 34 33
113 32 30
123 34 33
116 32 31
120 33 32
133 37 36
127 36 34
129 36 35
130 36 35
133 36 35
134 36 35
140 38 37
133 36 35
133 37 35
135 36 35
131 35 34
130 35 34
145 39 38
141 38 37
125 34 33
132 36 35
129 34 34
132 36 35
122 33 32
125 34 33
125 34 33
121 32 31
118 31 30
115 31 30
105 26 25
117 49 47
108 86 85
100 83 82
109 85 82
119 92 91
114 96 93
117 92 91
113 95 93
115 95 93
122 105 104
109 99 95
116 99 95
116 94 92
113 98 96
116 105 101
118 102 99
124 108 106
125 110 108
118 98 95
124 109 108
125 105 103
125 106 105
128 108 106
129 118 116
126 112 110
127 115 113
126 112 110
122 110 107
121 111 106
132 121 117
122 109 105
133 120 118
129 120 118
125 119 117
137 127 123
120 111 109
127 116 113
131 119 117
127 120 117
137 125 123
138 126 123
127 119 115
131 123 120
126 113 111
127 122 119
134 131 129
133 126 124
137 132 127
140 134 131
133 127 125
129 119 117
138 132 129
149 142 139
138 135 132
143 138 135
137 131 128
139 137 132
140 136 133
138 133 130
142 138 136
152 145 142
142 138 134
144 140 136
144 142 138
141 138 134
139 133 129
152 148 145
139 139 135
141 141 136
142 139 136
147 141 137
141 140 134
153 150 146
141 141 137
130 128 123
135 135 130
149 143 141
135 135 129
134 133 129
135 134 128
139 138 133
140 138 133
138 138 133
141 141 136
135 137 132
133 130 126
134 138 129
139 143 136
137 138 133
138 138 133
136 136 131
129 132 125
136 136 131
131 129 124
132 133 128
132 130 125
126 132 124
132 133 127
122 126 118
128 131 126
128 131 125
134 136 131
129 131 125
120 125 116
124 130 122
118 121 115
129 135 128
129 132 124
121 124 117
113 121 111
124 127 118
116 123 114
117 122 113
124 129 121
123 129 120
122 125 117
115 121 111
113 119 112
116 124 114
116 120 112
106 111 101
117 122 114
106 119 105
114 118 111
113 117 110
114 121 113
106 113 103
107 109 101
108 112 103
106 113 104
108 111 103
102 112 101
101 107 96
99 109 97
100 109 99
102 103 95
99 109 98
102 111 99
99 105 95
94 104 94
97 101 90
93 102 92
91 99 87
94 108 94
91 101 89
47 91 50
47 88 49
50 96 53
53 99 56
52 99 55
53 104 58
54 106 59
53 99 55
55 104 58
56 106 59
56 108 60
58 108 61
59 108 61
57 110 62
59 111 63
58 109 61
59 111 62
55 106 60
60 113 63
59 112 63
60 113 64
58 108 62
57 108 61
57 105 59
56 103 59
54 101 58
54 102 57
56 104 59
55 101 57
50 94 53
55 102 58
49 93 52
51 96 54
52 98 55
50 90 51
49 92 52
50 91 52
49 90 51
47 87 50
45 82 46
46 85 48
43 82 46
45 83 47
42 80 45
44 77 44
42 76 43
41 77 44
42 79 44
39 72 41
38 67 38
0 0 0
0 0 0
0 0 0
0 0 0
0 0 0
0 0 0
0 0 0
0 0 0
0 0 0
0 0 0
0 0 0
35 9 9
90 25 24
91 26 25
90 25 24
101 27 26
89 25 23
92 26 25
98 27 26
101 28 27
95 27 26
104 29 28
105 30 28
106 29 28
112 32 30
108 30 29
114 32 31
107 30 28
115 32 31
116 32 31
117 32 31
120 33 32
115 31 30
124 35 33
121 34 32
129 35 34
120 33 32
117 32 31
123 34 33
128 35 34
130 36 35
134 37 36
135 36 35
127 34 34
131 36 35
141 39 38
141 38 37
127 35 34
136 36 35
130 35 34
140 38 37
124 33 32
127 34 33
128 34 33
123 33 32
117 32 31
122 32 31
124 34 33
113 30 29
111 31 29
110 30 29
120 60 59
111 87 85
117 94 93
108 90 88
112 93 92
112 96 93
113 94 91
120 98 97
125 104 103
114 91 89
110 88 86
118 99 97
114 97 94
119 101 99
119 101 99
113 95 94
119 101 99
121 105 103
120 100 98
119 103 100
123 102 100
123 106 105
119 102 100
125 114 111
128 117 114
132 113 111
126 113 110
121 110 107
123 112 109
132 119 117
135 122 119
126 112 110
131 122 119
128 118 115
135 123 121
129 116 112
130 122 118
122 113 110
133 128 123
138 129 127
138 123 122
136 131 128
128 118 115
135 125 123
137 126 124
140 136 131
147 139 137
138 131 128
129 124 120
145 136 133
141 134 132
144 139 137
138 131 129
141 129 127
135 133 130
142 136 134
141 135 133
138 134 130
136 134 129
146 140 137
144 144 141
133 133 127
138 135 130
141 140 136
140 138 134
143 138 135
140 137 134
136 136 132
144 143 139
142 140 135
138 134 131
133 134 128
135 132 127
142 143 137
147 146 141
142 144 139
141 141 136
140 140 133
135 134 130
140 137 132
135 134 129
140 138 134
146 145 141
142 143 138
134 136 130
128 130 125
144 139 135
142 142 136
129 133 126
141 138 133
127 131 124
138 136 132
133 137 129
123 129 122
127 130 124
119 125 116
126 135 124
119 121 113
129 136 127
130 133 127
121 127 119
123 126 118
126 131 124
126 128 122
130 133 126
124 128 122
126 131 123
123 130 121
114 119 112
119 124 117
126 128 121
116 125 116
121 122 117
119 125 116
115 119 111
119 125 116
117 120 113
116 123 114
117 125 116
108 117 105
119 121 116
110 117 109
111 117 108
100 109 99
110 122 108
109 111 103
101 108 100
107 113 103
103 108 99
104 111 102
100 104 94
106 113 105
99 107 97
98 110 97
102 109 98
102 110 99
102 113 102
96 107 95
99 107 99
95 108 95
100 108 98
95 109 95
95 108 95
88 96 85
89 99 88
48 94 51
49 94 52
51 96 54
50 98 54
51 99 55
54 103 57
53 104 57
52 98 55
52 101 56
56 107 60
56 107 60
57 106 60
52 98 55
62 115 65
55 105 59
59 113 64
58 110 63
57 110 62
59 115 64
56 106 60
59 113 64
59 110 62
57 108 61
56 104 59
56 104 59
55 104 59
56 102 57
58 105 60
53 99 56
51 96 55
56 101 57
51 95 54
50 94 53
50 92 52
50 91 51
49 93 53
50 94 53
48 89 50
45 86 48
47 88 50
46 82 47
48 90 51
45 84 48
42 79 45
43 82 46
41 78 44
45 83 47
40 75 42
43 77 44
34 62 35
0 0 0
0 0 0
0 0 0
0 0 0
0 0 0
0 0 0
0 0 0
0 0 0
0 0 0
0 0 0
0 0 0
49 13 13
92 25 24
90 25 24
98 28 26
95 27 26
97 27 26
100 27 26
98 27 26
102 28 27
97 27 26
105 30 28
104 29 27
107 30 29
109 30 29
108 30 29
110 30 28
111 31 30
108 30 29
116 33 31
114 32 31
117 32 31
128 35 34
118 32 31
123 34 33
121 34 33
127 36 34
129 35 34
126 34 33
134 37 36
137 37 36
133 35 35
127 35 34
129 35 34
131 35 34
147 40 39
133 35 35
133 36 34
133 36 35
132 35 34
132 36 35
133 35 35
124 34 33
137 36 36
120 33 31
120 32 31
124 34 33
115 32 31
111 29 28
116 31 30
109 28 28
106 44 42
112 86 83
112 95 94
118 95 93
119 99 96
111 90 89
113 94 89
113 90 88
116 95 92
114 95 94
118 96 95
119 101 99
118 98 95
123 104 102
115 100 97
125 109 106
116 100 98
128 110 108
132 112 110
110 101 98
125 113 111
127 110 108
123 110 106
127 114 111
129 115 112
138 119 118
122 113 109
130 119 116
129 118 116
127 117 114
129 112 109
134 119 118
138 125 123
128 115 114
131 122 118
133 121 119
127 116 114
125 113 109
134 122 120
129 119 116
137 128 126
134 128 125
135 127 125
134 123 119
134 121 117
133 130 126
132 123 121
142 137 134
133 127 123
144 133 130
143 138 136
134 131 127
139 133 128
145 142 139
145 137 133
144 140 137
145 140 137
137 134 128
144 141 138
130 129 125
137 133 131
145 140 136
140 139 135
141 139 135
143 136 132
139 137 132
141 135 131
140 139 135
141 140 136
147 144 140
142 141 137
146 141 138
138 136 131
139 139 134
142 142 138
137 136 131
140 140 135
141 139 135
137 138 133
136 139 133
135 135 130
135 137 131
138 137 133
131 130 125
145 144 139
149 149 146
140 141 135
143 143 138
136 138 131
132 134 128
135 137 132
131 133 127
131 133 128
125 129 121
131 132 127
126 130 123
137 135 129
124 129 121
135 139 133
134 138 131
131 135 129
127 133 126
124 126 120
128 135 126
127 126 121
125 136 124
119 123 116
121 126 119
118 121 113
123 126 120
120 122 114
121 124 118
121 125 119
119 125 116
121 124 117
117 121 113
118 122 115
113 123 112
117 124 115
110 118 108
110 115 106
113 120 112
112 120 111
116 123 114
110 118 108
117 125 115
106 114 105
100 111 99
102 110 100
108 118 107
109 115 107
108 113 105
110 114 105
110 118 108
108 112 103
105 113 104
97 109 97
102 110 99
93 103 90
100 109 97
97 105 93
97 109 96
95 106 94
101 109 99
92 101 89
47 91 50
47 93 51
50 96 53
51 95 53
49 93 51
52 98 55
56 109 61
55 105 59
56 106 60
55 104 59
55 100 56
58 110 62
55 102 58
61 114 64
60 111 62
55 106 59
56 108 61
59 111 62
56 109 61
58 109 62
55 105 59
54 101 57
62 116 66
54 101 57
54 98 56
55 102 57
53 98 56
57 107 61
53 100 56
50 95 53
51 98 55
48 91 52
49 92 52
53 99 57
52 95 54
49 92 52
49 88 50
48 88 50
49 89 50
48 89 50
48 90 51
47 89 50
46 81 46
43 80 45
46 81 46
45 80 46
41 73 42
40 72 41
39 74 41
36 67 38
0 0 0
0 0 0
0 0 0
0 0 0
0 0 0
0 0 0
0 0 0
0 0 0
0 0 0
0 0 0
0 0 0
43 12 11
94 26 25
91 25 24
97 27 26
97 27 25
96 26 26
93 26 25
103 29 28
91 25 24
103 28 28
99 28 26
105 28 28
99 27 26
112 30 29
111 31 30
108 30 28
110 30 29
110 30 29
113 32 31
121 33 32
114 32 30
120 33 32
117 32 31
122 34 33
123 34 33
128 35 34
130 35 34
124 34 33
126 34 33
126 35 33
134 36 35
136 36 35
141 39 38
137 38 36
128 35 34
130 35 34
138 37 36
136 37 36
130 35 34
129 34 33
133 36 35
125 34 33
125 34 33
123 33 32
126 34 33
127 34 33
109 29 28
113 30 29
115 30 29
107 28 27
105 48 47
114 86 85
111 95 93
117 99 96
115 97 95
111 95 91
117 100 99
118 97 95
120 97 96
118 94 92
108 97 94
119 100 98
118 97 95
116 98 96
120 104 102
123 106 104
125 108 107
126 110 109
116 108 105
125 109 107
125 108 107
126 107 105
121 111 109
122 101 99
129 115 113
128 111 109
130 114 111
132 116 113
127 114 111
123 111 109
123 115 110
128 115 113
125 111 109
132 119 117
134 123 120
141 127 125
128 120 115
131 123 119
132 119 118
131 127 124
130 119 116
136 124 122
130 123 120
141 130 127
138 129 126
140 134 130
140 130 127
139 135 132
151 145 142
141 132 129
145 140 136
133 125 122
133 132 128
131 130 126
139 131 128
140 135 131
135 130 127
131 129 125
141 134 132
149 146 143
142 139 135
142 139 135
137 134 129
152 143 140
139 139 135
134 136 131
136 134 129
146 142 137
144 141 136
138 136 130
140 139 135
141 137 133
149 148 143
136 136 131
135 132 128
147 148 143
145 145 139
138 139 134
131 130 125
136 139 133
134 134 130
131 132 127
137 139 131
133 132 126
134 137 131
139 142 135
132 132 127
133 137 130
143 144 140
136 137 132
139 140 134
133 133 128
129 132 125
127 132 125
133 136 129
132 133 128
133 134 128
133 134 128
131 135 128
132 135 128
133 134 129
124 130 122
127 128 122
127 127 120
124 128 120
128 130 125
127 133 125
132 134 127
124 127 122
120 126 117
116 118 112
117 121 112
116 120 113
119 128 118
130 133 126
115 119 112
113 121 111
115 123 112
116 124 114
111 118 108
109 114 106
110 116 108
110 113 105
111 120 110
110 120 110
104 113 102
100 107 99
110 114 106
109 113 104
108 119 107
102 108 97
102 111 100
104 116 103
100 109 97
97 107 95
101 110 99
96 105 95
98 109 97
100 108 97
92 102 91
96 105 93
95 101 92
91 100 90
97 105 94
92 106 92
45 89 49
47 91 51
46 90 49
51 96 54
50 96 53
51 98 55
52 100 56
56 107 60
56 109 61
56 108 61
56 109 61
57 107 60
58 109 62
59 112 63
61 114 65
58 108 61
57 108 61
59 112 63
57 109 62
58 112 63
57 109 61
56 105 59
55 106 60
57 106 60
55 102 58
58 106 60
52 99 56
55 105 60
55 102 58
57 106 60
54 101 57
53 100 56
53 98 55
51 98 56
50 93 53
49 92 52
47 89 50
48 90 51
44 85 48
47 86 49
48 89 51
46 85 48
45 83 47
44 80 46
45 81 45
41 78 44
44 81 46
44 80 45
43 76 43
37 69 39
0 0 0
0 0 0
0 0 0
0 0 0
0 0 0
0 0 0
0 0 0
0 0 0
0 0 0
0 0 0
0 0 0
36 10 9
89 25 24
93 26 24
96 28 26
93 27 25
88 25 24
92 26 25
100 28 27
104 29 28
100 27 26
103 28 27
103 29 28
102 28 27
106 30 28
107 29 28
113 31 30
116 32 31
115 32 31
112 31 30
117 32 31
121 33 32
119 33 32
120 33 32
125 34 33
125 35 34
119 33 32
122 33 32
126 34 33
131 36 34
133 36 35
126 34 33
135 37 36
139 37 36
137 37 36
135 37 36
131 36 35
125 34 33
132 34 34
126 34 33
135 36 35
127 34 33
132 35 34
127 34 33
118 31 31
125 34 33
118 32 31
120 32 31
117 31 30
116 31 30
122 32 31
102 42 40
108 88 87
108 92 88
111 92 90
117 96 94
118 96 94
111 89 89
114 99 96
113 91 88
117 98 95
114 93 91
112 99 95
111 100 96
115 100 98
123 101 98
119 107 106
130 111 110
129 113 111
123 106 102
119 107 105
120 104 102
128 111 109
131 115 113
129 115 113
121 108 106
123 111 109
124 114 112
133 124 121
126 112 109
129 115 111
128 118 115
130 119 116
129 117 115
132 118 116
133 120 118
132 123 120
134 120 118
128 117 114
133 122 119
131 121 118
142 134 131
136 130 128
128 119 117
143 137 133
134 131 126
135 127 124
141 133 130
140 132 129
131 131 127
140 135 131
142 138 134
136 133 129
142 136 133
145 136 133
141 130 128
140 139 134
141 137 134
133 132 128
141 137 132
143 138 135
142 137 133
147 142 139
146 147 141
143 138 135
145 143 138
150 144 141
142 138 134
139 138 133
138 135 131
139 140 135
142 144 139
144 145 141
143 142 138
145 144 139
142 141 138
137 141 135
140 140 134
138 140 135
144 145 140
139 135 131
140 140 135
142 140 135
139 138 134
147 149 143
136 138 133
152 152 149
141 145 138
127 128 122
136 138 133
135 136 132
138 139 133
128 133 126
135 135 129
133 137 130
137 135 129
127 129 124
133 138 131
142 145 139
130 131 124
129 130 124
131 135 128
126 127 124
124 128 120
132 137 128
130 131 126
126 131 123
121 122 114
129 136 128
124 127 119
126 131 120
119 126 116
121 125 117
123 128 120
116 121 111
129 133 127
116 122 113
112 120 111
116 125 115
118 122 113
114 118 111
112 121 111
119 123 115
110 117 107
105 113 103
111 122 111
121 126 118
107 114 103
114 122 113
104 114 104
103 112 100
109 119 107
107 116 104
105 113 103
99 113 100
100 111 99
102 110 99
101 106 97
97 108 96
97 106 95
95 107 94
99 111 99
98 109 97
100 112 98
93 102 92
97 105 94
46 87 49
46 91 50
48 91 50
49 95 52
49 93 52
54 103 57
52 101 56
53 99 55
53 103 57
59 111 63
57 107 60
56 107 60
56 106 60
58 109 62
58 110 62
58 109 61
62 116 66
54 105 59
58 109 62
56 105 60
55 103 58
61 114 65
55 103 58
56 104 59
60 111 63
57 107 61
55 105 59
52 100 56
56 106 60
51 98 56
53 97 55
49 88 50
52 98 55
51 93 53
50 91 52
49 91 52
46 86 49
52 95 54
44 83 46
46 85 48
46 83 47
44 83 47
43 80 45
42 79 45
45 81 46
43 78 44
43 77 44
41 73 41
41 75 42
35 66 38
0 0 0
0 0 0
0 0 0
0 0 0
0 0 0
0 0 0
0 0 0
0 0 0
0 0 0
0 0 0
0 0 0
30 8 8
94 26 25
95 26 25
99 28 27
95 27 26
93 26 25
95 27 26
98 27 26
99 27 26
107 30 28
106 30 28
105 29 28
107 30 29
106 30 28
106 30 29
113 32 31
110 30 29
116 33 31
116 32 31
111 31 29
123 34 33
122 34 33
120 33 32
126 34 33
127 35 34
127 35 34
122 35 33
128 35 34
124 34 33
129 36 34
132 36 35
131 36 35
137 36 36
134 37 36
127 34 33
133 36 35
132 35 35
136 36 35
132 36 35
135 37 36
132 36 35
124 33 32
123 33 32
125 33 32
124 33 32
124 33 32
118 31 30
119 32 31
119 31 30
112 29 28
108 48 44
117 95 94
118 100 99
118 92 91
107 94 90
114 92 90
117 94 92
114 91 90
117 98 94
120 99 98
119 102 100
113 96 93
122 96 95
125 111 109
119 102 99
119 100 99
122 103 100
124 108 105
130 108 108
119 109 106
123 109 106
124 110 106
121 101 99
127 114 111
132 117 115
117 108 102
131 123 120
124 112 108
133 118 116
134 122 120
142 130 128
125 113 110
124 114 111
129 114 112
141 131 127
137 122 120
132 124 120
132 125 121
126 119 115
134 130 123
135 124 121
131 125 123
133 127 122
140 130 128
133 129 124
138 136 131
139 133 130
140 130 127
140 135 131
128 122 119
145 139 136
143 137 135
145 138 135
143 137 133
138 134 131
134 135 130
142 138 135
144 142 139
149 146 142
142 140 136
141 139 135
143 139 135
139 137 131
134 131 126
135 131 126
143 135 132
141 138 134
136 133 130
142 140 136
138 137 133
145 145 140
140 141 136
144 137 134
140 140 135
143 140 136
132 129 125
143 144 139
140 141 135
136 138 132
134 134 128
138 141 136
144 146 141
136 138 132
138 140 134
137 137 132
148 147 144
138 141 135
136 140 134
135 128 123
131 134 128
140 144 138
128 132 126
129 128 123
126 130 124
132 136 129
135 139 133
131 131 127
128 135 127
137 138 132
125 129 120
127 130 125
126 127 120
131 134 127
122 128 119
122 123 118
124 130 122
128 132 125
124 130 122
122 130 120
127 129 124
118 124 116
123 126 119
119 126 118
125 129 122
119 126 116
121 124 118
121 126 119
114 120 112
112 118 110
120 125 118
119 126 116
117 122 114
115 122 113
108 113 104
115 122 114
108 116 107
108 115 105
107 116 106
108 112 105
105 113 104
103 111 102
112 117 108
102 109 99
109 118 108
107 121 107
105 116 104
101 111 101
104 112 103
99 109 98
96 106 93
97 109 95
98 108 97
98 108 97
100 108 99
89 105 90
47 92 51
48 92 51
47 91 50
51 102 56
52 99 55
52 96 54
57 107 60
55 103 58
56 104 59
57 109 61
59 112 63
56 108 61
58 111 63
59 112 63
60 118 66
57 108 60
60 113 64
59 113 64
57 109 62
57 108 61
57 111 63
58 112 63
57 109 61
54 102 58
59 109 62
56 107 60
54 104 58
56 108 61
52 96 54
53 96 54
55 101 57
53 100 57
48 91 51
47 87 49
49 93 53
53 98 55
48 89 51
50 90 51
49 92 52
47 86 49
47 87 50
45 83 47
46 82 47
44 81 45
44 79 45
43 77 43
42 78 44
42 78 44
43 78 44
36 68 39
0 0 0
0 0 0
0 0 0
0 0 0
0 0 0
0 0 0
0 0 0
0 0 0
0 0 0
0 0 0
0 0 0
33 8 8
89 25 24
95 27 26
96 27 26
94 26 25
95 27 25
101 28 27
95 27 26
99 27 26
110 32 30
104 30 28
105 29 28
102 28 27
106 28 28
108 28 27
112 31 30
110 30 29
112 31 30
114 32 31
120 33 32
117 32 31
126 35 33
124 34 33
120 34 32
131 36 35
132 37 35
127 35 34
127 35 34
128 36 34
126 35 34
133 36 35
138 37 36
126 34 33
135 36 35
141 38 37
128 35 34
136 36 36
133 36 35
138 37 36
131 36 35
139 38 37
125 33 32
127 34 34
121 33 32
130 35 34
125 34 33
125 34 32
117 31 30
110 30 29
115 32 30
113 45 44
115 93 92
108 88 87
106 90 89
110 87 86
120 98 96
112 92 91
115 98 95
125 105 104
122 109 108
122 101 100
117 100 98
130 117 115
116 95 94
117 99 96
127 109 108
122 103 100
118 102 101
121 107 104
123 108 104
124 111 108
126 112 109
128 115 112
120 106 104
133 117 115
127 115 113
126 114 112
127 114 110
128 114 113
136 126 123
126 113 111
134 121 119
132 122 118
138 129 127
127 122 118
139 123 121
136 125 122
133 126 124
136 124 122
133 127 124
131 123 120
128 119 116
137 127 125
134 131 126
135 130 126
139 129 125
139 133 130
143 137 134
137 131 127
135 130 127
133 124 121
142 138 136
147 142 138
141 140 136
129 123 120
134 130 123
134 130 125
142 131 128
141 139 135
142 140 137
136 137 131
145 144 140
135 131 129
148 145 141
148 144 139
151 149 146
140 137 134
138 136 133
142 138 135
149 143 141
146 141 137
142 144 138
136 138 133
137 136 130
134 135 129
136 134 130
142 139 135
128 130 124
148 150 144
142 141 136
136 136 131
137 133 129
143 145 139
140 140 136
135 137 130
145 147 142
132 133 128
137 136 130
135 137 130
145 145 140
131 132 126
134 139 131
131 133 127
126 130 122
133 136 130
133 135 129
130 132 126
134 139 132
135 139 131
127 133 124
125 131 122
130 134 126
121 122 115
138 136 130
122 125 119
127 134 125
117 122 114
124 129 121
126 130 122
126 131 124
122 125 118
125 132 122
118 123 115
120 124 115
119 125 115
115 121 112
116 122 112
113 122 112
111 119 110
112 119 110
114 123 114
109 115 106
113 120 111
108 115 104
106 117 104
108 117 105
118 123 115
123 130 120
105 116 105
107 116 106
108 114 106
109 120 109
99 110 98
99 107 98
100 113 100
104 110 101
96 106 94
98 108 96
105 112 102
95 108 96
101 112 101
102 109 99
95 106 94
96 109 95
92 105 91
45 89 48
48 93 52
48 94 51
50 97 54
50 96 54
53 100 56
55 102 57
54 104 59
56 108 61
57 111 62
57 110 62
53 102 57
60 111 63
59 113 64
60 112 64
55 107 60
57 110 62
59 113 63
62 114 65
56 108 61
56 107 61
59 110 63
56 105 60
57 107 61
55 106 59
57 109 61
57 103 59
57 107 61
52 99 56
53 99 56
53 98 56
54 102 58
50 91 52
52 97 55
50 95 54
47 88 50
48 90 51
49 85 49
49 92 52
46 84 48
44 83 47
49 91 52
46 86 49
45 81 46
46 84 48
42 79 44
43 80 45
40 74 42
43 79 45
40 73 42
0 0 0
0 0 0
0 0 0
0 0 0
0 0 0
0 0 0
0 0 0
0 0 0
0 0 0
0 0 0
0 0 0
36 10 10
98 27 26
97 26 25
95 28 26
97 26 26
93 26 25
97 27 25
95 26 25
105 29 28
101 28 27
104 29 28
105 29 27
109 30 29
112 31 30
109 30 29
119 34 32
112 31 29
118 33 31
114 32 31
112 31 30
118 32 31
117 33 32
123 33 33
122 34 33
127 35 34
126 35 33
124 34 33
121 32 31
131 36 34
123 33 32
129 35 34
135 37 36
138 38 37
136 37 36
139 37 37
126 33 33
126 34 33
135 36 36
128 34 34
139 38 37
128 35 34
136 36 36
122 33 32
126 34 33
118 32 30
128 34 33
123 33 32
115 31 30
121 32 31
111 29 28
112 44 43
109 90 89
117 95 94
112 88 87
120 97 96
111 89 87
114 101 97
122 102 101
122 104 102
116 96 94
118 101 99
118 103 100
116 101 99
122 104 102
128 104 102
125 108 105
120 106 103
113 97 94
129 112 108
130 110 109
123 106 103
122 108 106
121 109 106
132 111 110
120 107 104
123 109 106
130 115 113
129 119 116
137 122 120
126 110 108
133 119 116
144 124 124
131 118 116
129 122 119
132 123 121
134 125 122
129 119 116
140 131 129
137 130 128
132 125 121
133 123 119
133 126 123
127 126 121
138 126 122
138 129 126
137 131 129
125 120 115
142 135 132
142 131 128
139 133 130
138 132 130
146 142 140
146 138 136
145 141 137
139 135 129
143 139 137
144 137 133
139 136 132
144 141 138
142 133 130
140 139 134
141 139 134
151 145 143
143 142 138
142 142 139
149 144 141
142 141 137
146 142 138
143 141 137
139 141 136
143 143 137
145 147 142
150 151 145
144 142 139
146 145 141
144 143 138
136 136 132
147 145 140
144 142 138
146 147 143
137 138 131
145 144 140
149 147 144
130 134 127
134 137 131
143 145 139
140 140 135
135 135 130
127 129 125
135 135 130
144 142 136
132 134 128
136 140 132
128 131 124
127 132 124
141 144 139
131 133 125
126 129 122
132 137 131
130 133 128
133 135 129
124 127 121
127 130 124
122 125 118
134 132 126
129 132 126
125 128 120
124 128 119
117 122 112
116 125 114
123 125 119
124 127 120
114 124 113
119 126 118
123 127 119
118 120 112
120 122 115
113 119 110
118 127 116
114 121 112
114 124 113
112 117 108
113 118 109
108 115 106
108 119 107
113 121 111
111 121 110
112 117 108
112 120 111
116 123 113
105 119 104
114 121 111
111 121 110
95 105 93
101 114 100
106 115 105
101 113 102
100 112 100
102 109 97
98 106 95
104 111 101
103 111 101
98 109 98
95 106 95
93 105 92
47 84 47
49 97 54
49 91 50
48 93 51
49 95 52
51 99 55
53 102 57
57 110 62
56 105 59
56 106 60
56 107 60
57 109 61
56 106 59
61 113 64
56 107 60
58 110 62
59 112 63
56 105 59
60 114 65
56 107 60
61 115 65
59 111 62
55 104 59
59 111 63
57 109 62
56 103 59
55 106 60
53 101 57
52 97 55
53 101 57
54 103 58
54 102 58
55 101 57
52 96 54
55 100 57
46 86 49
48 87 50
46 90 50
50 95 54
49 89 51
45 82 47
45 82 47
45 83 47
46 86 49
43 81 46
44 81 46
44 79 45
44 79 45
41 75 43
37 67 38
0 0 0
0 0 0
0 0 0
0 0 0
0 0 0
0 0 0
0 0 0
0 0 0
0 0 0
0 0 0
0 0 0
33 9 9
91 25 24
91 25 24
100 27 27
104 29 28
98 27 25
97 27 25
103 28 27
100 28 27
96 27 26
99 28 27
110 31 29
108 31 29
110 30 29
114 31 30
116 33 32
111 31 30
118 32 32
116 33 31
120 34 32
117 32 31
118 32 31
115 32 30
120 33 32
116 31 31
126 35 34
122 34 33
123 33 32
127 35 34
128 35 34
125 33 33
128 34 33
133 36 35
128 34 33
138 37 36
133 36 35
135 37 36
131 35 34
133 36 35
127 34 33
128 33 33
125 33 32
135 37 36
120 32 31
124 34 33
121 32 31
122 32 32
115 30 29
113 31 30
110 29 28
114 48 48
112 88 86
119 99 96
120 106 103
109 88 87
114 95 94
117 100 97
119 99 97
123 97 95
113 93 91
121 107 103
122 101 101
126 104 102
117 105 104
111 99 96
119 102 99
132 119 117
120 102 101
118 103 102
128 111 109
123 107 105
121 104 101
121 109 106
124 111 109
131 120 118
118 103 101
123 112 109
130 111 110
129 117 115
122 110 109
124 116 112
134 120 118
130 114 112
134 123 121
143 128 126
122 114 110
125 114 110
134 120 118
131 126 123
135 128 125
138 131 128
136 127 124
140 135 132
137 130 127
131 120 117
143 132 128
137 129 126
139 132 129
129 128 123
140 136 133
140 133 131
141 131 127
134 133 128
144 136 133
141 133 130
140 132 129
143 137 134
140 136 132
142 137 134
143 140 136
139 136 131
145 141 137
151 146 143
146 144 140
149 142 140
142 137 134
145 141 138
144 139 135
141 138 135
148 144 140
133 132 127
140 140 136
147 144 139
132 128 124
138 137 132
144 143 138
143 141 137
146 144 139
141 141 136
134 137 132
144 144 139
145 148 143
142 144 138
137 138 133
139 139 133
136 139 133
142 140 137
142 144 138
141 143 137
140 138 132
137 138 133
127 131 124
132 138 130
140 140 135
136 139 133
129 130 125
133 134 128
126 130 123
126 129 122
126 127 120
126 130 122
128 130 123
127 134 125
131 135 128
125 131 123
126 130 123
126 130 121
118 125 116
127 137 125
128 131 123
124 130 120
117 122 114
118 122 116
116 123 114
130 132 126
117 124 115
121 127 119
119 125 117
112 118 108
115 119 109
111 118 108
113 122 109
112 118 110
113 121 112
106 115 105
107 115 104
112 119 110
117 128 116
114 118 108
104 113 103
105 119 104
106 119 105
102 112 102
106 113 103
101 108 99
108 119 107
103 113 102
104 112 102
104 106 97
100 113 100
106 111 100
99 112 99
102 112 100
92 106 91
94 102 89
45 86 47
47 94 51
49 98 54
48 90 50
53 100 56
53 104 58
56 105 59
53 103 57
57 107 60
58 111 62
55 103 59
54 101 57
58 113 64
58 110 62
57 109 61
59 112 63
60 111 63
61 115 65
57 110 62
58 111 63
59 109 62
57 109 62
56 105 60
56 106 59
53 98 55
55 103 58
54 100 57
56 105 60
56 107 61
53 97 55
53 99 57
50 94 53
53 100 56
49 89 50
49 92 52
49 88 50
46 85 48
48 89 50
48 90 51
48 89 50
45 83 47
47 85 48
45 82 46
45 86 48
42 77 44
43 78 44
43 79 44
42 77 44
39 72 41
38 69 39
0 0 0
0 0 0
0 0 0
0 0 0
0 0 0
0 0 0
0 0 0
0 0 0
0 0 0
0 0 0
0 0 0
41 11 11
85 24 23
99 28 27
90 25 24
95 27 25
100 27 27
97 27 26
101 29 27
99 27 26
99 28 27
113 31 30
103 28 28
109 31 29
110 31 30
110 30 30
115 32 31
114 31 30
117 32 31
121 34 33
116 32 31
116 32 31
114 32 30
115 32 31
125 34 33
125 35 34
128 36 34
126 35 34
128 36 34
132 37 35
133 36 35
136 36 35
135 36 35
128 34 33
133 36 35
126 35 34
133 35 34
131 34 34
133 35 35
128 34 33
132 35 35
138 37 36
124 33 32
125 33 32
123 32 32
129 35 34
119 32 31
118 31 30
121 32 31
114 31 30
118 32 31
116 46 45
106 89 88
115 96 94
119 98 96
118 96 95
113 91 87
113 94 93
120 99 97
117 100 98
119 103 101
115 103 100
120 101 99
117 99 96
121 102 101
123 102 101
120 103 102
123 100 99
114 103 100
122 104 101
126 111 110
126 106 105
122 106 103
133 118 115
133 118 116
128 116 114
127 111 109
126 114 112
121 110 108
131 119 117
136 118 116
130 113 112
132 114 113
130 120 118
130 122 119
132 121 118
138 127 126
147 140 137
137 127 124
124 110 109
141 131 128
129 119 115
129 119 115
139 128 126
136 130 127
138 131 129
140 131 129
138 132 130
146 137 134
129 126 122
145 133 131
139 133 128
138 135 131
134 129 126
139 130 127
141 139 135
135 131 128
140 135 131
147 138 135
133 129 126
140 136 133
144 141 137
145 136 134
137 136 132
147 147 142
143 142 138
141 139 135
136 133 128
152 151 146
150 142 138
143 143 138
140 138 132
145 143 138
135 138 132
143 141 136
149 143 139
139 142 136
138 139 134
145 143 137
134 137 131
138 138 133
136 136 130
142 143 139
140 139 136
132 135 129
136 138 132
148 145 141
136 139 133
134 134 130
133 133 127
132 137 129
132 135 128
134 137 131
137 136 133
134 135 129
133 136 129
134 135 130
128 131 125
132 131 124
133 135 130
130 133 125
128 129 123
129 131 125
131 131 125
127 132 124
133 137 130
125 130 123
129 135 128
127 131 125
119 121 115
118 121 115
119 128 118
118 122 113
124 130 123
113 118 109
122 125 118
114 121 111
122 124 116
116 126 116
120 127 117
113 120 111
115 123 113
110 118 107
116 122 114
115 123 114
115 121 113
116 127 115
112 122 110
106 114 104
101 112 101
107 115 105
108 121 106
111 115 105
109 118 108
99 109 97
103 110 99
105 114 104
99 108 98
106 114 101
105 113 103
101 110 98
99 108 96
96 105 92
94 107 93
96 107 94
90 105 89
45 85 47
47 92 51
49 99 53
51 100 56
56 104 58
48 92 51
53 101 56
52 104 57
57 112 62
57 107 60
56 107 60
59 109 61
56 108 61
56 107 60
55 106 60
60 112 64
56 106 60
56 109 61
58 109 61
62 117 66
59 110 62
56 108 61
59 110 62
58 107 61
58 108 61
54 104 58
55 104 59
57 107 61
55 104 59
55 101 57
53 99 56
53 100 56
51 95 54
52 96 54
50 96 54
48 89 50
47 87 49
50 92 52
47 89 50
52 95 54
46 87 48
47 85 49
41 77 44
47 87 50
41 77 43
45 86 48
40 74 42
42 73 41
39 74 42
35 63 36
0 0 0
0 0 0
0 0 0
0 0 0
0 0 0
0 0 0
0 0 0
0 0 0
0 0 0
0 0 0
0 0 0
41 11 11
95 26 25
94 27 25
89 25 24
101 28 27
97 26 25
97 28 26
97 27 26
102 29 27
106 30 29
105 30 28
108 30 29
103 29 28
115 32 31
112 31 30
108 30 29
113 31 30
116 32 31
106 30 29
115 32 31
114 31 30
122 34 33
123 34 33
129 35 34
118 32 32
124 35 33
126 35 34
127 35 34
133 36 35
135 36 35
126 35 34
128 35 34
123 33 32
127 34 33
139 37 37
132 36 35
134 35 34
132 36 35
132 35 34
134 35 35
126 34 33
131 35 34
126 34 33
128 34 33
119 32 31
124 33 32
121 32 31
117 32 31
120 33 32
109 29 28
110 47 45
110 89 86
116 90 89
108 96 92
120 102 101
119 100 98
114 95 93
114 95 94
118 101 99
120 98 94
115 98 97
124 100 98
122 103 100
129 103 101
112 100 97
120 104 101
125 108 107
130 114 114
122 107 106
119 103 100
121 106 103
132 114 113
129 112 110
129 115 112
128 110 109
127 112 110
127 117 114
131 117 114
125 113 110
133 120 118
131 116 115
130 115 113
132 116 113
132 118 115
138 128 126
132 118 116
130 119 117
135 122 119
137 128 126
136 121 120
136 128 125
140 134 132
136 128 124
133 126 123
140 134 131
132 121 120
137 131 127
137 128 125
142 134 131
140 134 132
144 136 133
135 129 125
138 134 131
145 139 136
134 127 123
135 132 127
143 142 137
136 133 129
142 141 137
145 146 141
151 145 142
138 138 134
143 139 134
138 135 132
145 141 136
143 138 134
140 138 134
138 139 134
146 146 142
144 143 138
135 136 130
139 138 134
140 140 136
137 137 132
137 132 128
140 142 135
134 137 131
140 136 132
140 138 133
140 142 136
133 134 129
151 153 147
146 148 142
141 138 135
136 136 131
131 135 129
135 136 130
137 138 132
132 137 131
131 132 126
132 137 129
131 131 124
142 143 137
138 136 131
139 142 137
139 139 134
135 135 129
129 134 127
138 142 135
131 139 128
128 136 127
120 124 116
122 129 119
129 131 124
127 132 125
137 141 133
129 134 127
122 128 120
121 128 119
129 139 128
120 127 118
129 130 123
127 129 123
127 131 123
125 130 123
121 123 114
113 121 110
117 125 116
115 118 110
118 123 113
118 123 114
114 121 111
120 125 117
111 119 110
118 125 117
113 118 110
111 120 109
109 117 107
109 116 107
106 112 102
109 120 108
101 111 101
110 119 107
109 117 108
105 115 103
107 114 104
110 118 107
98 108 98
102 114 101
106 117 105
103 111 100
98 109 97
93 103 91
100 109 97
90 101 89
43 87 48
46 90 50
49 95 53
51 98 54
54 103 57
51 99 55
52 101 56
52 102 57
56 109 61
58 109 62
57 107 60
60 112 64
57 108 61
61 118 66
58 109 61
59 111 63
58 109 62
58 110 62
57 107 60
57 104 59
56 108 61
55 105 59
57 107 61
55 105 59
56 105 60
59 108 62
51 95 54
58 107 61
52 99 56
49 94 52
55 102 57
51 97 55
53 100 57
52 96 54
51 95 54
48 88 50
49 90 51
49 92 52
50 94 54
46 88 49
47 90 51
46 85 48
44 80 45
45 86 48
46 85 48
42 74 42
42 76 43
42 79 45
43 78 45
36 67 38
0 0 0
0 0 0
0 0 0
0 0 0
0 0 0
0 0 0
0 0 0
0 0 0
0 0 0
0 0 0
0 0 0
41 11 11
92 26 25
98 26 25
87 25 23
92 26 25
100 28 26
98 27 26
103 28 27
102 29 27
104 29 28
106 30 29
103 29 27
109 30 29
109 30 30
107 29 28
118 32 31
115 32 31
116 32 31
120 34 33
114 32 30
114 31 30
116 32 31
122 34 33
126 34 34
127 35 34
123 34 33
128 35 34
128 35 34
124 33 32
129 35 34
127 35 34
138 37 36
129 35 34
126 33 33
128 35 34
136 37 36
131 35 34
133 36 35
127 33 33
134 36 35
130 34 34
125 34 33
129 34 33
125 33 33
120 33 32
120 32 31
115 31 30
117 31 30
114 31 29
117 31 29
112 54 53
105 90 89
116 93 92
121 94 92
107 88 86
119 101 97
118 97 96
117 98 95
118 95 95
125 103 102
124 101 98
116 98 95
119 101 98
127 107 106
120 105 104
115 104 101
125 102 100
125 100 99
127 111 109
121 104 101
125 110 108
126 113 109
121 109 106
119 110 106
129 111 109
128 111 108
131 116 111
127 114 111
130 120 116
127 113 112
132 116 115
127 122 119
130 120 116
133 120 117
129 117 114
133 123 120
129 125 121
137 126 123
136 126 122
129 123 120
131 123 119
142 132 130
139 125 123
134 129 125
138 130 126
146 136 134
133 127 124
137 128 126
135 129 125
141 133 130
145 141 138
132 126 123
140 131 128
132 128 124
146 137 134
141 133 131
132 130 126
138 134 131
137 136 132
144 137 134
142 141 136
140 136 133
144 141 135
140 134 131
136 137 132
139 137 133
148 145 141
145 143 139
147 148 143
142 141 137
142 137 134
140 137 133
152 147 143
139 138 132
147 146 141
148 148 144
146 146 141
144 143 138
141 138 135
133 136 131
150 149 143
137 140 134
140 139 135
135 139 134
136 142 134
134 135 129
139 139 132
133 132 126
136 133 129
136 140 134
132 136 129
132 135 128
137 141 135
138 137 131
134 140 133
132 133 128
127 130 123
126 132 124
131 133 127
138 144 137
127 134 126
135 141 134
129 131 125
123 127 120
126 128 122
119 127 119
129 132 125
120 127 117
120 124 116
124 130 121
131 137 129
121 128 118
120 124 116
127 131 123
124 130 121
125 127 121
121 125 117
116 125 113
117 122 114
116 122 113
125 131 121
112 119 111
109 115 106
112 120 109
111 120 109
114 121 114
110 119 108
107 118 107
110 115 107
112 121 109
116 123 112
107 118 106
107 110 102
110 113 105
103 109 101
107 114 104
106 114 104
96 106 95
99 112 98
99 111 97
106 114 106
102 114 102
95 104 93
97 108 96
94 106 92
47 90 50
48 92 51
52 100 56
52 101 55
52 101 56
54 103 57
50 97 54
54 103 58
57 109 61
54 100 57
54 102 57
60 113 64
57 107 61
57 110 62
60 112 63
64 121 68
60 111 63
57 110 62
60 114 64
58 108 62
57 110 62
59 113 64
57 109 61
57 109 62
54 104 58
53 101 57
55 104 59
57 105 59
57 105 60
53 99 57
54 100 57
50 94 53
52 98 55
51 95 54
47 89 50
47 90 51
46 88 50
47 85 48
48 90 51
47 85 48
44 83 47
45 81 46
44 78 44
42 79 45
44 79 45
42 78 44
45 83 47
42 78 44
40 76 43
36 66 37
0 0 0
0 0 0
0 0 0
0 0 0
0 0 0
0 0 0
0 0 0
0 0 0
0 0 0
0 0 0
0 0 0
38 9 9
91 25 24
99 28 27
101 28 27
96 27 26
98 27 26
99 27 26
99 27 26
101 28 27
103 28 27
107 29 29
107 29 28
106 29 28
109 30 29
112 32 30
118 32 31
117 31 30
109 30 29
116 32 31
120 33 32
115 32 31
124 34 33
125 35 33
122 33 33
135 38 36
126 34 33
126 33 33
135 38 36
124 34 33
129 35 34
134 36 36
130 36 35
130 34 34
129 35 34
135 36 35
130 35 34
128 34 34
126 33 33
127 35 33
128 33 33
127 33 32
129 34 34
130 34 34
129 33 33
122 33 32
117 32 30
123 33 32
120 33 31
118 32 31
116 31 30
115 40 39
111 88 88
112 92 91
117 93 92
117 93 90
118 98 96
117 100 98
117 101 99
115 96 94
113 95 93
116 99 97
111 95 93
115 97 96
130 110 108
124 105 104
122 101 99
112 104 100
122 111 108
127 109 107
122 107 105
120 108 107
127 110 108
125 107 106
130 116 114
125 112 109
138 121 120
119 109 106
129 118 115
134 118 117
131 119 116
131 118 115
131 120 117
136 118 116
138 124 120
135 123 119
127 117 114
131 125 120
133 124 120
143 134 132
142 135 132
145 135 134
144 132 130
139 129 128
131 124 119
138 130 126
138 129 127
132 125 122
140 136 132
134 128 125
139 131 127
146 138 136
144 140 138
135 126 123
140 134 131
133 127 124
150 149 145
133 128 123
135 131 128
143 134 131
136 135 129
140 137 134
142 134 131
135 135 129
142 142 137
146 145 140
138 133 131
140 136 132
144 139 135
134 135 129
142 138 134
139 139 135
136 136 131
151 148 144
144 144 138
138 137 131
144 144 139
142 144 139
138 140 135
139 139 136
140 140 135
141 142 137
148 149 144
146 150 143
146 149 144
136 139 133
136 135 131
143 145 139
136 134 129
135 140 133
139 140 134
136 139 133
138 138 132
132 135 128
127 133 124
130 134 127
125 133 125
131 131 126
140 141 137
125 132 123
129 134 127
134 136 130
133 138 129
131 137 129
130 135 128
124 131 122
131 130 125
125 130 123
123 127 121
126 129 123
124 131 122
118 122 114
125 129 123
123 129 121
114 124 113
123 128 120
123 129 121
117 118 110
115 126 114
113 123 113
120 127 117
119 123 116
118 121 114
109 112 104
113 121 111
114 125 113
109 118 107
124 129 121
108 119 106
110 120 109
111 115 109
109 115 104
105 116 104
105 113 103
103 110 100
105 113 103
106 114 104
107 122 107
109 117 107
105 113 101
98 110 96
92 105 91
105 108 99
98 111 98
102 115 101
98 110 97
49 92 51
48 92 51
51 98 55
50 98 54
51 97 54
51 98 54
51 98 55
56 108 61
52 102 56
60 114 65
58 109 61
59 114 64
58 111 62
56 106 60
58 109 62
56 106 61
60 113 64
60 116 65
59 113 64
57 110 62
58 110 62
60 112 63
61 115 65
56 107 61
57 109 62
57 105 60
54 100 57
53 99 56
53 98 56
51 95 54
53 99 56
52 99 56
52 97 55
49 91 52
46 87 49
48 92 51
50 90 51
46 85 48
47 88 50
51 92 52
44 83 47
47 86 49
46 84 48
44 81 45
44 82 46
46 85 49
42 80 45
38 72 40
41 78 44
33 61 34
0 0 0
0 0 0
0 0 0
0 0 0
0 0 0
0 0 0
0 0 0
0 0 0
0 0 0
0 0 0
0 0 0
38 10 10
89 24 23
92 26 25
96 27 26
93 26 25
94 26 25
97 27 26
102 27 27
103 30 28
98 27 26
101 28 27
107 29 28
109 30 29
103 27 27
105 29 28
103 28 27
114 31 30
117 33 32
110 30 29
122 34 33
116 32 31
119 32 31
126 34 34
123 34 33
123 34 33
120 32 32
125 35 34
121 32 32
123 33 32
134 36 35
136 37 36
136 38 36
124 33 32
129 34 33
133 36 36
131 35 34
132 35 34
137 37 36
133 35 34
130 34 33
129 34 33
124 32 32
126 35 34
131 34 34
118 32 31
121 32 31
113 31 30
119 33 31
117 32 31
113 30 29
115 42 41
112 92 91
118 95 94
119 92 91
117 94 92
122 96 95
119 103 101
118 98 97
121 100 97
118 102 101
119 99 96
130 108 106
124 106 103
121 96 95
120 108 107
126 110 108
126 110 109
119 105 102
122 109 105
127 111 109
129 109 107
124 105 103
126 108 107
127 112 110
127 111 109
131 119 118
126 111 109
129 114 112
127 114 113
126 114 111
122 111 108
130 116 114
130 121 118
136 121 119
134 127 124
136 123 121
137 126 123
131 120 117
139 132 129
140 132 129
132 126 123
127 122 118
137 127 125
135 129 126
146 135 134
131 124 120
147 141 138
134 127 124
135 132 130
136 131 126
139 132 127
134 129 125
139 135 132
138 134 129
146 138 135
140 137 133
136 131 127
143 141 136
142 140 135
143 137 133
140 139 134
144 142 138
142 135 131
141 140 136
143 139 136
137 131 128
146 144 141
146 142 139
137 135 131
141 140 137
142 142 137
145 147 141
144 142 138
148 150 144
134 134 128
136 136 132
138 137 131
138 139 133
138 142 136
140 141 136
136 140 133
138 138 133
147 145 141
132 131 127
143 145 139
142 146 139
140 141 136
131 134 126
140 141 136
141 139 134
134 138 131
137 138 132
137 142 135
129 131 125
130 131 125
132 135 128
129 136 127
133 141 133
132 138 131
137 137 132
129 132 126
133 139 131
126 133 124
131 134 128
131 136 129
123 127 119
126 133 124
128 129 124
128 132 126
128 132 125
126 130 122
117 123 113
127 132 124
121 126 117
121 126 118
121 123 114
116 123 114
120 129 118
116 122 114
119 125 117
115 123 113
118 124 115
118 118 113
116 123 113
114 126 113
116 123 113
114 125 112
112 122 111
111 121 110
103 112 101
104 111 101
113 120 112
112 119 110
105 117 103
108 114 105
101 112 100
97 111 97
102 111 101
109 116 107
107 118 105
101 111 99
99 110 98
95 106 93
97 108 97
92 106 92
46 90 49
48 93 52
51 100 55
52 99 55
51 97 54
54 104 58
53 102 57
57 108 60
54 102 58
58 109 61
54 104 58
57 106 60
57 108 61
60 115 65
60 117 66
57 111 62
59 113 64
60 113 64
60 115 65
57 110 62
57 105 60
57 108 61
55 104 59
57 109 61
56 105 59
55 103 58
53 99 56
54 102 58
54 103 58
55 103 59
55 103 59
50 96 53
51 94 53
47 90 51
50 94 53
48 90 51
47 87 49
49 92 52
49 90 51
45 84 48
44 82 46
46 84 48
45 81 46
46 82 47
44 83 47
45 84 48
42 78 44
39 74 42
39 72 41
38 69 39
0 0 0
0 0 0
0 0 0
0 0 0
0 0 0
0 0 0
0 0 0
0 0 0
0 0 0
0 0 0
0 0 0
54 15 15
87 25 24
90 25 24
89 26 24
94 26 25
95 27 26
94 27 26
97 27 25
102 29 28
96 27 26
110 30 29
108 31 29
109 31 30
98 27 26
108 29 28
108 29 28
106 30 29
120 32 32
114 31 30
118 32 32
118 32 31
122 33 32
119 33 32
124 34 33
122 34 33
129 36 34
122 33 32
120 33 32
129 35 34
134 37 36
127 35 33
133 35 35
132 35 34
135 36 36
132 35 34
131 35 34
128 34 33
136 36 35
125 33 32
133 36 35
124 33 32
130 35 34
133 34 34
123 33 32
124 33 32
120 33 32
118 31 31
122 33 32
117 31 30
114 30 29
112 42 41
111 85 83
113 92 90
119 99 97
120 95 94
116 93 91
115 97 95
113 95 91
116 99 96
123 103 102
116 99 97
123 102 101
120 98 97
125 110 109
124 105 103
123 111 109
115 97 96
120 101 100
127 107 106
123 113 110
127 109 107
123 110 108
127 113 110
126 111 110
125 113 109
125 117 113
140 120 119
134 125 121
133 120 115
131 115 113
131 116 114
131 117 115
133 120 117
138 128 125
129 116 114
137 127 124
132 121 117
138 119 118
133 125 122
135 126 124
139 127 125
139 128 126
135 126 123
140 127 122
132 125 122
138 128 125
130 127 122
132 128 124
141 134 130
129 126 121
138 134 130
132 127 124
138 131 129
141 135 133
139 136 132
134 124 120
136 133 128
138 137 132
142 143 137
146 143 140
138 134 130
139 134 130
138 136 131
134 132 128
139 137 134
139 136 131
152 148 144
140 138 133
134 133 129
142 138 134
144 141 136
142 143 139
141 144 139
131 131 126
146 150 144
139 142 136
138 135 130
144 146 140
138 136 132
140 143 136
141 142 134
144 144 139
139 137 133
135 140 133
135 132 127
133 136 129
140 141 135
134 135 127
137 136 130
135 139 131
142 140 134
136 142 134
142 143 137
131 137 128
129 135 128
138 140 134
137 139 134
131 137 129
126 130 124
128 131 125
133 133 128
145 146 140
123 131 122
130 132 126
135 135 129
124 131 122
129 130 123
128 135 128
125 133 123
119 129 119
128 132 125
123 127 121
123 129 122
120 128 117
118 127 116
120 122 114
115 122 113
119 125 115
117 122 114
123 130 121
112 120 111
112 124 112
119 123 115
110 120 107
105 117 104
117 123 112
113 119 109
111 119 109
113 120 109
111 123 111
111 116 109
111 118 109
106 114 104
113 122 110
105 115 103
109 114 106
104 113 104
106 116 105
107 116 104
102 112 101
102 113 101
104 111 99
101 113 100
95 108 95
92 107 91
47 94 52
47 89 49
49 92 51
54 102 57
54 105 59
52 100 56
53 103 57
56 109 61
54 106 59
56 107 60
57 107 61
57 109 61
59 113 64
58 108 61
58 110 62
57 110 62
58 109 61
58 112 63
59 110 62
57 106 60
59 112 64
57 106 60
58 107 61
59 109 62
60 111 63
57 103 59
57 104 59
53 101 57
56 105 59
54 100 57
52 98 55
54 103 59
51 95 54
47 90 51
53 99 56
49 93 53
48 89 50
48 90 51
49 91 51
52 91 52
47 87 49
48 89 50
48 88 50
42 79 45
46 84 47
43 78 44
43 81 46
43 80 46
41 75 42
35 64 36
0 0 0
0 0 0
0 0 0
0 0 0
0 0 0
0 0 0
0 0 0
0 0 0
0 0 0
0 0 0
0 0 0
39 11 10
82 23 22
99 27 26
94 26 25
101 28 27
99 28 27
95 27 26
93 26 25
101 29 27
106 30 28
102 28 27
105 29 28
110 31 30
109 31 29
109 30 29
115 32 31
116 33 31
118 33 31
114 32 31
121 33 32
118 33 32
120 33 32
119 32 32
123 33 33
125 34 34
124 34 33
128 35 34
139 38 37
134 37 36
132 35 35
129 35 34
131 35 34
137 36 35
136 37 36
142 37 36
132 35 35
133 35 34
131 34 33
125 33 32
126 34 33
130 35 34
130 34 33
118 31 31
127 34 33
126 33 33
123 33 32
120 33 31
116 30 29
118 32 31
119 30 29
113 45 43
117 92 90
113 94 93
119 99 96
122 95 94
121 101 99
118 102 100
119 100 97
114 100 97
120 108 104
117 103 99
125 102 99
117 102 100
116 100 96
128 109 107
124 105 102
118 102 99
124 105 103
125 106 105
121 105 102
120 104 102
128 113 110
131 117 115
125 107 105
123 114 111
128 120 117
120 106 104
122 114 111
132 118 117
135 127 124
131 120 117
130 115 112
133 123 120
128 118 113
127 113 111
138 122 119
132 121 120
135 124 121
132 127 122
133 125 122
131 117 115
130 124 120
134 126 121
144 133 131
131 126 122
135 127 123
137 128 124
139 131 128
134 131 128
142 132 130
138 131 128
131 122 119
143 140 137
141 132 129
134 130 127
136 131 129
140 137 132
143 135 130
139 136 132
147 143 140
147 140 137
139 137 131
138 140 133
132 130 124
147 145 141
142 140 137
137 138 134
141 141 134
136 136 132
139 140 135
135 134 128
140 145 137
142 139 135
138 134 130
145 143 139
137 135 132
138 135 130
142 140 137
146 144 140
147 146 143
138 137 133
133 135 128
137 139 132
139 139 134
138 136 130
139 141 135
142 146 139
134 134 127
137 140 133
133 136 129
140 143 137
131 134 127
138 138 134
142 143 140
131 134 128
134 136 131
133 136 130
138 143 135
131 136 129
130 134 127
130 133 125
134 139 129
132 133 128
121 129 120
126 130 124
126 128 120
131 136 129
122 126 118
128 133 126
133 137 129
127 131 124
123 125 120
123 129 120
122 124 118
117 123 115
121 125 116
115 122 113
114 119 110
118 125 117
119 127 116
119 127 116
115 125 114
122 124 116
113 120 112
110 123 110
110 123 110
112 120 111
112 116 107
107 118 104
117 126 115
110 121 109
110 118 108
106 113 104
112 120 111
101 114 98
104 113 102
110 123 109
103 115 101
106 112 100
99 108 95
103 110 99
95 109 95
98 112 98
97 107 95
98 111 96
47 93 51
48 90 50
50 95 53
51 98 55
53 101 56
52 100 56
53 101 57
56 107 60
52 100 56
54 104 58
56 106 60
57 110 62
56 107 61
58 111 62
61 112 63
61 118 67
55 102 58
60 113 64
59 111 62
53 101 57
54 104 59
59 109 62
56 105 59
55 104 59
56 104 59
54 103 58
55 106 60
55 103 59
53 98 56
52 99 56
55 101 58
50 93 53
49 92 52
50 95 54
52 96 54
49 91 52
50 93 53
47 89 50
48 89 50
49 88 50
45 85 48
45 84 48
43 80 45
45 86 48
44 82 47
44 84 47
43 78 45
44 81 45
43 78 44
37 68 39
0 0 0
0 0 0
0 0 0
0 0 0
0 0 0
0 0 0
0 0 0
0 0 0
0 0 0
0 0 0
0 0 0
52 15 14
100 28 27
98 26 25
92 25 25
103 29 28
98 27 26
100 27 27
100 28 27
100 27 27
104 27 27
110 29 28
109 30 29
109 31 30
109 30 29
116 33 31
109 31 29
120 33 31
112 31 30
118 32 31
117 32 31
121 35 33
123 34 33
120 33 32
128 35 34
123 35 33
132 36 35
129 36 35
122 34 33
128 35 34
125 35 33
129 35 34
127 33 32
133 35 34
126 34 33
132 35 35
125 33 32
132 35 34
126 34 33
132 34 34
133 35 34
126 33 33
125 34 33
128 34 33
123 32 31
119 32 31
123 33 32
115 31 30
117 31 30
119 32 31
118 32 30
111 45 44
116 88 88
112 89 87
122 100 100
112 92 91
112 93 92
125 101 99
112 93 92
119 101 99
112 96 94
116 99 95
118 95 94
121 99 98
114 97 93
126 109 107
121 108 106
122 108 104
122 102 101
121 103 100
127 107 106
129 110 108
127 117 113
130 116 115
130 115 112
123 106 104
125 109 108
129 113 111
135 120 118
130 113 111
138 124 121
130 119 116
135 120 119
127 116 114
132 118 115
130 117 115
134 130 125
130 114 112
138 126 122
136 124 122
138 130 127
133 121 120
134 126 123
132 124 120
134 127 124
135 128 123
141 135 132
137 125 122
129 122 120
140 131 127
134 131 127
140 139 134
134 121 118
135 133 129
136 130 127
139 134 129
141 137 134
143 140 137
142 135 132
133 131 127
135 135 130
141 139 135
137 132 128
140 139 134
139 139 135
139 137 133
140 133 130
132 129 124
142 139 134
143 147 141
140 140 135
141 139 134
141 139 136
131 129 124
138 139 132
135 140 133
139 139 134
138 140 134
144 146 139
135 137 131
137 136 133
137 142 135
137 137 131
144 145 140
134 135 130
140 141 135
140 141 136
136 138 132
137 140 133
141 142 137
145 144 138
136 143 134
136 138 133
130 135 128
139 142 136
134 140 132
136 139 133
131 133 127
130 135 128
134 137 130
133 138 130
117 127 117
128 134 126
130 135 127
123 132 123
126 131 122
122 129 120
124 129 121
131 134 128
124 130 121
128 134 126
122 125 117
120 125 117
128 134 125
120 127 119
123 129 119
116 122 113
117 123 113
119 130 120
112 122 111
112 121 111
124 125 120
122 123 115
111 122 109
108 118 106
117 125 114
112 119 110
107 119 106
117 122 114
112 120 110
112 117 108
112 121 110
109 117 107
111 120 110
102 110 100
103 116 103
109 120 107
111 117 107
99 113 99
106 110 102
108 116 107
103 115 101
96 111 96
101 115 100
102 111 99
98 107 94
50 98 54
49 96 53
50 98 54
49 95 52
50 97 54
54 103 58
55 106 59
59 111 62
51 99 55
56 105 59
57 112 63
55 108 61
59 112 63
58 112 63
56 107 60
56 108 61
57 108 61
60 112 63
57 110 62
60 113 64
57 107 61
58 110 62
58 112 63
59 113 64
54 100 57
54 99 56
53 103 58
54 100 57
53 101 57
54 100 57
52 98 55
53 98 56
50 95 53
49 94 53
49 89 51
50 92 52
48 90 51
47 89 51
47 89 51
46 85 47
49 88 50
47 88 50
44 82 46
45 83 47
44 79 45
44 80 46
41 74 42
45 84 48
43 78 44
38 65 37
0 0 0
0 0 0
0 0 0
0 0 0
0 0 0
0 0 0
0 0 0
0 0 0
0 0 0
0 0 0
0 0 0
35 9 9
95 27 26
93 27 25
99 27 26
94 27 25
95 27 25
103 29 28
110 30 29
113 32 31
101 28 27
100 28 27
108 31 29
102 28 27
106 29 29
116 32 31
110 30 30
118 33 32
114 32 31
113 31 30
115 32 31
120 33 32
126 34 33
123 34 33
123 33 32
121 33 32
121 33 32
127 35 34
125 34 33
127 34 33
122 33 32
130 35 34
129 34 34
130 35 34
127 34 33
134 35 34
130 33 33
127 33 32
130 33 33
122 32 31
123 33 32
125 33 32
122 33 31
129 34 33
124 33 32
121 33 32
123 32 32
123 33 32
123 33 32
119 32 31
113 30 29
111 45 43
116 97 95
110 94 92
120 98 95
117 95 94
117 100 98
118 101 98
120 104 103
110 95 94
116 97 94
117 100 98
121 98 97
122 102 99
125 107 105
118 104 102
117 101 100
118 103 101
120 106 104
124 107 104
122 110 107
122 106 102
127 110 108
127 111 110
125 109 108
136 118 117
135 125 124
129 120 118
136 125 123
131 121 119
132 124 120
146 129 128
141 127 124
138 125 122
134 122 119
135 121 119
133 127 124
135 126 123
137 128 126
136 125 123
140 129 127
134 122 119
133 120 117
136 131 127
135 129 126
132 123 119
140 131 128
139 131 128
135 129 127
139 138 132
135 133 128
134 130 125
137 132 130
136 130 127
147 140 139
152 144 142
141 135 132
140 135 132
142 137 134
137 131 128
138 133 131
133 128 125
136 133 129
145 143 138
138 134 129
141 136 131
147 147 143
138 140 134
138 137 133
142 139 135
137 134 129
130 125 121
139 140 134
147 147 143
143 139 134
142 142 137
137 137 133
137 138 133
139 141 133
142 140 134
135 137 132
145 148 140
136 138 131
135 137 131
132 138 130
136 137 131
135 139 133
137 137 132
130 129 124
140 140 135
135 136 131
140 143 137
133 137 131
133 136 129
131 134 127
131 131 125
133 136 129
126 131 122
132 139 131
130 130 125
132 134 128
125 132 124
141 147 139
133 139 131
122 129 121
128 132 124
123 127 121
126 132 121
125 131 122
125 126 121
132 136 129
126 132 123
121 125 117
124 131 123
132 141 131
119 128 118
121 124 115
117 124 114
114 119 110
116 121 113
111 116 108
116 125 115
115 126 115
114 123 112
116 123 114
113 120 111
113 118 108
110 120 109
110 122 109
114 124 113
110 117 106
107 118 106
115 119 110
108 113 104
109 117 106
117 124 114
100 109 100
104 115 103
104 112 100
101 111 101
107 118 106
104 113 103
101 111 99
99 108 97
104 115 103
88 101 87
47 93 50
49 93 52
50 97 53
51 101 55
54 103 57
52 100 56
54 101 57
54 105 59
55 105 59
54 104 58
57 108 60
56 108 60
57 107 61
56 106 60
58 112 63
59 112 63
60 114 64
58 110 62
56 109 61
58 110 62
61 113 64
55 105 59
58 109 62
58 107 61
58 109 62
58 110 62
55 104 59
57 107 61
52 99 56
53 99 56
52 99 56
53 98 56
53 99 56
54 101 57
51 96 54
50 95 53
49 89 51
44 85 48
46 86 48
47 91 51
48 90 51
45 85 48
44 82 47
45 82 46
43 81 46
40 76 43
41 76 43
41 77 44
39 72 41
37 68 39
0 0 0
0 0 0
0 0 0
0 0 0
0 0 0
0 0 0
0 0 0
0 0 0
0 0 0
0 0 0
0 0 0
43 12 11
89 25 24
93 26 25
97 27 26
91 25 24
98 28 27
106 29 28
108 30 29
104 29 28
104 29 28
100 28 27
105 30 28
107 30 29
103 29 28
109 30 29
115 32 31
114 31 30
111 31 30
120 34 32
112 31 30
127 34 33
116 32 31
121 33 32
120 33 32
120 33 32
129 36 35
128 34 33
137 36 35
128 35 34
132 36 35
125 34 33
136 37 36
123 32 31
134 35 34
124 33 32
140 37 36
131 34 34
126 33 33
124 33 32
125 33 32
129 34 33
131 34 34
126 34 33
125 33 32
125 34 33
119 31 30
120 32 31
118 32 31
117 31 30
113 29 29
114 48 47
111 98 96
114 96 93
116 93 91
115 91 90
117 96 95
121 102 101
118 97 95
121 104 101
119 104 101
122 96 94
124 102 100
119 103 100
122 98 97
119 99 97
119 106 103
121 105 101
119 101 100
123 111 109
126 106 104
119 107 103
114 97 95
105 77 75
97 44 44
146 138 136
150 147 146
156 151 150
157 151 149
159 155 154
174 171 170
175 171 170
161 158 157
175 171 170
167 163 162
166 163 161
171 170 168
173 171 169
167 162 161
176 175 173
180 174 173
173 172 171
166 166 164
185 183 182
181 178 176
178 177 176
175 174 172
189 188 186
174 171 170
192 192 190
193 191 190
186 184 182
186 185 183
182 180 178
178 176 174
183 182 181
195 194 193
173 173 171
185 182 180
171 170 167
170 171 168
179 177 175
177 178 175
179 177 175
182 182 178
181 181 178
193 193 191
173 176 172
171 172 169
183 183 181
174 174 171
182 182 180
172 170 166
189 190 187
167 166 164
177 179 175
185 186 183
164 164 160
135 138 133
142 143 139
136 137 131
143 142 137
140 142 137
140 138 134
136 139 133
137 140 133
137 142 135
136 135 131
135 140 133
133 132 127
133 136 132
142 140 136
127 133 124
133 136 129
138 140 134
129 133 126
131 132 126
131 137 129
127 132 123
130 130 126
135 140 133
132 134 126
135 139 132
130 134 127
130 134 126
128 131 125
127 135 126
129 134 124
126 129 121
120 126 118
126 133 125
117 124 116
124 130 123
120 126 118
116 124 114
122 133 121
114 122 114
123 132 122
119 125 117
127 133 124
117 127 116
117 125 113
117 123 114
119 124 116
113 120 112
108 117 107
112 123 110
112 125 112
111 122 111
112 123 112
111 121 111
107 120 107
104 115 102
102 111 99
106 118 106
103 112 100
115 123 113
107 117 105
104 119 105
101 112 98
105 119 105
111 116 106
102 111 99
100 105 94
102 115 102
92 105 90
46 86 48
50 97 54
50 99 55
54 106 59
52 100 56
57 108 61
57 108 61
56 106 59
54 105 58
54 102 57
57 111 61
57 107 61
58 109 61
59 111 63
57 108 61
57 108 61
57 107 60
58 110 62
55 103 59
58 111 63
56 107 60
59 112 63
55 103 58
57 110 62
59 111 63
58 109 61
55 103 58
53 102 57
54 105 59
54 101 57
52 97 55
53 98 56
49 92 52
53 98 56
48 91 52
46 86 48
51 94 53
49 92 52
47 89 50
47 87 50
46 86 49
48 89 51
45 84 48
48 87 49
44 81 46
46 81 46
43 78 44
40 72 41
38 74 41
34 65 37
0 0 0
0 0 0
0 0 0
0 0 0
0 0 0
0 0 0
0 0 0
0 0 0
0 0 0
0 0 0
0 0 0
39 10 10
93 25 25
92 26 25
98 28 26
100 28 27
101 28 27
102 29 27
103 28 27
105 29 28
100 28 27
101 28 27
102 27 26
109 30 29
110 31 29
108 29 28
111 30 29
115 32 31
111 30 29
119 32 32
119 31 31
120 33 32
119 33 32
121 34 32
120 34 32
123 34 33
133 36 35
119 30 30
131 35 34
123 33 32
120 32 31
137 37 36
124 33 32
128 35 33
126 34 33
126 33 32
133 36 34
127 33 33
123 33 32
126 33 32
129 34 34
131 35 34
120 32 31
122 32 32
121 33 32
117 31 30
121 32 31
119 32 31
117 32 31
115 31 30
117 31 30
115 51 50
111 93 91
118 96 94
120 96 94
116 97 96
115 94 92
118 106 104
111 96 94
118 95 94
122 101 99
118 99 96
124 102 101
123 106 104
118 102 98
120 104 103
119 102 99
119 105 103
122 105 104
118 105 104
112 78 76
101 49 48
100 37 36
103 33 31
102 33 31
145 139 137
161 158 157
159 155 154
175 172 171
164 161 160
164 162 160
164 160 158
170 165 164
167 167 165
178 175 175
162 158 156
169 167 165
180 177 176
184 179 178
173 170 169
177 174 174
183 182 179
189 186 185
169 169 166
180 178 176
192 189 188
172 171 169
176 175 174
191 190 188
200 200 198
179 180 178
179 180 178
185 183 182
194 194 192
174 176 172
194 193 192
184 185 182
192 193 190
200 200 198
191 191 189
179 178 176
209 208 207
208 208 206
193 193 191
203 204 201
202 203 200
186 186 185
199 197 196
178 178 175
184 186 183
188 189 187
200 201 199
182 183 180
182 184 181
200 202 199
201 202 200
202 205 202
183 182 180
141 140 135
140 140 136
136 137 132
135 136 131
140 140 134
142 144 137
140 142 136
142 143 136
144 146 140
137 138 132
138 141 136
139 141 136
136 136 131
132 135 129
136 140 135
139 140 135
131 137 130
139 140 133
134 134 129
129 135 128
131 133 127
128 133 127
133 136 130
135 135 130
130 135 126
129 132 126
127 128 121
126 131 124
125 132 123
128 134 127
129 137 128
124 127 120
129 138 126
125 127 121
119 125 117
117 123 116
120 123 115
123 131 120
119 128 118
119 123 116
116 125 115
115 125 115
118 127 117
116 120 113
117 121 112
124 131 120
117 127 117
113 124 113
114 124 114
104 114 101
113 122 112
108 117 106
108 117 106
110 118 106
114 124 114
108 115 105
106 118 106
105 113 102
106 119 106
108 117 105
101 110 99
105 117 106
98 111 99
98 115 98
100 107 96
104 111 99
98 108 96
97 107 95
50 96 53
49 94 52
50 98 54
52 102 57
54 107 59
55 110 61
51 101 56
56 106 60
58 112 63
53 101 57
57 109 62
56 106 60
54 104 58
59 109 62
58 112 63
61 116 65
60 112 63
58 109 62
57 111 62
60 114 65
56 106 60
57 109 61
57 108 62
61 117 66
53 100 56
54 102 58
51 95 54
50 94 53
54 101 57
53 97 55
54 99 56
50 96 53
51 95 54
52 96 54
49 91 51
49 91 52
49 90 51
47 89 50
49 92 52
47 86 49
48 91 52
48 88 50
43 83 47
46 83 47
44 76 43
41 76 43
42 78 44
42 77 44
43 79 44
37 68 38
0 0 0
0 0 0
0 0 0
0 0 0
0 0 0
0 0 0
0 0 0
0 0 0
0 0 0
0 0 0
0 0 0
49 14 13
92 26 25
93 26 25
92 26 25
90 25 24
89 25 24
95 27 25
97 27 26
107 29 28
102 28 27
104 29 28
118 32 31
105 29 29
112 30 29
111 32 30
113 32 30
110 30 30
114 31 30
116 32 31
115 32 30
115 31 30
118 32 31
131 36 35
122 34 32
122 33 32
123 33 33
128 35 34
126 35 33
129 35 34
122 33 32
125 33 32
128 34 33
133 35 34
136 36 35
128 33 32
129 34 33
125 34 33
131 34 34
125 33 32
123 31 31
127 34 33
130 34 33
133 35 34
118 32 31
122 32 32
123 33 32
114 30 29
114 31 30
123 32 31
114 31 30
114 39 39
109 86 85
116 95 91
116 94 92
118 94 93
117 99 98
113 99 95
117 98 96
116 99 97
116 96 94
119 101 99
116 99 97
120 98 95
121 102 101
123 104 102
120 103 101
126 109 106
129 109 108
104 55 54
100 27 26
97 29 28
99 30 30
101 30 30
100 31 30
140 133 132
161 159 157
173 171 170
168 167 165
167 165 163
167 161 161
164 156 155
155 155 153
162 160 158
171 170 167
169 167 165
169 168 167
168 167 165
173 170 168
175 172 171
179 179 177
187 188 185
174 175 173
181 180 178
179 176 175
186 186 184
182 182 180
179 178 176
185 183 183
192 192 190
176 177 174
186 186 184
178 178 175
191 191 189
190 191 189
197 197 195
193 192 191
207 208 205
197 196 195
211 212 210
183 183 181
196 196 194
194 194 192
194 193 191
193 190 189
197 197 195
185 185 182
192 192 190
192 194 191
191 191 189
191 193 189
193 194 192
197 198 196
191 191 189
194 196 193
208 209 207
192 193 191
189 188 185
130 134 127
135 140 132
136 137 129
133 138 132
133 135 129
135 135 130
135 138 132
143 145 139
130 135 128
141 143 137
135 139 132
131 134 126
136 136 131
137 140 132
133 135 129
132 135 129
129 134 127
128 135 127
126 132 123
133 137 131
130 134 128
130 131 126
129 135 129
131 134 127
125 125 120
131 133 127
126 130 123
135 135 129
127 131 123
120 127 119
126 129 124
129 132 126
126 131 123
121 127 120
120 126 117
125 131 123
123 130 121
121 128 119
117 127 116
121 131 121
116 122 113
120 123 112
126 129 121
116 121 112
117 127 116
123 129 120
118 123 114
114 122 113
113 121 111
112 121 110
111 120 110
113 122 110
109 117 107
112 119 111
109 120 108
107 116 105
110 119 109
114 120 109
98 106 95
109 117 106
101 114 100
102 113 100
102 113 101
108 117 107
99 111 99
100 111 98
102 112 99
94 108 94
48 91 51
52 98 55
53 103 57
51 97 54
53 101 56
52 99 55
51 100 55
54 102 58
56 107 61
55 105 59
59 113 64
55 107 60
53 102 57
56 107 60
57 107 60
59 112 63
58 112 63
57 109 61
60 113 64
55 107 61
56 106 60
59 110 63
55 104 59
56 107 61
53 102 57
56 106 60
55 101 58
55 104 59
54 103 58
55 104 59
50 94 53
52 97 55
54 102 58
50 96 53
49 93 52
52 93 53
48 90 51
49 88 50
44 82 46
45 82 46
49 90 51
47 86 49
45 85 48
46 85 48
49 92 52
46 80 46
40 76 43
42 79 44
43 77 44
38 69 39
0 0 0
0 0 0
0 0 0
0 0 0
0 0 0
0 0 0
0 0 0
0 0 0
0 0 0
0 0 0
0 0 0
36 9 9
93 26 25
88 25 24
98 27 26
102 28 27
100 28 27
99 27 27
94 26 25
97 27 26
102 29 27
114 32 30
108 30 29
108 30 29
110 31 30
108 30 29
105 30 29
114 32 31
111 31 30
112 30 29
115 32 30
124 33 32
123 33 32
123 33 32
116 32 31
121 33 32
116 32 31
126 34 33
120 33 32
128 35 34
128 34 33
128 34 33
128 35 34
127 34 33
126 32 32
127 32 31
128 34 33
136 35 35
123 32 32
129 34 33
121 32 31
128 33 33
126 32 32
118 31 30
123 33 32
124 33 32
119 31 30
121 32 31
117 31 30
114 31 29
118 32 31
111 55 51
118 96 94
116 96 93
120 98 96
120 94 94
121 98 97
118 96 94
119 99 97
120 96 95
118 97 94
119 103 102
119 102 101
124 100 99
131 103 102
120 109 104
125 102 100
124 103 101
125 107 107
102 51 50
97 32 31
94 25 24
96 29 29
96 31 30
99 31 27
152 144 143
161 155 153
156 152 151
152 148 146
166 164 163
162 160 158
174 172 170
174 170 170
167 166 164
168 166 164
169 166 165
169 169 167
168 167 166
166 164 163
164 160 159
177 173 171
174 174 171
193 190 188
180 178 177
189 187 186
174 173 170
196 196 195
175 174 172
187 186 184
182 182 180
195 197 194
185 183 181
187 186 185
178 178 175
183 183 181
190 191 189
189 189 187
190 189 187
175 176 173
192 192 190
176 177 174
178 180 176
192 192 189
190 191 189
185 185 182
190 188 186
183 183 181
190 193 189
193 193 192
197 197 195
202 201 199
184 188 183
195 194 192
207 208 206
192 192 189
198 199 197
181 183 179
173 173 170
144 145 140
135 137 132
141 145 137
135 135 128
143 143 138
137 141 135
136 139 132
145 147 143
144 141 137
129 133 126
132 136 130
140 142 136
133 135 129
127 133 125
142 142 136
134 137 131
131 133 127
128 132 126
134 140 132
130 132 126
130 134 127
128 132 124
121 128 120
134 136 131
131 135 127
129 131 124
130 135 127
125 129 122
133 137 131
124 131 122
130 137 128
118 129 119
128 136 125
124 134 125
121 131 120
125 130 123
121 131 121
123 132 122
125 134 125
125 131 121
118 126 117
116 122 112
118 127 117
112 121 110
115 126 115
109 117 107
109 116 105
112 117 110
112 122 112
109 122 109
115 122 113
108 119 107
106 117 106
114 122 112
111 121 110
108 116 106
107 117 106
102 112 100
106 115 103
106 114 105
104 114 105
106 113 104
102 115 101
104 114 102
105 110 102
104 112 101
99 110 98
95 110 95
49 96 53
49 99 54
52 98 54
51 100 55
51 99 55
52 98 55
54 106 58
57 111 62
56 108 60
53 100 56
59 112 63
56 105 60
55 104 59
60 112 63
55 106 59
55 106 59
59 113 64
58 111 62
57 110 62
56 108 61
54 102 58
55 105 60
54 103 58
57 105 59
53 99 56
59 113 64
57 108 61
57 108 61
53 99 56
55 105 59
51 95 54
55 104 59
51 93 53
49 91 51
51 94 53
52 96 54
47 85 48
48 88 50
47 85 48
45 86 48
47 87 49
50 89 51
44 83 47
44 82 46
45 83 47
44 80 46
42 80 45
41 77 43
42 76 43
37 70 40
0 0 0
0 0 0
0 0 0
0 0 0
0 0 0
0 0 0
0 0 0
0 0 0
0 0 0
0 0 0
0 0 0
38 10 10
89 25 24
94 26 25
93 27 25
97 26 25
95 27 25
97 27 26
95 27 26
100 28 27
99 28 27
95 27 26
105 29 28
110 30 29
109 30 29
109 30 29
110 29 29
109 31 30
122 34 32
116 32 31
115 32 31
120 34 32
112 31 30
118 32 31
119 33 32
130 35 34
124 34 33
129 35 34
124 33 32
124 34 32
123 32 32
129 35 34
126 34 33
125 34 33
134 36 35
131 34 33
127 34 33
124 32 32
129 34 34
136 35 34
127 32 32
123 33 32
125 33 32
130 35 34
118 31 30
122 33 32
123 33 32
121 33 31
114 30 29
115 30 29
117 30 29
116 50 48
113 89 88
117 94 92
111 91 89
122 96 94
113 94 94
121 95 92
124 96 95
119 94 92
118 102 101
120 97 97
118 97 96
119 97 95
122 103 101
122 106 103
123 106 103
121 105 103
123 107 105
110 65 65
100 31 30
100 28 27
103 29 29
92 27 27
102 29 28
143 135 134
160 154 153
154 152 151
156 154 153
167 162 160
159 156 154
154 149 147
151 149 146
162 160 158
181 177 176
181 181 179
171 169 168
165 165 163
169 169 167
174 173 172
180 176 175
165 164 162
174 172 170
177 176 175
185 185 183
182 180 179
180 178 177
174 174 172
180 181 179
181 179 177
163 163 161
168 166 164
183 182 180
182 178 177
173 172 171
183 180 179
189 190 187
187 188 186
181 180 178
183 184 182
187 188 186
200 198 197
196 196 194
187 189 186
184 183 182
189 189 186
188 190 186
176 174 173
177 178 175
198 199 196
204 205 202
195 196 194
177 180 176
193 195 193
197 196 195
180 180 178
186 189 185
178 179 175
130 134 127
133 138 131
134 134 128
134 137 132
138 136 132
136 138 133
141 144 137
140 141 137
132 134 127
142 142 136
138 140 135
138 141 135
137 139 134
133 139 132
133 136 129
139 142 135
128 132 123
135 135 129
134 139 132
130 135 127
140 141 135
139 144 137
130 138 129
130 134 127
132 138 129
128 134 126
127 130 123
132 135 128
130 136 127
132 134 128
122 129 119
123 129 120
123 127 119
128 133 127
125 135 125
123 129 119
118 123 116
123 131 121
118 122 114
126 129 121
120 129 119
117 128 116
115 124 114
117 131 117
111 122 111
114 122 113
117 128 116
114 123 113
112 122 112
115 122 111
109 121 109
114 124 113
113 120 110
120 127 118
110 120 110
109 119 108
101 115 101
108 118 106
107 117 105
106 116 105
106 114 102
106 116 102
105 116 103
102 115 102
103 111 101
108 119 106
104 112 103
93 107 91
49 98 54
50 97 54
48 93 51
50 98 54
51 98 55
58 110 62
54 102 57
56 106 60
56 106 60
58 112 63
53 103 57
56 109 60
56 107 60
59 113 64
61 115 65
59 112 63
62 115 65
58 112 63
57 109 61
59 110 62
57 107 60
60 114 65
58 107 61
56 104 59
55 105 59
54 105 59
56 106 60
52 97 55
54 101 57
54 103 58
54 98 56
51 96 54
52 97 55
50 92 52
50 92 53
50 96 54
49 94 53
48 91 51
46 89 50
48 87 49
48 86 49
48 88 50
45 81 46
41 76 43
43 81 45
42 77 44
44 83 47
42 78 45
42 73 41
38 67 38
0 0 0
0 0 0
0 0 0
0 0 0
0 0 0
0 0 0
0 0 0
0 0 0
0 0 0
0 0 0
0 0 0
46 12 12
92 26 25
92 26 25
93 26 25
93 26 25
102 28 27
97 27 26
100 28 27
98 27 26
101 29 27
102 28 27
106 30 28
107 30 29
114 32 31
115 31 31
111 31 30
109 30 29
111 31 30
118 32 31
115 32 31
120 33 31
120 32 32
122 33 32
119 32 31
125 33 32
119 33 32
124 34 33
117 32 31
128 35 34
129 36 34
130 35 34
129 34 33
127 34 34
125 33 32
121 31 31
128 35 34
120 31 30
129 32 32
133 34 34
122 31 31
126 32 32
127 34 33
125 32 31
124 33 33
125 32 31
124 34 33
125 33 32
127 33 33
115 30 29
115 30 29
112 45 44
110 95 93
115 92 92
117 95 93
112 92 90
120 98 97
116 97 94
120 97 96
116 99 96
121 101 100
118 97 95
122 103 101
116 103 100
114 97 94
120 105 102
122 106 104
128 107 106
127 105 103
105 53 50
97 33 30
94 33 32
102 32 31
98 35 33
95 26 25
148 144 141
165 162 161
154 152 150
156 151 150
157 154 152
153 150 149
151 148 145
167 166 164
167 161 160
166 163 162
159 158 156
161 161 160
165 164 162
180 179 178
172 170 168
152 147 145
167 162 160
174 173 171
169 168 165
183 184 182
180 179 176
171 173 169
185 182 181
169 169 167
169 171 168
178 175 174
184 183 182
187 184 183
181 181 179
180 177 176
172 172 168
177 176 173
182 182 179
181 181 179
188 190 187
188 189 186
189 187 185
194 194 192
175 176 175
191 193 190
180 180 178
200 200 198
186 187 184
194 195 193
188 188 186
198 200 197
185 186 182
182 183 180
200 201 199
186 188 186
205 205 203
188 190 187
166 167 162
137 138 133
135 141 134
140 142 137
140 139 135
142 142 137
141 142 137
135 135 131
141 144 137
142 142 136
135 138 132
134 135 130
129 137 129
135 141 135
134 136 130
131 138 129
133 139 131
132 136 129
133 138 129
132 136 130
134 135 128
138 138 132
132 137 131
132 134 129
138 142 135
124 131 123
127 135 127
133 134 129
126 133 125
124 132 123
125 130 122
126 126 120
123 131 121
127 134 127
125 128 120
123 130 120
122 127 120
119 122 116
118 126 116
125 131 123
127 134 124
121 129 119
124 130 122
121 130 120
116 123 115
116 125 114
117 124 116
119 133 120
111 121 109
114 119 110
117 125 115
109 116 107
116 126 115
117 121 111
112 122 111
110 120 109
111 116 106
102 115 102
106 115 105
114 123 113
108 118 108
103 119 102
104 117 104
107 116 106
105 114 103
105 114 103
100 112 100
104 115 104
93 109 94
48 93 52
48 95 52
47 92 51
51 98 55
52 102 56
54 106 59
53 103 58
56 108 60
56 107 60
55 103 58
58 111 63
60 110 62
58 106 60
55 105 59
58 111 63
58 107 60
58 114 64
58 109 61
57 107 61
59 112 63
59 113 64
53 102 57
57 109 62
57 106 60
58 107 61
54 101 57
55 103 58
54 104 58
55 104 58
52 98 56
51 93 53
46 86 49
51 94 53
51 98 55
50 94 53
46 88 50
47 90 50
51 95 53
49 89 50
52 98 55
48 91 51
43 81 45
43 83 46
44 80 45
44 82 46
45 82 46
45 79 45
44 79 45
44 79 45
38 72 41
0 0 0
0 0 0
0 0 0
0 0 0
0 0 0
0 0 0
0 0 0
0 0 0
0 0 0
0 0 0
0 0 0
46 13 12
89 25 24
92 26 25
102 28 27
95 27 25
98 27 26
92 26 25
106 30 29
104 29 28
101 28 27
104 29 27
106 30 29
107 29 28
109 30 28
110 31 30
113 31 30
106 29 28
115 32 31
114 31 31
114 32 30
125 35 33
123 34 33
120 32 31
120 34 33
130 36 34
124 34 33
121 33 32
131 36 35
130 35 34
125 33 32
130 34 33
123 32 32
128 35 34
132 35 34
124 33 32
124 32 31
134 34 34
124 33 32
123 32 31
126 32 32
127 33 32
131 34 33
130 33 33
122 32 32
127 33 33
117 31 30
112 29 28
124 33 32
112 29 28
114 29 28
116 46 45
116 93 91
117 97 94
112 90 87
112 96 94
109 98 96
116 94 92
110 96 94
121 99 98
123 102 101
114 96 94
125 101 100
117 101 99
111 92 90
118 103 101
120 103 101
123 108 105
128 113 111
99 50 50
102 27 27
97 36 36
103 32 31
93 29 28
95 25 25
160 158 155
158 155 153
150 148 147
153 150 149
158 156 154
158 158 156
163 160 159
166 165 163
151 146 146
169 167 165
158 154 152
167 166 164
174 172 170
165 164 161
166 163 161
173 169 168
173 171 169
163 163 159
155 157 153
176 175 173
187 186 185
181 178 177
173 171 170
157 155 152
175 174 173
170 170 168
171 171 169
190 192 189
189 190 188
180 179 177
175 174 172
168 169 166
184 182 180
187 186 185
187 186 183
189 189 187
177 177 175
189 187 185
187 186 184
179 178 176
180 179 177
184 186 182
177 178 175
191 191 189
191 192 189
185 185 183
185 187 184
188 191 187
181 182 179
167 168 165
191 192 189
179 180 177
175 178 173
145 147 141
138 137 133
136 139 133
136 138 133
142 142 137
135 140 133
142 150 140
132 134 127
134 137 131
133 137 131
135 141 134
128 134 126
129 136 128
130 135 128
132 134 129
140 138 135
131 131 126
129 131 124
129 138 128
130 138 129
127 129 122
131 137 129
123 130 122
122 125 119
126 130 121
127 131 123
125 133 125
124 131 122
122 131 120
125 133 125
123 125 117
115 120 112
122 128 120
124 129 122
129 135 127
122 130 122
116 122 113
118 126 117
123 129 121
122 128 118
127 135 126
120 128 118
123 133 122
119 128 118
118 127 117
118 128 116
115 125 114
113 118 110
116 125 116
114 118 112
116 123 114
111 123 110
111 118 110
108 120 107
110 117 107
106 114 103
110 119 109
105 115 104
108 121 108
117 120 114
106 117 106
106 119 104
102 112 100
103 117 103
104 111 100
95 106 94
103 110 100
91 106 91
51 97 54
48 94 52
52 98 55
52 103 57
53 102 57
51 101 56
55 103 58
52 99 56
54 105 58
58 113 63
57 105 59
58 109 61
57 107 60
58 112 63
60 113 63
56 106 60
56 107 60
61 116 65
57 108 61
56 107 60
59 114 64
57 107 61
60 114 64
55 105 59
58 109 62
58 107 61
50 95 53
56 103 59
53 102 57
53 100 56
53 96 55
51 96 54
51 93 53
54 99 56
50 92 52
52 96 54
50 94 53
46 86 48
50 92 52
49 91 51
48 88 50
44 81 46
46 84 48
44 81 45
43 83 46
42 78 44
42 76 43
44 80 46
42 79 45
35 65 37
0 0 0
0 0 0
0 0 0
0 0 0
0 0 0
0 0 0
0 0 0
0 0 0
0 0 0
0 0 0
0 0 0
38 11 10
94 25 24
94 26 25
91 26 24
98 28 27
107 29 28
100 27 27
98 27 27
104 28 27
104 29 27
101 28 27
114 32 31
109 30 29
104 28 28
119 33 32
111 31 30
112 31 30
107 30 29
120 34 32
121 34 33
118 32 31
111 31 30
120 32 32
124 34 33
121 33 32
121 33 32
133 36 35
119 31 31
123 33 32
133 36 35
132 35 34
130 34 34
121 30 30
131 33 33
130 34 34
131 34 33
127 33 32
126 33 32
134 34 34
129 33 32
126 32 31
129 33 32
112 29 29
127 33 32
126 33 32
122 32 31
120 32 31
117 31 30
117 31 30
115 29 29
113 48 46
116 90 88
114 94 92
114 95 94
117 96 95
119 100 99
116 99 98
119 101 99
116 94 92
120 98 98
125 101 99
122 101 100
124 99 98
116 100 98
121 105 102
112 100 98
118 106 103
126 109 106
102 47 47
91 27 27
99 26 26
90 24 23
95 26 26
84 24 23
138 132 129
160 154 153
157 154 153
166 162 161
158 154 154
158 154 153
161 155 155
165 161 160
165 161 160
165 164 161
166 163 161
171 169 167
176 174 173
162 160 159
162 160 158
179 177 176
167 167 164
178 176 174
166 162 162
168 167 166
186 184 183
183 181 179
169 169 167
173 172 170
180 182 179
174 174 172
186 186 184
189 190 187
182 183 180
187 185 183
179 179 177
179 177 175
181 180 178
170 169 166
178 177 176
183 182 181
182 183 181
180 179 177
176 179 174
185 185 183
191 192 189
182 183 180
188 189 186
178 178 177
184 185 183
182 185 181
201 203 200
194 194 192
187 189 186
185 184 182
175 176 173
191 194 190
163 164 160
145 146 141
135 137 131
137 138 134
137 141 135
129 133 126
141 141 135
134 140 133
134 136 129
140 143 136
138 142 135
131 132 127
135 138 131
132 137 129
131 133 127
135 141 134
132 135 129
133 138 132
125 131 122
132 138 130
132 138 129
130 132 126
130 133 127
133 141 132
132 137 130
129 135 127
125 123 116
125 130 122
130 133 124
126 133 125
129 136 128
130 136 129
127 136 126
130 131 124
122 130 122
129 134 125
124 129 121
123 130 122
120 129 119
119 124 116
120 127 118
114 122 111
119 125 117
117 127 117
114 120 112
114 121 111
119 131 118
113 119 111
114 121 111
112 120 110
112 125 111
112 125 112
116 124 112
111 119 108
107 116 106
105 116 104
107 119 107
113 123 112
105 116 103
105 114 104
110 119 108
105 117 103
100 116 101
100 112 99
100 111 98
98 113 99
101 109 98
105 116 105
100 108 99
45 90 49
47 95 52
50 95 53
52 97 54
51 99 56
52 98 55
52 102 56
54 104 58
54 101 57
56 106 60
56 107 60
58 112 63
55 105 59
58 109 62
59 114 64
57 110 61
59 113 63
58 111 62
53 101 57
53 103 58
55 104 59
58 109 62
56 108 61
58 113 63
53 103 58
58 107 61
52 96 54
54 105 59
56 108 61
53 100 56
52 98 55
52 96 54
52 98 56
51 94 54
53 98 56
50 94 53
48 89 50
45 88 49
49 90 51
48 87 49
47 85 49
46 87 49
44 80 45
46 84 47
45 84 48
46 84 48
45 83 47
42 75 43
45 81 46
37 68 38
0 0 0
0 0 0
0 0 0
0 0 0
0 0 0
0 0 0
0 0 0
0 0 0
0 0 0
0 0 0
0 0 0
42 13 11
90 25 24
92 25 25
96 27 26
100 27 26
98 28 26
105 29 28
102 28 27
99 28 27
99 27 27
106 30 29
105 29 28
109 29 28
111 31 29
108 30 29
114 32 31
110 31 30
114 32 31
112 30 30
109 30 29
110 29 29
114 31 30
118 32 31
123 33 32
122 34 33
119 32 31
128 35 34
134 36 35
121 33 32
125 33 32
132 35 34
130 34 34
129 34 33
123 32 32
130 33 33
121 32 31
129 33 33
123 32 31
123 31 31
131 33 33
123 32 32
127 33 33
125 32 31
123 32 32
124 33 32
124 33 32
120 32 31
111 30 29
113 31 29
109 30 28
110 44 43
109 90 87
116 93 92
117 95 94
118 99 96
120 92 92
120 98 95
116 96 95
113 98 96
119 101 99
121 98 96
119 102 100
123 102 101
120 104 103
125 104 102
127 111 109
127 109 108
127 105 104
105 65 65
102 33 31
102 29 29
100 36 34
90 30 28
86 30 30
140 134 132
150 144 142
162 159 157
159 155 153
155 153 151
158 154 153
174 171 170
164 162 161
164 159 157
160 156 155
173 172 170
155 155 153
156 154 152
170 167 166
161 162 159
169 168 167
156 154 152
178 178 176
172 171 169
168 165 164
167 165 164
179 178 176
178 178 176
180 180 178
167 167 164
174 173 171
183 182 181
182 183 181
178 178 176
172 171 169
186 186 184
180 180 178
175 174 172
174 176 173
168 169 166
173 173 171
182 182 180
185 186 184
193 192 190
183 183 181
166 165 163
176 177 175
191 191 189
169 169 166
179 181 178
178 179 176
189 189 187
181 182 179
184 185 182
177 178 174
172 175 172
183 186 182
165 167 162
131 133 128
133 134 128
140 140 135
135 137 131
130 133 127
133 133 129
134 135 128
135 136 131
141 144 138
134 136 130
137 141 134
130 133 126
140 145 139
132 133 127
136 140 132
131 134 127
134 137 129
136 138 133
125 130 123
130 130 124
131 136 128
131 137 129
134 138 132
133 137 130
126 131 124
133 137 128
122 127 119
123 132 122
122 125 118
121 127 118
120 128 118
131 137 130
131 135 128
122 125 118
122 128 120
119 126 118
119 126 117
120 129 120
117 126 116
116 127 116
120 127 117
115 122 114
120 126 118
119 129 118
115 120 110
114 124 114
121 126 117
121 127 118
116 122 114
115 122 113
112 118 109
113 123 111
109 111 104
106 117 104
108 119 106
107 116 107
104 118 104
111 123 112
112 120 111
111 121 110
107 122 107
106 117 105
101 110 98
97 108 93
107 120 107
105 117 103
98 110 98
93 105 92
47 94 51
49 95 53
52 99 55
49 95 53
53 103 57
54 105 58
54 104 58
53 101 57
57 110 62
55 106 59
56 106 59
56 106 60
57 111 62
55 108 60
60 114 64
57 107 60
58 108 61
59 113 64
55 104 59
58 111 63
58 108 61
57 109 62
60 115 65
59 111 63
54 101 57
53 106 59
53 100 56
53 100 57
51 96 54
51 97 55
50 96 54
51 95 54
53 100 56
49 92 52
50 90 50
49 91 52
49 92 52
47 88 50
45 84 48
46 87 49
48 91 52
45 85 48
47 88 50
43 79 44
43 79 45
42 79 44
43 82 46
42 77 44
42 75 43
34 64 36
0 0 0
0 0 0
0 0 0
0 0 0
0 0 0
0 0 0
0 0 0
0 0 0
0 0 0
0 0 0
0 0 0
44 11 11
92 27 25
98 29 27
103 28 27
97 27 26
97 27 26
95 27 26
100 28 26
103 29 28
106 30 29
105 29 28
99 27 26
108 31 30
103 29 28
112 31 30
114 32 31
112 31 30
118 33 32
122 34 32
116 31 30
122 33 32
112 31 30
124 34 33
118 32 31
119 32 31
115 31 30
122 33 32
124 33 33
131 35 34
118 31 31
126 34 33
126 34 33
134 36 35
132 35 34
127 33 32
128 33 33
135 34 34
133 34 33
129 33 32
124 31 31
123 32 31
123 32 31
128 34 33
123 33 32
118 31 31
122 31 31
121 31 31
122 33 32
112 29 29
109 28 27
113 38 38
120 94 94
119 92 92
119 94 93
122 96 95
119 99 98
112 92 91
115 94 92
119 95 94
121 98 96
119 102 99
117 97 95
124 102 101
115 97 96
126 110 109
119 104 100
125 110 108
120 105 103
106 61 59
96 28 27
92 24 23
98 39 39
96 32 29
95 27 25
145 140 138
159 158 156
148 146 144
152 143 142
155 153 152
153 150 148
160 156 155
156 154 152
159 155 154
157 153 152
154 153 151
166 165 164
168 166 165
162 161 158
169 167 165
165 164 161
160 156 155
166 164 162
178 179 177
169 167 165
164 164 162
169 169 167
168 169 167
157 158 155
175 176 174
158 160 157
174 171 170
175 175 173
174 174 172
180 180 177
164 162 161
179 179 176
181 181 179
176 177 174
174 174 172
172 174 170
172 173 170
167 167 164
181 182 180
185 185 184
165 168 164
168 169 165
186 186 184
188 188 186
167 168 165
182 182 180
169 168 165
185 186 184
176 178 175
176 177 174
185 186 184
179 181 178
165 165 161
132 130 126
135 136 130
128 127 122
139 136 133
139 140 135
126 128 122
137 139 134
135 138 133
136 138 132
136 138 131
130 135 128
133 136 130
135 138 132
137 142 135
134 140 132
126 131 123
136 139 133
140 140 134
132 134 129
138 141 136
133 137 130
128 133 126
130 135 127
130 133 127
127 132 126
130 138 129
125 131 123
124 132 122
124 129 122
117 125 114
121 127 117
130 135 129
121 129 120
119 126 118
123 131 122
119 127 118
123 128 120
123 131 121
121 127 119
118 126 116
120 127 118
118 126 116
115 124 114
119 124 117
119 128 118
118 125 113
121 127 118
111 121 109
118 126 116
109 117 108
109 117 108
107 115 106
113 122 111
105 116 105
101 112 100
112 122 110
107 123 107
110 120 108
102 113 98
102 115 102
109 119 108
105 121 105
105 117 104
104 116 103
107 114 102
98 111 98
98 113 99
93 107 93
50 95 53
48 93 51
50 97 53
55 107 59
54 102 58
54 104 58
55 104 59
55 108 60
56 105 59
61 115 65
54 104 59
58 112 63
57 108 61
60 114 64
59 109 62
53 102 57
58 110 62
60 114 65
58 109 62
60 114 64
58 108 61
56 106 60
56 108 61
56 105 59
56 107 60
53 100 57
54 103 58
55 105 59
53 103 58
54 102 57
51 98 55
51 95 54
51 96 54
49 94 53
50 91 52
51 99 56
48 91 51
49 92 52
45 84 48
45 85 48
46 87 49
44 82 47
45 86 48
45 86 49
42 76 43
43 80 44
42 77 43
42 80 46
42 76 43
38 67 38
0 0 0
0 0 0
0 0 0
0 0 0
0 0 0
0 0 0
0 0 0
0 0 0
0 0 0
0 0 0
0 0 0
45 12 12
90 26 24
98 26 25
93 26 24
97 27 26
101 28 27
103 30 28
102 29 27
100 27 26
103 28 27
99 27 26
112 32 30
107 29 29
105 29 28
111 30 29
110 31 30
111 30 29
111 31 30
124 35 33
114 31 30
114 32 30
118 33 32
119 33 32
116 31 30
123 34 33
122 33 32
128 34 34
126 33 33
122 33 33
126 34 33
130 34 33
125 33 32
125 32 32
129 33 33
135 35 34
125 32 32
122 32 31
125 31 31
131 33 33
132 33 33
125 33 32
122 32 31
124 32 31
129 32 32
120 31 31
120 31 30
120 32 31
117 31 30
113 31 30
117 30 29
116 49 49
121 103 101
119 96 96
118 97 95
118 97 96
118 92 91
120 93 91
117 95 93
124 108 105
120 99 98
119 105 104
118 100 97
118 103 101
122 104 102
120 100 99
125 103 102
118 103 100
124 106 105
104 65 64
97 27 26
94 26 26
92 30 29
94 27 26
87 25 24
140 135 134
150 148 146
150 146 145
150 144 143
165 163 162
153 150 148
157 155 154
164 161 159
151 147 145
157 154 152
164 161 160
165 164 161
156 157 154
159 157 155
172 171 170
168 165 163
171 170 167
160 157 155
173 171 169
163 162 160
169 170 166
163 162 160
176 175 172
164 162 160
177 178 176
175 174 172
179 178 176
159 157 156
172 170 168
170 172 168
168 166 164
170 171 169
173 174 171
180 180 178
167 168 166
172 174 171
177 179 176
163 162 161
170 170 167
174 175 172
182 183 180
173 175 171
168 168 165
172 173 170
176 175 173
181 181 180
178 179 176
176 179 175
181 183 179
163 166 162
198 198 196
172 175 171
167 168 165
138 141 136
134 137 131
134 135 130
134 134 129
137 140 135
136 140 132
132 135 128
130 137 129
135 140 134
134 139 133
132 134 129
129 135 128
133 136 131
130 135 128
128 133 124
134 140 133
138 141 135
130 134 128
131 131 126
127 129 122
133 138 131
127 129 123
127 131 124
133 136 127
127 135 127
129 135 125
126 132 125
126 130 123
132 135 129
125 130 123
121 128 119
124 130 120
119 127 118
122 126 119
129 131 124
124 131 123
123 132 123
117 123 114
118 127 117
128 134 126
125 135 125
120 126 117
119 126 117
115 123 114
112 120 111
112 120 109
117 124 115
116 124 115
113 122 110
112 119 111
111 123 112
113 121 110
107 120 105
116 121 111
106 113 103
109 119 109
100 112 99
107 118 105
104 113 102
103 113 102
103 117 103
106 116 103
111 120 111
103 115 103
105 115 103
102 112 100
101 114 101
96 110 96
49 95 53
49 94 52
51 99 55
53 102 57
52 99 55
54 104 58
55 105 59
55 105 59
56 109 61
55 105 59
58 109 61
58 107 60
55 103 58
59 112 63
55 103 58
57 107 61
53 103 58
58 110 62
57 112 62
57 108 61
59 109 62
58 111 62
55 107 59
56 106 59
56 107 60
56 104 59
54 102 58
53 97 55
55 100 57
51 95 54
49 94 53
52 100 56
52 99 56
52 97 55
48 90 51
52 96 54
48 91 52
49 92 52
49 89 50
46 87 49
45 84 48
44 82 47
44 80 45
42 75 42
43 83 46
42 78 44
42 79 44
42 76 44
46 83 47
38 67 38
0 0 0
0 0 0
0 0 0
0 0 0
0 0 0
0 0 0
0 0 0
0 0 0
0 0 0
0 0 0
0 0 0
40 11 11
91 25 23
95 27 26
95 27 26
91 26 25
107 29 28
100 28 27
96 27 26
101 28 27
110 31 30
105 29 28
102 29 28
108 30 29
114 31 30
112 31 30
115 32 31
118 32 31
113 31 30
113 32 30
116 32 31
117 31 30
122 34 32
127 35 34
123 33 33
125 33 32
120 32 31
123 33 32
125 34 33
122 33 32
127 34 33
123 32 31
123 33 32
130 32 32
121 31 31
127 34 33
130 33 33
123 32 31
128 33 33
125 32 32
122 31 30
127 32 31
127 32 32
130 33 33
118 31 30
118 31 30
125 32 32
124 33 33
120 32 31
115 31 30
116 31 30
112 48 48
115 96 95
124 98 96
116 92 91
119 95 93
121 101 101
121 104 102
118 99 98
113 101 97
120 95 92
122 103 101
120 102 100
120 104 102
123 101 100
120 102 101
122 101 99
123 107 106
127 109 108
93 48 47
91 31 30
95 26 25
92 27 27
91 24 23
90 25 24
119 110 107
151 149 147
158 156 155
154 151 150
157 151 150
154 145 144
158 156 154
148 146 143
164 159 157
152 150 146
146 141 139
166 164 163
169 166 165
155 154 151
160 160 158
155 155 153
156 155 154
161 160 158
173 173 171
170 166 164
172 171 168
157 156 153
165 163 162
159 159 156
166 166 165
170 168 166
175 176 174
167 168 165
175 177 174
169 166 164
180 180 178
173 175 172
159 160 156
173 172 170
177 176 175
167 168 165
182 183 181
185 185 183
178 175 174
174 174 172
183 183 181
175 175 173
170 170 168
171 173 169
176 178 175
186 187 184
174 174 171
171 173 170
189 191 188
177 178 176
181 181 179
167 169 167
159 163 158
140 143 136
135 136 130
141 145 138
129 133 126
137 140 134
136 138 133
129 130 125
136 141 134
137 139 134
127 131 124
130 134 128
130 134 127
133 134 128
124 131 122
125 134 125
128 131 123
133 138 131
130 136 128
132 132 127
136 138 132
124 130 122
128 135 126
121 124 116
135 139 133
132 135 129
134 139 132
124 128 121
130 136 129
125 135 125
125 131 122
122 129 120
130 136 129
123 128 120
122 131 121
119 128 117
116 122 114
119 122 115
121 126 119
126 135 125
119 127 117
117 124 116
117 127 117
117 122 114
117 124 115
122 131 122
116 124 115
114 124 113
118 127 116
113 124 113
113 123 111
112 120 109
109 119 108
107 115 106
116 128 115
113 121 111
113 120 110
108 120 107
113 122 110
115 130 115
107 116 104
109 117 107
99 108 97
107 119 106
105 115 104
101 111 100
103 113 102
101 110 99
95 107 92
50 97 54
49 96 53
49 96 53
56 107 60
50 94 53
52 100 56
52 103 57
56 108 60
57 109 62
57 108 60
54 102 58
57 109 61
55 104 58
58 111 62
57 108 61
60 113 64
56 108 60
60 114 65
57 109 62
57 110 62
58 110 62
61 116 66
58 111 63
58 111 62
57 107 60
55 108 60
57 106 60
53 99 55
52 99 55
55 103 59
52 100 56
50 94 53
50 96 54
51 95 53
52 98 56
53 100 56
46 85 48
47 88 50
50 95 53
44 84 48
45 83 47
44 82 45
44 83 47
49 87 49
46 84 48
42 77 44
44 80 45
46 85 48
41 75 43
37 68 38
0 0 0
0 0 0
0 0 0
0 0 0
0 0 0
0 0 0
0 0 0
0 0 0
0 0 0
0 0 0
0 0 0
43 11 11
89 25 24
94 26 25
102 28 27
94 26 25
100 28 27
99 28 27
103 29 28
100 27 26
102 28 27
105 29 28
107 30 29
106 30 29
107 30 29
108 30 29
113 31 30
111 30 30
111 30 30
123 35 33
112 31 30
120 32 31
120 33 32
114 31 31
119 33 32
119 33 32
120 33 32
123 34 33
119 32 31
129 34 33
127 34 33
129 33 33
125 33 32
120 32 31
122 32 31
126 33 32
130 33 33
130 33 33
122 31 31
120 31 30
128 31 31
128 33 33
123 32 32
127 33 32
125 32 32
125 33 32
121 32 31
118 31 30
118 31 31
113 30 29
116 30 29
115 46 45
118 98 96
121 92 91
115 97 95
124 101 101
123 99 97
118 95 94
118 98 97
119 101 98
122 98 98
118 101 99
117 100 98
119 100 99
125 105 102
117 103 101
120 102 99
124 103 102
122 100 98
105 68 67
95 30 29
92 27 27
94 31 31
87 26 26
96 32 31
141 138 137
149 147 146
151 150 148
148 149 145
155 150 148
154 152 150
156 154 152
152 152 149
145 143 141
148 148 147
158 155 154
145 146 143
164 163 162
169 167 166
157 155 153
159 158 156
161 160 158
155 153 151
161 161 159
171 170 168
161 158 156
151 148 145
160 157 155
174 173 171
175 174 173
175 173 172
172 173 170
165 165 162
166 167 164
168 169 166
167 169 164
176 174 173
164 164 162
172 171 170
165 165 162
174 174 172
165 164 163
161 162 159
175 174 172
176 178 175
181 182 180
179 178 175
168 170 166
178 180 177
160 158 155
179 180 176
175 177 173
175 177 174
169 170 167
171 172 170
175 177 173
173 176 172
168 170 166
136 140 135
136 141 134
137 139 133
134 140 133
132 138 131
139 142 136
135 136 129
135 138 133
129 133 125
137 140 132
134 138 132
132 135 129
138 143 136
134 137 131
133 136 129
136 140 134
130 132 126
130 136 127
134 138 131
134 137 132
128 135 127
120 127 118
129 135 128
132 138 129
128 136 127
129 135 128
134 136 130
126 130 124
122 127 118
127 134 127
122 131 122
131 136 128
123 133 122
120 127 118
121 123 118
121 125 118
122 126 117
113 119 112
124 132 123
116 124 116
124 131 122
116 125 114
117 127 117
118 127 116
115 123 111
115 124 114
109 119 108
111 121 111
107 116 105
111 120 111
108 119 107
111 122 111
106 116 103
114 127 114
109 120 108
113 127 112
107 119 106
109 120 108
105 119 105
109 118 108
106 117 105
109 115 105
100 108 99
99 114 99
105 118 106
102 115 100
106 115 105
94 109 93
50 98 54
51 99 55
49 98 54
56 107 59
55 104 58
54 104 58
51 98 54
56 107 60
57 109 61
57 106 59
52 98 55
59 112 63
57 107 60
55 104 59
57 108 60
57 113 62
59 113 64
57 108 60
55 105 59
57 110 63
57 107 60
59 110 62
54 102 58
56 108 61
57 103 59
54 102 57
53 102 57
54 103 58
52 100 57
51 98 55
54 98 56
52 93 53
54 99 56
51 95 53
52 98 55
48 89 50
50 92 52
47 87 49
49 89 51
49 90 51
45 83 47
45 82 46
43 80 45
45 81 46
48 88 50
44 81 46
42 78 44
46 83 46
44 78 44
34 63 35
0 0 0
0 0 0
0 0 0
0 0 0
0 0 0
0 0 0
0 0 0
0 0 0
0 0 0
0 0 0
0 0 0
42 12 11
93 26 25
91 26 25
91 25 24
96 27 26
100 28 27
101 28 27
101 28 27
96 26 25
105 29 28
99 27 27
104 29 28
110 30 29
104 29 28
114 31 31
108 30 29
110 31 30
111 31 30
118 32 31
115 32 31
124 33 32
120 33 32
120 33 32
126 34 33
117 32 31
121 32 32
126 34 33
130 35 34
121 32 31
122 33 32
129 34 33
130 34 33
124 32 32
125 33 32
125 33 32
127 33 32
122 31 30
128 33 33
136 34 33
127 32 32
123 32 32
127 32 32
120 30 30
122 31 31
124 32 32
122 33 32
118 31 30
115 31 29
118 31 30
116 30 29
107 46 45
109 93 91
118 99 98
117 95 94
115 93 92
122 97 95
118 94 93
116 97 96
123 100 100
120 100 99
127 104 103
122 105 105
122 106 104
123 100 98
123 103 101
119 105 103
121 100 99
122 102 101
103 61 61
100 32 31
94 28 27
92 29 28
93 26 26
83 24 24
136 128 126
157 154 153
151 149 147
159 155 154
150 149 147
151 149 148
156 153 152
167 166 164
150 149 148
166 165 163
158 157 156
147 146 143
160 161 159
166 165 164
157 155 154
155 152 150
153 154 152
170 169 168
160 159 156
156 155 154
153 156 152
169 165 164
163 163 161
161 158 157
165 167 164
169 168 167
159 159 156
166 164 162
178 178 176
178 176 175
169 170 166
177 176 175
172 172 169
177 176 175
181 182 180
157 159 156
168 167 164
179 180 177
170 170 168
172 174 172
172 173 170
170 169 166
161 162 159
172 172 170
194 196 193
169 169 166
170 171 168
175 178 175
170 170 167
165 164 161
164 166 162
165 166 163
161 163 159
132 138 130
135 137 131
132 137 131
131 137 129
133 136 131
129 134 127
137 141 135
140 146 139
148 152 146
134 138 132
131 134 128
131 138 130
136 141 134
134 138 132
133 134 128
123 128 121
130 133 127
126 135 125
133 136 131
132 137 131
129 133 125
127 131 124
128 135 126
130 136 129
134 143 133
126 131 123
116 122 114
130 134 127
127 135 125
128 135 125
124 132 122
125 132 123
127 131 124
123 127 118
116 126 115
121 128 120
118 124 115
121 131 120
118 126 116
119 125 117
123 132 122
115 121 111
118 123 114
109 118 107
117 126 116
108 122 109
110 116 108
117 128 116
112 125 112
114 122 112
111 123 110
113 123 113
110 120 108
111 119 111
106 120 105
106 116 105
112 121 111
110 121 109
104 115 103
109 119 107
101 111 100
107 114 105
110 120 108
104 115 104
101 111 99
103 114 102
105 113 103
94 112 94
48 94 51
50 98 54
50 96 53
51 98 55
51 98 55
52 103 57
51 97 54
56 107 60
53 101 56
56 108 60
57 110 62
56 105 59
59 115 64
57 109 61
59 112 63
58 112 63
56 106 60
56 108 60
55 104 58
56 107 60
59 112 63
56 107 60
55 107 59
55 107 60
52 99 56
54 101 58
52 97 55
56 104 59
52 95 54
52 97 55
51 96 54
50 96 54
52 98 55
49 91 51
52 94 53
47 89 50
48 86 49
51 93 52
46 84 48
48 86 49
45 82 47
45 85 48
45 82 46
45 83 47
48 89 51
42 78 44
43 81 46
41 73 41
39 72 41
42 75 42
0 0 0
0 0 0
0 0 0
0 0 0
0 0 0
0 0 0
0 0 0
0 0 0
0 0 0
0 0 0
0 0 0
37 10 10
91 26 24
92 26 25
93 25 24
98 28 26
95 26 25
89 25 24
98 27 26
102 28 27
97 27 26
105 28 27
111 30 30
106 29 28
108 30 29
111 31 30
110 31 29
120 33 32
110 31 30
115 32 31
108 29 29
120 33 32
114 31 30
122 33 32
120 32 31
126 34 33
125 34 33
124 33 32
124 34 33
118 31 30
128 34 33
118 31 31
126 32 32
125 32 32
125 34 33
124 32 32
122 31 31
129 33 33
129 32 32
130 33 33
126 32 32
130 33 32
120 31 31
125 32 32
121 32 32
114 30 29
122 33 32
118 31 31
124 33 32
117 31 30
115 30 29
109 46 45
112 92 92
114 95 92
119 97 95
117 96 94
115 93 92
114 96 94
110 92 90
120 102 100
120 97 95
121 101 99
123 100 99
119 101 99
122 101 99
125 103 102
124 104 103
118 105 102
123 107 105
104 51 49
90 25 25
94 25 24
95 30 28
98 27 27
97 32 30
146 142 141
144 140 139
138 136 134
162 157 156
152 150 148
148 143 142
141 137 135
153 150 148
150 149 146
153 150 148
154 154 151
157 154 152
162 159 158
150 147 146
157 156 153
158 156 154
161 162 159
167 163 162
168 165 164
160 158 157
149 150 149
154 153 151
153 151 148
163 162 160
153 153 151
162 161 160
168 167 164
174 174 171
168 167 165
171 172 170
168 166 164
159 160 159
171 170 168
164 163 161
164 164 162
169 168 166
172 172 170
172 173 170
163 161 159
174 174 172
177 177 175
183 184 181
174 173 171
161 160 158
168 168 166
180 179 177
179 180 177
163 164 161
159 160 156
181 181 179
168 168 164
182 185 181
165 164 162
134 138 131
137 136 131
134 137 130
140 139 136
138 141 135
136 140 132
126 132 125
137 141 134
133 137 129
136 140 133
137 141 135
129 131 126
132 138 129
138 142 136
125 133 124
129 134 126
132 136 129
129 135 127
134 137 130
129 135 128
126 132 124
126 133 125
124 126 121
129 134 126
130 134 126
128 133 125
122 128 119
130 133 128
126 131 122
126 133 123
121 127 118
122 126 119
121 127 119
126 136 126
124 125 118
122 128 119
115 121 113
116 122 114
124 132 123
112 122 111
113 123 113
114 124 114
110 118 109
118 123 115
117 126 116
113 122 113
118 125 115
116 122 113
111 121 111
117 126 115
106 115 106
114 125 113
113 117 108
108 120 108
106 115 104
114 121 112
103 112 101
106 115 104
109 116 107
109 120 109
105 118 104
106 115 104
101 114 100
107 116 106
100 117 100
106 117 103
101 116 102
96 108 96
48 92 51
47 90 50
48 94 52
56 110 61
54 105 58
56 106 59
52 99 55
54 105 59
56 108 60
57 108 61
56 108 61
54 104 58
57 110 62
55 104 59
56 108 61
58 109 61
59 114 64
59 109 62
58 109 62
55 105 59
54 104 58
58 110 62
54 103 58
57 109 61
56 102 58
56 109 61
53 102 58
52 98 55
53 101 56
53 102 58
54 99 56
50 97 55
51 97 55
48 91 52
49 93 52
50 94 53
50 91 52
47 89 50
44 85 48
50 92 52
47 86 49
45 84 48
47 87 49
46 84 47
45 84 48
44 82 46
39 73 41
43 77 44
43 76 43
33 59 33
0 0 0
0 0 0
0 0 0
0 0 0
0 0 0
0 0 0
0 0 0
0 0 0
0 0 0
0 0 0
0 0 0
52 14 13
102 28 27
99 27 26
92 26 25
98 27 26
97 26 26
98 27 26
100 27 26
103 28 27
108 30 29
105 29 28
112 31 30
108 30 29
103 28 27
105 29 28
110 30 29
107 31 29
111 30 30
112 31 30
114 32 31
111 31 30
125 33 33
118 32 31
118 32 31
129 35 34
128 35 34
118 31 31
126 34 33
117 31 30
129 34 33
125 32 32
123 32 31
118 31 30
125 33 32
131 33 33
122 31 31
125 31 31
124 32 32
131 33 32
120 30 30
126 32 32
123 31 31
125 32 32
118 31 30
127 34 33
119 31 31
117 30 29
112 29 28
114 31 30
116 31 30
112 40 40
120 98 97
118 97 96
115 95 94
116 96 94
121 98 96
115 97 94
112 98 95
116 98 96
120 97 95
124 101 100
114 100 98
118 96 95
120 106 104
121 101 101
119 102 100
127 105 104
123 104 102
103 60 59
89 30 29
83 29 28
92 26 25
94 35 35
99 34 33
136 131 129
152 153 150
141 139 137
147 141 141
146 143 141
136 134 132
154 150 150
147 148 145
162 161 160
135 134 132
155 155 153
158 155 154
156 153 151
163 160 159
155 151 148
155 154 153
155 153 151
168 164 162
165 164 163
165 166 163
163 159 158
156 155 153
163 164 162
164 164 162
163 160 158
162 161 160
168 170 167
161 160 158
170 169 167
170 170 168
176 175 172
169 170 167
172 169 168
177 176 174
158 158 155
179 177 176
178 177 175
174 175 171
181 182 180
167 168 166
170 167 165
173 174 171
175 177 175
162 164 160
162 165 161
171 169 168
178 179 177
172 174 171
165 165 162
180 179 177
166 167 163
163 169 163
166 169 164
136 136 131
137 137 132
130 131 125
137 141 135
134 134 130
125 129 121
139 143 135
135 137 131
136 140 132
140 142 137
132 139 132
134 137 132
132 137 130
127 132 126
133 138 131
138 141 135
128 135 127
133 137 130
134 136 130
129 133 126
132 137 130
126 128 122
126 132 125
132 139 130
130 133 126
125 129 122
119 127 118
122 129 119
126 134 126
125 135 124
125 131 123
127 133 125
120 130 120
124 129 120
119 124 117
124 131 122
123 129 121
118 128 118
120 125 117
117 129 117
119 127 117
119 125 117
112 121 111
118 125 116
111 120 109
113 122 112
122 130 120
120 129 119
110 119 110
106 116 105
118 126 115
114 124 114
113 124 112
108 119 107
113 122 111
111 117 109
110 119 110
107 119 108
110 117 107
106 115 105
102 112 101
106 118 106
105 113 102
109 123 108
105 119 105
100 109 98
102 112 100
92 108 92
44 89 49
46 94 51
49 97 53
54 103 58
52 100 56
53 103 57
53 102 57
55 109 61
56 108 61
56 107 60
55 106 59
53 104 58
59 113 64
60 117 66
57 107 61
56 108 61
56 105 59
63 119 67
58 111 63
55 104 59
52 99 56
56 107 60
54 104 59
53 101 57
54 103 58
57 108 61
55 100 57
58 110 62
52 99 55
54 104 59
52 98 55
49 89 50
49 91 52
53 96 55
48 91 51
49 94 53
50 93 52
48 91 51
47 89 50
46 87 49
48 89 51
46 88 49
47 83 47
47 83 48
45 83 47
44 84 47
40 75 42
42 78 44
40 74 42
38 69 39
0 0 0
0 0 0
0 0 0
0 0 0
0 0 0
0 0 0
0 0 0
0 0 0
0 0 0
0 0 0
0 0 0
31 8 8
92 26 25
95 26 25
99 27 26
103 28 27
95 27 26
101 29 27
100 28 27
101 28 27
105 30 29
100 29 27
105 30 28
102 28 27
107 29 28
107 30 28
111 31 30
110 30 29
111 31 29
111 30 30
113 31 30
116 31 30
115 32 31
118 33 32
122 34 32
118 33 31
126 33 33
123 34 33
118 32 31
124 33 32
129 34 33
121 32 31
124 34 33
131 34 33
126 32 32
127 33 32
124 32 31
128 33 33
127 31 31
124 32 31
124 31 31
123 31 31
132 34 33
126 32 32
122 32 31
122 32 32
121 32 31
116 29 29
118 31 31
114 31 30
114 31 29
112 51 50
118 94 93
122 97 96
115 91 89
113 94 93
118 100 98
117 95 94
113 97 94
118 97 96
117 100 98
118 98 97
124 103 103
119 101 101
125 108 106
116 101 99
118 103 101
127 104 103
135 107 107
97 52 50
97 29 28
96 29 29
96 29 28
97 28 27
90 30 29
144 138 136
150 145 144
161 157 156
145 140 139
153 147 145
154 150 150
145 143 142
148 148 145
150 148 146
154 153 150
149 144 142
158 153 151
150 145 143
151 150 148
150 150 148
164 165 163
160 160 157
152 149 148
154 156 152
157 155 154
156 155 153
151 151 148
165 164 162
162 163 159
163 161 159
171 172 169
170 173 170
164 164 161
167 167 164
161 161 158
156 156 153
162 160 158
164 163 161
160 160 158
182 183 181
150 148 146
167 169 167
171 170 169
172 171 169
165 165 163
163 162 160
166 167 164
172 173 170
166 167 164
164 169 164
165 166 164
167 166 164
177 178 176
170 170 167
148 149 145
160 162 157
162 162 159
157 156 152
133 135 128
131 132 126
138 138 133
139 144 138
139 140 135
133 139 131
133 136 130
136 141 132
136 138 132
130 132 126
136 137 132
141 144 138
133 137 129
124 131 122
132 138 129
127 134 126
131 136 127
123 128 121
126 130 124
131 138 129
131 133 128
124 128 121
125 131 122
130 136 128
137 142 136
129 134 127
132 135 129
126 134 125
123 128 121
117 126 115
119 125 116
118 125 116
121 126 118
121 127 120
114 123 111
123 126 117
123 126 118
118 130 118
117 123 115
119 126 117
113 123 112
117 126 117
123 132 122
120 128 118
120 128 119
111 121 110
112 120 109
116 118 111
114 123 111
113 127 113
110 121 111
112 122 111
109 122 110
109 117 107
112 121 110
110 123 110
111 120 109
104 118 105
102 114 102
107 118 105
102 114 102
100 112 98
108 117 106
104 113 102
99 112 97
104 113 102
104 113 101
92 103 89
49 94 52
50 99 55
51 101 56
54 104 58
53 103 57
52 100 56
52 102 57
51 99 55
56 107 60
53 103 58
56 108 61
56 109 61
58 108 61
57 110 62
57 109 61
61 116 65
58 111 63
57 111 62
56 107 61
56 109 61
54 103 58
58 107 61
56 105 60
54 102 58
56 106 60
53 101 57
53 103 58
52 97 55
53 101 57
53 103 57
53 101 57
50 97 54
50 94 53
50 91 51
50 92 52
49 91 51
53 99 56
47 90 51
49 91 52
47 88 50
44 79 45
46 86 48
46 84 48
45 84 47
44 81 46
41 78 44
44 81 45
45 85 48
39 72 41
32 61 35
0 0 0
0 0 0
0 0 0
0 0 0
0 0 0
0 0 0
0 0 0
0 0 0
0 0 0
0 0 0
0 0 0
41 11 11
87 24 23
99 26 26
92 26 25
98 27 26
97 27 26
99 27 26
97 27 26
98 27 26
108 30 29
97 27 26
103 29 28
108 30 29
110 31 29
98 27 26
113 31 30
115 31 31
118 33 32
108 30 29
115 32 31
115 31 30
112 30 29
113 32 31
118 32 31
124 33 32
119 32 31
123 33 32
125 33 32
117 32 31
125 33 32
126 33 33
125 33 32
126 32 32
120 31 31
125 32 32
130 32 32
125 32 32
128 32 32
121 31 31
118 31 31
121 31 30
123 32 31
131 33 33
120 32 31
119 31 31
120 32 31
114 30 29
118 30 30
116 30 29
114 30 29
112 45 43
110 89 86
115 96 96
116 96 94
117 94 93
118 96 95
117 95 94
115 99 96
124 103 101
120 95 94
117 100 98
122 103 101
115 99 97
119 101 100
127 112 112
117 98 95
123 108 107
119 106 103
105 46 45
98 26 26
105 28 27
94 28 27
96 34 30
90 28 27
145 140 138
148 145 143
149 148 146
147 146 144
149 147 145
144 144 142
155 152 151
150 146 144
150 145 144
162 158 156
154 150 147
138 139 136
148 144 143
154 150 148
165 163 161
168 163 163
163 162 161
164 159 157
148 145 144
163 158 157
170 169 168
158 156 154
159 158 156
154 154 151
163 159 158
161 160 159
157 156 155
162 159 157
166 164 163
158 159 157
160 157 155
176 176 173
164 161 160
174 174 171
164 163 161
167 164 162
165 165 163
156 157 153
163 165 161
177 175 174
161 160 156
185 186 183
175 175 173
164 166 163
165 166 163
155 154 152
174 176 173
162 165 161
172 173 170
174 176 173
159 162 157
179 179 177
147 147 142
135 142 135
137 140 134
129 134 127
135 139 134
131 134 128
137 143 135
134 135 131
137 139 134
131 137 130
135 140 133
135 142 134
130 136 129
130 135 127
127 133 125
127 131 123
129 132 125
123 129 121
139 145 138
129 136 127
127 132 125
131 137 129
130 134 129
128 134 125
125 132 122
124 134 123
130 135 129
131 139 130
129 135 127
124 127 120
121 129 121
123 131 123
125 134 126
119 125 117
119 125 117
123 127 120
116 124 115
125 134 124
118 124 116
123 128 121
116 122 111
120 128 119
117 123 114
116 123 114
120 126 118
118 125 117
107 117 106
115 125 114
115 125 114
111 119 110
109 118 108
113 124 112
107 117 105
106 119 106
107 119 105
107 114 104
109 119 108
108 120 108
102 114 101
109 118 108
104 117 104
105 114 103
97 111 98
105 119 105
104 119 104
100 113 101
98 110 97
104 116 103
98 108 97
48 94 52
51 101 56
51 99 55
50 100 56
53 101 56
54 105 59
51 98 55
55 106 59
52 101 56
58 112 63
56 107 60
53 101 57
55 106 59
55 105 59
57 108 60
58 111 62
59 111 63
57 111 62
54 103 58
59 112 63
58 112 63
57 107 61
55 107 60
53 101 57
54 103 58
56 107 60
54 105 59
54 99 56
52 97 55
51 94 53
52 97 55
52 96 54
48 89 50
51 94 53
50 92 52
45 86 49
46 88 49
48 92 52
50 95 53
46 87 49
42 79 45
45 84 48
44 83 46
42 80 45
43 79 45
39 76 43
43 79 44
41 78 44
43 76 43
37 65 37
0 0 0
0 0 0
0 0 0
0 0 0
0 0 0
0 0 0
0 0 0
0 0 0
0 0 0
0 0 0
0 0 0
36 10 10
85 24 23
93 25 25
92 26 24
94 26 25
94 26 25
96 26 26
98 27 26
105 30 28
102 29 27
103 28 28
110 31 30
107 29 29
106 29 28
110 30 29
111 30 29
110 31 29
112 31 30
113 31 30
117 33 31
116 31 31
116 32 31
119 33 32
120 32 31
120 33 32
117 32 31
118 32 31
119 32 31
123 32 31
127 33 32
126 34 33
120 31 31
127 33 32
130 33 33
129 32 32
122 31 31
118 30 30
122 31 30
127 32 32
130 33 33
133 34 33
124 31 31
121 31 30
125 32 31
125 32 32
124 32 32
127 33 32
115 31 30
115 30 29
113 30 29
113 48 46
114 97 95
112 88 87
118 93 92
118 96 95
118 93 92
117 102 101
118 99 97
120 92 90
117 96 94
120 95 93
118 99 99
114 99 96
119 103 101
123 105 102
125 103 102
121 103 101
127 107 106
100 51 50
90 27 26
91 27 27
95 28 27
95 37 36
90 32 32
143 138 137
144 139 138
144 139 138
151 149 148
144 140 139
145 141 139
143 137 136
143 139 137
152 151 148
150 147 145
144 142 141
156 153 153
155 154 152
148 147 144
154 154 152
157 154 153
161 160 158
157 157 154
160 159 157
158 153 152
166 164 162
158 155 153
145 146 143
168 167 165
158 157 155
149 146 145
167 166 164
162 162 158
171 168 166
166 167 164
167 164 163
166 166 164
155 154 151
167 168 165
170 166 165
160 160 157
171 172 170
169 167 165
162 162 160
172 174 171
172 172 169
173 172 170
174 173 170
171 170 169
156 158 155
163 166 161
166 168 165
172 174 171
163 164 162
173 174 171
166 167 164
169 172 168
157 161 154
144 146 140
136 142 136
124 128 121
137 140 133
131 135 128
138 139 134
123 128 121
133 139 131
132 136 129
137 142 137
126 131 125
132 139 129
130 135 129
134 139 132
130 135 127
128 131 124
133 138 131
120 129 121
135 141 133
128 130 126
130 134 128
121 129 120
126 130 124
129 133 127
126 132 124
128 134 127
128 136 128
119 129 119
126 133 124
119 127 119
132 139 131
130 133 127
122 129 119
120 130 119
117 126 115
121 129 119
119 127 117
120 126 118
120 128 118
122 130 121
114 121 112
116 124 116
120 129 117
114 125 113
113 125 112
112 124 113
112 125 113
114 123 114
112 123 111
112 124 112
113 124 113
108 121 108
107 122 108
110 122 110
109 114 105
108 117 107
111 121 109
113 121 112
107 116 107
103 119 103
104 114 102
106 117 106
102 113 100
107 117 106
104 117 103
100 114 100
108 117 106
101 112 100
48 95 52
49 96 53
51 101 56
54 103 57
49 97 53
51 103 57
53 102 57
56 108 61
55 105 59
56 105 59
53 100 56
53 100 56
56 107 60
55 104 58
56 109 61
57 108 60
60 112 64
56 107 61
53 102 58
54 104 58
61 115 65
57 109 62
57 106 60
57 107 61
52 99 55
54 101 57
53 102 57
53 98 56
54 104 58
54 100 56
53 100 56
47 89 51
49 92 52
50 96 54
50 92 52
50 93 53
50 92 52
47 88 50
46 87 49
49 94 54
47 85 48
49 90 52
47 87 50
49 89 50
46 85 48
45 84 48
41 78 44
42 80 45
43 79 45
34 64 36
0 0 0
0 0 0
0 0 0
0 0 0
0 0 0
0 0 0
0 0 0
0 0 0
0 0 0
0 0 0
0 0 0
43 12 11
91 26 24
99 27 26
98 26 26
99 27 27
102 28 27
96 27 26
98 27 26
101 28 27
108 30 29
101 28 27
99 27 26
106 29 28
107 30 29
106 29 28
113 31 30
112 31 30
111 31 30
114 32 31
111 30 29
116 32 31
118 32 31
115 32 31
117 33 32
116 32 31
121 32 32
120 33 32
123 33 32
122 33 32
122 33 32
126 33 33
117 31 30
129 33 32
118 31 30
122 31 31
129 32 32
126 32 31
116 30 30
124 30 30
120 30 30
118 30 30
127 32 32
126 31 31
117 31 30
123 32 32
123 32 32
122 31 31
115 31 30
112 30 29
115 30 29
110 45 44
119 92 91
116 95 93
112 95 92
117 91 90
114 95 94
124 98 97
117 102 100
128 105 104
118 97 97
121 95 94
120 106 105
113 98 96
125 102 101
118 101 100
123 103 100
126 108 107
127 106 105
107 62 61
96 28 27
93 24 24
89 29 28
100 27 26
97 26 26
133 125 122
145 142 140
148 143 142
146 144 142
143 142 140
149 143 141
150 146 144
153 148 147
154 151 150
150 149 147
149 146 145
150 148 147
145 143 141
146 143 142
154 153 151
156 155 153
156 157 154
153 148 147
153 151 150
166 166 164
145 142 141
156 157 154
159 156 154
164 162 161
164 164 163
164 161 159
157 155 154
158 159 157
163 162 160
149 150 147
164 163 161
165 164 162
151 151 149
170 170 169
165 163 161
175 175 173
163 163 161
159 158 156
176 176 174
163 166 162
161 160 157
157 155 152
171 172 170
166 167 165
161 161 159
169 168 165
166 167 164
170 171 169
161 163 159
177 179 176
162 164 160
159 161 158
147 147 144
131 135 128
136 139 131
132 136 130
136 140 134
133 135 130
137 136 131
130 129 123
135 138 132
133 137 130
136 140 131
132 134 130
138 142 136
138 140 134
132 138 131
126 132 124
124 130 121
132 139 131
126 129 124
132 136 130
127 131 125
121 129 120
121 127 118
125 128 120
129 136 127
122 129 122
132 138 131
124 130 123
130 137 128
120 127 118
124 131 123
128 134 126
126 132 123
121 127 118
121 129 118
119 128 119
123 129 120
120 127 118
122 128 118
118 126 117
115 123 114
115 124 114
123 128 122
119 128 117
109 122 110
116 128 116
120 128 119
117 125 114
106 113 105
113 121 111
114 123 112
112 121 113
111 120 110
107 118 107
104 115 104
107 120 107
108 124 109
109 118 108
116 128 115
106 117 104
103 114 103
105 112 104
105 118 103
104 115 102
106 117 105
104 112 102
104 120 105
102 115 103
97 111 97
47 91 51
49 98 54
49 96 53
53 102 57
53 101 56
53 105 58
54 107 59
52 102 57
56 109 61
52 100 56
57 110 62
52 100 56
55 106 60
60 113 64
57 106 60
56 108 61
60 115 65
54 104 59
57 107 60
55 107 60
59 114 64
52 97 55
56 108 61
57 105 60
58 108 61
54 105 59
56 104 59
55 104 59
52 98 55
54 102 58
53 99 56
51 94 54
49 93 53
48 92 51
48 92 52
47 88 50
53 94 53
48 93 52
49 90 51
48 88 50
43 81 46
44 85 48
48 89 50
46 86 48
43 78 44
43 80 46
46 83 47
43 80 45
40 78 44
39 71 40
0 0 0
0 0 0
0 0 0
0 0 0
0 0 0
0 0 0
0 0 0
0 0 0
0 0 0
0 0 0
0 0 0
44 12 12
93 26 25
90 25 24
93 27 25
98 27 26
100 28 27
100 27 27
104 28 27
103 29 28
101 28 27
104 29 28
110 31 30
110 30 29
99 28 27
110 30 29
111 31 30
113 31 30
110 31 30
120 33 31
116 31 31
111 30 29
118 33 32
116 32 31
116 32 31
122 32 31
120 33 32
121 33 32
127 35 34
126 34 33
126 34 33
124 32 31
120 32 31
131 34 33
122 31 31
119 30 30
126 31 31
122 31 31
126 32 31
120 30 30
128 33 32
130 33 32
117 30 29
127 33 32
120 31 31
119 31 30
125 33 32
108 28 28
116 31 30
120 30 30
117 31 30
116 46 46
121 91 91
121 95 94
118 92 92
116 95 94
112 95 93
115 98 94
123 106 104
118 100 98
116 100 98
115 97 96
118 97 96
121 104 102
119 99 98
124 106 104
122 105 103
123 102 101
120 101 100
106 55 54
92 25 25
95 26 26
92 24 23
95 27 26
88 24 23
136 128 127
142 137 136
141 138 135
144 140 139
137 132 131
145 142 141
155 152 151
154 149 148
131 129 127
146 144 143
142 139 137
147 145 142
142 145 141
145 144 142
156 154 151
159 157 155
155 152 150
149 149 147
146 140 139
159 158 156
159 158 157
161 159 158
156 151 150
160 159 157
143 142 140
153 153 151
155 153 153
164 162 160
158 157 155
166 164 163
155 154 151
164 163 160
168 167 166
166 164 162
169 167 165
166 167 164
166 165 163
177 177 175
165 165 163
159 159 157
162 161 159
162 163 160
173 171 169
142 142 139
161 163 161
172 172 170
156 156 154
162 163 161
175 175 172
162 161 158
175 175 174
170 171 170
150 153 148
132 138 131
137 141 135
133 139 131
135 136 131
139 144 136
140 145 138
134 136 131
131 136 127
137 140 134
131 137 127
133 141 132
125 127 121
127 134 126
125 129 123
131 139 130
128 133 125
128 134 126
132 136 128
133 136 131
119 122 115
132 137 130
122 132 122
134 138 131
123 130 121
121 127 119
125 132 125
120 124 116
130 136 127
121 126 119
116 126 115
123 131 122
125 134 123
122 128 119
115 124 114
124 132 122
121 126 118
124 133 122
124 132 123
116 126 115
114 123 113
116 124 115
122 129 119
111 122 111
117 128 117
116 123 114
114 125 113
116 125 115
115 122 112
112 120 110
114 122 113
113 118 109
109 119 108
114 126 114
114 126 113
112 124 112
111 122 110
110 118 109
105 116 105
106 117 104
107 121 106
105 119 106
108 119 107
105 115 103
108 119 108
102 111 102
101 112 101
99 109 96
95 107 94
48 94 52
48 90 50
49 96 53
50 96 54
53 102 57
53 103 57
52 101 56
54 105 59
57 109 61
55 106 60
55 109 61
54 106 59
53 103 58
55 105 59
55 107 60
53 103 57
53 102 57
55 105 59
57 108 61
57 110 62
55 105 60
57 108 60
57 106 60
54 103 58
51 98 55
54 102 58
54 104 58
57 110 62
57 105 60
52 96 54
52 99 56
50 96 54
52 98 56
52 98 55
48 90 51
47 89 50
50 96 54
46 85 48
44 83 46
50 91 52
49 89 50
47 87 49
48 86 49
46 83 47
47 87 49
44 81 46
45 81 46
41 75 43
37 72 41
38 71 40
0 0 0
0 0 0
0 0 0
0 0 0
0 0 0
0 0 0
0 0 0
0 0 0
0 0 0
0 0 0
0 0 0
39 10 10
95 27 25
95 27 26
100 28 27
92 26 25
99 28 27
91 26 25
99 28 27
104 28 28
100 28 27
102 28 27
102 29 27
100 27 26
106 29 28
110 31 30
112 31 30
111 31 30
116 33 31
114 31 30
116 31 30
129 35 34
123 33 32
121 33 32
121 33 32
120 33 32
119 32 32
122 33 32
127 33 32
126 34 33
127 34 33
123 32 32
130 33 33
117 31 30
122 31 31
122 31 31
120 30 30
122 31 31
124 32 32
119 30 29
123 31 31
126 31 31
127 32 32
118 30 30
124 33 32
121 31 31
118 30 30
117 31 30
114 30 29
110 28 28
118 31 30
116 50 50
110 89 87
118 97 96
118 91 90
115 92 90
118 93 92
115 95 95
112 92 91
117 96 95
122 98 97
120 100 98
114 97 95
116 102 101
118 97 97
130 114 113
117 102 100
122 101 100
127 109 107
97 52 52
86 25 25
95 32 32
91 23 23
93 26 26
102 37 37
144 139 138
141 137 136
143 143 141
140 138 136
147 143 142
152 149 147
149 143 142
148 141 140
152 147 146
144 141 141
146 145 143
147 143 142
158 158 156
156 153 151
156 153 151
151 148 146
151 151 149
169 168 167
160 158 156
142 143 138
156 155 154
156 154 152
160 158 156
161 163 161
148 146 145
154 153 151
160 159 157
155 153 151
149 147 145
152 152 149
168 165 164
162 163 160
162 161 159
163 160 158
159 158 156
171 171 168
171 171 169
161 162 159
159 160 157
164 162 160
161 161 160
159 160 157
159 159 157
169 168 166
171 170 168
164 164 161
169 169 167
157 156 154
163 164 161
161 160 157
156 160 156
163 164 160
142 144 140
135 136 131
139 141 136
135 137 130
130 135 128
135 140 133
126 128 123
131 133 128
139 141 136
139 142 137
134 139 133
125 128 121
132 136 130
137 139 133
125 132 124
129 133 125
129 134 127
133 141 132
127 135 125
123 129 121
135 139 132
123 131 122
124 130 121
132 137 130
119 125 117
129 136 127
120 127 119
123 128 120
125 131 124
121 126 119
123 129 121
121 128 119
127 136 126
129 134 128
120 127 119
119 128 119
120 126 117
117 122 113
115 120 112
115 125 113
114 124 114
119 127 117
123 128 120
115 125 114
114 124 114
111 124 112
112 122 111
118 127 118
119 128 117
111 123 110
106 114 105
105 117 105
107 118 107
106 116 105
109 122 108
108 118 106
109 115 105
108 119 107
105 116 103
107 118 105
112 118 110
105 115 104
103 112 101
105 118 105
98 113 99
104 111 101
106 120 108
106 115 103
97 116 97
46 88 48
50 99 54
51 97 53
47 92 51
51 98 54
54 107 59
52 103 57
54 104 58
51 98 55
52 99 55
55 105 59
52 101 56
58 113 63
55 107 59
57 108 61
56 109 61
54 105 59
56 107 60
53 104 57
56 108 61
54 105 59
58 109 62
56 109 61
53 102 57
53 99 56
52 100 56
53 98 56
52 99 56
51 97 54
51 98 55
50 94 53
49 92 52
47 90 50
53 99 56
51 95 53
47 88 50
51 91 52
44 83 47
47 91 51
46 87 49
43 83 47
44 81 46
46 86 48
46 86 49
41 80 45
42 78 44
41 77 44
44 79 45
37 71 40
35 62 35
0 0 0
0 0 0
0 0 0
0 0 0
0 0 0
0 0 0
0 0 0
0 0 0
0 0 0
0 0 0
0 0 0
50 14 14
90 24 24
91 25 25
92 26 25
93 26 25
99 26 26
94 26 25
102 28 27
90 25 24
105 29 28
107 29 28
110 31 29
102 28 27
106 30 29
110 30 29
106 29 28
114 31 30
116 32 31
112 31 30
116 32 31
122 34 33
114 32 30
118 32 31
118 32 31
117 33 31
116 32 31
120 33 32
110 31 30
122 32 32
120 33 31
120 31 30
122 32 31
117 30 30
120 31 31
125 30 30
126 33 33
124 31 31
125 31 31
121 30 30
126 32 31
120 30 29
125 31 30
119 30 30
122 31 31
126 33 33
120 30 30
115 30 29
118 30 30
119 32 31
108 29 28
117 48 47
112 93 92
118 94 93
113 94 92
118 94 93
115 96 95
113 94 93
117 97 96
120 103 102
112 95 93
114 98 97
119 102 100
121 99 98
122 105 105
119 101 101
111 100 99
128 107 106
120 110 108
99 49 48
99 29 29
98 30 30
98 34 33
92 33 33
94 33 33
128 120 119
139 135 133
151 147 146
151 148 148
151 148 147
136 133 131
157 155 153
140 138 136
131 130 127
149 145 143
151 148 147
151 150 148
153 151 149
141 140 136
145 142 140
145 143 141
148 147 146
150 146 145
152 148 146
157 154 152
150 151 148
157 155 154
164 163 161
152 149 148
168 165 164
156 155 153
164 164 162
153 153 150
150 150 148
161 160 158
148 148 146
161 161 158
161 159 157
156 157 155
169 170 167
150 152 148
164 164 161
155 154 153
162 162 160
156 156 153
167 168 164
169 169 166
150 153 148
159 161 157
169 168 166
169 168 166
165 165 163
160 162 159
168 168 166
167 168 165
167 167 165
174 176 173
150 151 147
132 137 130
132 136 129
127 128 122
133 139 133
129 133 126
131 133 128
135 141 133
134 140 133
130 134 129
131 132 124
131 135 127
127 132 124
139 142 137
137 140 135
128 132 125
128 132 126
123 129 121
126 131 125
134 138 131
122 130 121
127 133 125
130 136 129
128 136 128
130 137 129
122 130 121
127 130 124
124 131 122
125 132 123
121 127 120
121 125 118
128 136 128
121 133 120
119 127 117
119 126 118
114 121 113
119 124 116
120 131 120
119 127 117
113 120 112
122 129 120
122 131 123
120 129 120
115 121 111
116 126 116
116 124 115
113 123 111
116 127 115
118 127 117
112 119 109
109 119 108
112 118 109
109 120 109
109 120 108
110 119 108
111 121 110
109 122 109
110 115 106
118 129 117
107 111 103
103 113 101
109 119 109
102 113 101
100 108 97
104 114 102
103 114 102
108 118 107
98 110 97
105 118 104
48 95 52
53 103 57
50 97 54
48 94 52
52 103 57
54 103 57
54 106 59
53 101 56
55 108 60
55 104 59
56 108 61
54 108 60
56 106 59
57 110 62
56 107 61
57 109 62
58 109 61
56 105 59
53 104 58
58 108 61
58 109 61
56 102 58
57 110 62
57 107 60
52 98 55
54 105 59
52 96 54
51 98 54
49 94 53
51 96 54
50 95 54
50 94 53
49 93 53
49 89 50
51 94 53
49 89 50
53 98 55
50 93 52
48 89 50
48 88 50
49 92 52
47 88 50
41 79 44
43 78 44
43 82 46
42 76 43
41 76 43
41 77 43
41 73 42
35 65 37
0 0 0
0 0 0
0 0 0
0 0 0
0 0 0
0 0 0
0 0 0
0 0 0
0 0 0
0 0 0
0 0 0
48 14 13
95 26 25
92 26 25
93 26 25
95 27 26
95 27 26
96 27 26
99 28 27
102 28 27
102 28 27
101 28 27
105 29 28
103 28 27
111 31 29
111 30 29
109 31 29
103 28 27
110 30 29
110 30 29
113 32 31
116 32 31
115 31 30
119 32 31
116 31 30
120 32 31
117 31 30
123 33 32
119 32 31
114 31 29
123 33 32
123 32 31
127 33 32
126 33 33
123 30 30
119 30 30
122 31 31
130 32 31
123 31 31
119 29 29
126 31 31
115 29 29
126 32 32
125 31 31
125 33 32
112 30 29
115 30 30
116 30 30
110 29 28
116 31 30
109 29 28
107 40 39
110 91 90
113 93 93
114 90 89
117 98 97
116 91 91
117 95 94
116 95 94
120 99 98
121 101 99
117 104 102
113 96 95
120 100 99
120 100 97
118 102 100
120 105 103
129 106 104
126 107 106
101 59 58
97 29 29
93 25 25
97 35 34
91 28 27
98 35 34
142 129 128
140 135 135
144 137 137
144 140 139
153 152 151
143 139 138
157 150 149
149 143 141
144 140 139
148 144 143
140 136 133
146 142 139
138 136 133
144 146 143
148 143 141
149 146 145
150 149 147
158 156 155
157 153 152
149 146 144
151 151 149
156 156 155
154 149 148
157 150 149
162 160 158
144 142 140
156 154 153
155 153 151
158 157 155
149 149 147
161 161 159
154 154 151
156 153 150
158 156 154
153 155 152
167 167 165
162 162 160
148 148 145
155 156 152
153 154 150
147 148 145
148 150 146
150 150 146
148 149 148
154 155 151
165 167 163
153 154 151
162 164 161
163 164 159
168 167 166
160 162 158
165 169 164
152 156 151
133 137 132
130 130 124
133 136 130
129 132 125
132 136 131
131 133 126
127 129 125
133 137 130
132 135 128
135 142 135
133 133 128
131 132 126
132 136 128
131 135 129
135 141 134
127 130 123
130 130 125
133 140 131
134 137 132
123 130 121
129 134 128
128 135 127
127 134 126
134 140 133
131 136 129
124 134 123
130 135 128
128 136 127
123 129 120
116 126 115
122 128 121
125 133 124
123 130 121
121 130 121
118 127 116
116 126 116
114 126 114
117 125 115
119 129 119
118 126 117
116 125 115
114 122 113
120 123 115
114 123 113
115 123 114
114 124 113
113 123 113
114 121 112
115 118 110
116 127 115
106 118 106
108 119 108
112 120 112
109 122 109
110 120 109
104 118 103
105 118 104
107 117 106
103 113 102
105 117 104
106 120 106
100 111 99
99 117 101
99 116 100
99 113 99
102 111 102
98 112 98
92 104 91
48 93 52
50 98 54
52 99 55
53 103 57
51 101 56
52 100 56
52 103 58
57 110 61
54 105 59
54 103 58
55 108 61
56 112 62
56 108 61
53 101 57
57 110 62
57 111 62
56 108 61
59 111 63
58 113 64
56 109 61
53 102 57
56 105 59
56 108 61
55 103 58
52 102 57
55 103 58
53 100 56
54 102 58
49 95 53
49 94 53
53 101 57
50 94 53
51 95 54
50 92 52
49 92 52
50 91 52
52 96 54
47 89 50
47 90 51
46 84 48
42 82 46
46 87 49
46 83 47
45 82 46
43 78 44
41 75 42
45 81 46
43 79 45
46 82 46
35 63 36
0 0 0
0 0 0
0 0 0
0 0 0
0 0 0
0 0 0
0 0 0
0 0 0
0 0 0
0 0 0
0 0 0
44 12 12
96 27 26
100 28 27
93 26 25
96 27 26
101 28 27
95 26 25
105 28 27
103 29 28
102 29 27
102 28 27
99 27 26
103 29 28
107 29 28
115 32 31
106 29 28
109 29 28
111 31 30
115 32 31
118 32 31
115 32 31
116 32 31
119 31 31
117 32 31
120 33 32
116 32 30
122 33 32
119 32 31
121 32 31
118 31 30
121 31 31
124 34 33
125 32 32
130 34 33
124 31 31
125 32 31
128 31 31
123 31 31
126 31 31
120 30 30
129 32 32
127 32 32
121 31 31
119 29 29
116 29 29
116 31 30
118 31 30
116 30 30
111 30 29
112 29 29
111 46 45
119 97 96
112 94 92
114 96 96
112 91 89
123 96 96
117 94 93
116 100 99
123 103 103
121 102 101
116 94 93
115 102 100
119 100 99
123 104 104
115 100 97
119 106 105
119 99 97
114 99 96
94 57 57
93 29 28
96 39 39
90 26 25
90 26 26
95 31 30
127 121 120
152 148 147
142 139 137
145 141 140
139 135 133
146 146 143
139 136 134
143 143 141
128 127 125
149 149 147
154 152 151
138 138 136
145 141 140
140 137 135
148 144 143
139 136 135
153 147 145
144 141 139
145 144 142
151 145 144
147 146 143
151 149 148
155 151 150
161 161 159
145 145 143
144 142 141
159 155 154
164 164 162
146 144 142
155 156 154
159 154 153
159 157 155
161 160 159
157 156 154
157 158 155
152 152 149
150 151 148
165 164 161
163 162 159
165 164 161
164 164 161
164 167 164
156 160 156
164 165 162
163 165 162
161 163 160
161 162 159
154 157 153
168 170 167
155 155 152
167 166 164
152 156 150
158 158 155
138 144 135
122 127 120
133 135 131
129 131 125
125 128 120
122 130 122
136 141 135
133 138 131
127 133 126
131 135 127
143 149 141
129 135 126
127 134 126
130 134 127
133 139 131
125 131 124
122 127 119
129 134 127
126 133 125
130 135 127
126 133 125
133 137 131
126 130 123
124 130 122
122 131 120
125 134 125
124 130 123
127 132 125
114 118 111
123 128 119
123 129 122
120 128 120
122 131 122
121 126 119
119 128 118
128 132 126
118 125 116
115 124 113
119 126 117
119 128 118
111 122 111
115 124 113
119 127 118
117 126 117
114 122 112
107 118 107
111 122 111
113 125 113
112 124 112
113 124 113
105 114 103
115 121 113
117 129 117
115 120 112
107 119 107
112 118 108
110 120 109
106 118 106
109 122 108
107 117 106
101 115 101
109 121 109
102 115 102
105 116 104
101 113 101
108 118 108
101 115 102
89 107 89
48 95 53
48 95 52
51 99 55
54 106 59
52 99 55
52 101 56
54 105 58
55 105 59
54 100 56
52 102 57
54 104 58
54 104 58
54 104 59
58 111 62
57 107 61
55 107 60
56 111 62
57 105 60
55 105 59
55 105 59
57 108 61
56 107 59
55 106 60
56 108 61
52 100 56
51 97 55
54 102 57
52 101 56
53 99 56
50 95 53
52 98 56
48 92 52
50 96 54
51 94 53
48 91 51
49 90 51
48 90 51
45 86 49
50 92 52
47 84 48
43 81 46
44 81 46
48 89 51
46 85 48
43 78 44
45 82 46
47 82 46
43 77 44
43 78 43
36 65 37
0 0 0
0 0 0
0 0 0
0 0 0
0 0 0
0 0 0
0 0 0
0 0 0
0 0 0
0 0 0
0 0 0
48 13 13
84 23 23
93 26 25
101 28 27
94 26 25
97 27 26
98 28 26
100 28 27
99 28 27
111 30 29
100 28 27
104 28 27
104 29 28
110 30 30
119 32 32
106 29 28
111 31 30
114 32 30
116 32 31
113 31 30
118 33 32
112 31 30
120 33 31
119 32 32
117 32 31
116 31 30
116 31 31
124 33 32
117 31 30
124 33 32
124 32 32
122 32 31
125 32 31
126 31 31
122 32 31
122 31 30
119 30 30
125 32 31
122 31 30
119 30 29
121 30 30
120 31 31
126 31 31
119 30 30
111 29 28
122 32 31
120 31 31
123 32 31
117 31 30
113 30 29
114 42 41
118 96 95
117 93 91
116 96 95
113 96 93
112 90 89
116 97 95
114 96 95
120 103 102
115 98 97
112 94 93
117 104 102
116 98 97
117 102 100
117 102 100
124 103 102
119 102 99
120 102 101
101 58 57
94 24 24
94 27 27
86 25 24
97 28 28
95 25 24
132 120 119
133 129 128
140 134 132
145 139 137
138 135 134
135 130 129
145 143 141
147 146 144
143 141 140
149 145 143
156 155 152
143 142 139
148 143 143
151 150 149
157 155 153
143 144 141
142 139 137
150 147 146
152 152 150
147 145 142
147 146 144
148 145 143
158 155 153
149 143 141
155 152 151
145 144 142
152 149 148
162 161 159
154 150 149
151 151 150
159 160 158
151 154 149
158 157 154
161 161 159
151 152 148
159 160 157
158 159 156
161 160 159
149 150 146
157 158 155
150 150 148
169 169 167
168 166 165
165 167 163
157 156 154
156 157 153
162 163 159
163 163 160
161 163 160
164 166 163
165 164 160
155 159 155
152 151 147
129 135 127
132 134 127
132 134 129
126 129 122
133 136 130
135 139 132
133 135 128
139 144 138
127 131 125
134 137 132
130 136 128
129 132 125
136 139 134
134 140 133
125 132 121
126 133 125
124 130 122
129 136 128
127 133 126
120 128 118
120 124 119
126 132 124
123 129 121
125 131 121
128 135 126
115 123 114
122 131 120
125 133 124
118 124 115
121 127 119
120 128 120
121 128 120
129 137 128
121 128 120
120 129 119
120 127 119
115 123 115
115 125 115
118 126 116
117 130 117
118 125 115
113 121 112
119 126 118
110 119 108
114 126 114
110 118 108
112 122 112
117 126 116
112 122 111
111 121 111
109 120 109
112 119 111
111 122 110
113 125 113
105 117 105
108 117 107
105 119 104
106 121 107
117 127 116
104 113 102
104 116 104
101 112 98
107 116 105
100 112 100
102 112 101
108 115 105
99 113 99
102 114 101
48 94 51
50 99 55
51 102 57
52 103 57
53 104 59
51 101 56
52 100 56
54 103 58
54 102 57
55 107 60
53 104 58
56 110 61
54 106 59
55 103 58
58 112 63
56 108 61
54 105 59
52 96 54
55 105 59
57 109 61
59 110 63
58 112 63
53 104 58
55 105 59
54 104 58
53 101 57
52 102 57
53 101 57
51 96 54
50 96 54
50 97 54
53 97 55
48 90 50
48 91 52
48 91 51
48 90 51
51 95 54
44 82 46
48 91 51
49 89 51
47 85 48
47 89 50
44 83 47
43 82 47
41 79 44
45 82 46
42 79 44
43 77 43
44 79 45
34 62 35
0 0 0
0 0 0
0 0 0
0 0 0
0 0 0
0 0 0
0 0 0
0 0 0
0 0 0
0 0 0
0 0 0
37 10 9
96 27 26
96 27 26
89 25 24
92 26 25
103 28 27
93 26 25
102 29 28
98 27 26
101 29 27
107 29 29
99 27 26
106 29 28
109 30 29
113 31 30
115 31 30
111 31 29
107 30 29
112 31 30
115 31 31
109 28 28
118 32 31
118 32 31
121 33 32
116 32 31
120 33 32
118 32 31
127 34 33
118 31 30
128 34 33
124 33 32
125 32 32
120 31 31
125 31 31
120 30 30
122 30 30
122 31 30
117 30 29
123 30 30
121 31 31
130 33 32
119 30 30
116 30 29
119 30 30
117 30 30
114 29 28
116 30 30
121 32 31
104 28 27
113 30 29
116 49 48
118 97 96
113 90 89
111 92 91
123 95 93
118 97 96
115 96 95
112 94 93
117 97 96
114 95 93
119 101 99
120 98 98
124 106 105
123 101 100
117 103 102
118 100 99
115 98 96
119 105 102
95 59 58
94 24 24
90 28 27
94 25 25
81 24 23
92 26 25
134 129 126
138 136 134
142 138 136
140 135 133
138 134 132
142 136 135
146 142 140
147 140 140
137 134 132
156 151 150
139 135 134
139 135 133
150 146 145
134 132 131
133 133 130
147 144 143
160 158 156
147 144 142
139 138 134
146 149 144
156 154 152
152 152 149
152 148 147
152 151 149
156 155 154
158 157 155
148 148 145
150 149 147
154 152 150
148 146 144
159 159 156
150 147 145
155 154 152
154 151 149
151 151 147
158 158 155
154 153 151
148 146 145
150 151 148
146 147 143
145 144 142
159 161 158
160 161 158
159 157 155
157 158 154
160 163 158
156 157 154
153 154 152
151 153 150
153 155 150
162 162 160
152 153 149
145 147 143
126 126 121
133 136 130
128 132 126
138 139 135
135 136 131
134 141 132
132 137 129
133 138 130
127 135 126
124 131 124
127 133 126
136 139 134
129 135 127
124 128 121
132 135 130
121 125 119
124 128 121
129 137 129
125 130 123
128 131 126
126 133 125
127 131 125
125 134 124
124 129 122
125 132 125
125 130 123
117 123 116
124 131 124
120 128 118
120 129 119
125 135 126
120 126 117
119 126 118
118 127 117
116 123 115
122 127 119
118 126 116
117 123 114
117 124 114
120 129 119
117 128 116
119 127 117
112 121 112
111 121 110
116 122 113
106 115 105
114 126 115
115 126 114
114 121 113
112 121 111
107 119 108
111 122 111
112 124 112
112 118 109
106 117 106
105 117 105
107 120 107
101 114 101
104 117 104
102 119 103
102 114 101
104 118 104
99 113 99
100 115 101
102 115 102
103 116 103
98 111 98
97 110 97
46 90 50
48 96 53
49 97 53
51 100 56
51 101 56
52 100 56
53 103 57
54 105 59
56 107 60
53 104 58
54 104 58
58 111 62
55 107 60
56 109 61
57 108 61
55 108 60
57 110 62
58 111 63
56 110 61
54 107 59
53 104 58
57 106 60
55 106 60
55 104 59
57 107 61
55 103 58
53 101 56
55 106 59
52 98 56
53 97 55
51 98 55
52 100 57
46 89 50
49 91 51
48 90 51
45 87 49
46 88 50
47 87 49
44 83 47
45 82 46
44 85 48
46 82 47
44 82 47
44 83 47
41 79 45
43 78 44
41 76 43
43 79 45
40 72 41
34 62 36
0 0 0
0 0 0
0 0 0
0 0 0
0 0 0
0 0 0
0 0 0
0 0 0
0 0 0
0 0 0
0 0 0
37 9 9
93 27 25
99 27 26
96 27 26
96 27 25
95 27 26
100 27 27
102 28 27
102 29 28
99 27 27
100 27 27
107 29 28
108 30 29
110 30 29
110 30 29
109 30 29
111 30 29
109 30 29
115 32 30
115 31 30
112 31 30
118 32 31
121 32 31
117 32 31
114 31 30
118 33 32
115 31 30
123 33 32
126 33 32
122 32 31
125 32 32
123 32 31
119 31 30
124 31 30
121 31 31
125 31 31
125 30 30
125 31 31
121 31 31
128 32 31
126 30 30
118 30 30
118 29 29
118 30 30
118 30 30
113 29 28
114 29 29
112 30 29
112 29 28
112 30 29
111 42 42
116 93 92
112 95 94
114 94 93
120 94 93
123 95 94
114 95 93
117 98 96
115 92 91
112 96 95
117 102 101
117 98 97
118 99 99
112 96 94
118 100 99
121 103 102
117 101 100
120 104 102
101 64 62
98 29 28
97 27 27
89 30 30
91 25 23
91 27 26
129 120 119
139 136 134
130 127 126
131 127 126
135 136 133
138 136 133
130 130 128
137 133 131
144 140 139
139 134 132
136 134 132
140 139 136
150 148 147
147 146 145
139 135 134
144 141 140
154 152 151
151 151 148
146 142 141
147 146 144
149 150 148
149 147 145
151 150 148
159 159 157
159 158 156
148 147 145
155 153 152
153 151 149
159 159 157
158 156 154
158 159 156
155 153 151
157 158 156
158 157 155
150 150 148
165 163 161
158 159 155
153 152 150
162 161 159
140 143 139
152 153 149
167 168 165
154 155 152
160 160 157
157 154 152
145 146 143
156 158 155
165 164 162
159 162 158
161 162 159
155 156 153
164 164 161
151 154 149
139 144 137
130 134 127
126 130 124
125 129 122
139 141 135
130 132 126
128 134 125
125 130 124
126 128 122
127 133 125
131 137 128
129 135 126
132 134 128
130 133 126
123 132 122
126 130 124
126 132 123
127 132 126
127 133 125
125 130 122
123 133 123
134 138 131
129 135 127
128 134 126
128 136 128
113 121 112
127 134 125
129 133 127
122 124 119
125 132 123
119 126 118
125 133 125
125 131 122
114 122 114
118 126 116
115 126 114
116 125 116
125 130 123
119 127 117
120 126 118
119 126 118
119 129 119
118 128 118
112 122 111
110 118 108
118 125 117
110 122 111
113 122 112
114 125 114
108 120 108
119 129 118
113 122 113
108 118 107
112 119 110
110 122 110
112 123 111
112 126 113
111 120 109
102 112 101
108 120 107
109 120 109
107 118 106
100 113 99
103 113 102
101 117 102
101 112 101
101 111 98
93 109 93
49 96 53
52 102 56
49 94 52
53 105 58
53 104 58
52 98 55
54 103 57
50 98 55
54 105 58
55 108 61
54 107 59
60 112 63
56 108 60
57 110 62
53 101 56
54 103 58
56 105 60
53 105 58
54 101 57
56 108 61
56 106 60
55 105 59
54 104 58
54 103 58
55 103 58
54 103 58
52 99 56
54 104 59
53 101 57
53 99 55
53 101 57
51 97 55
46 87 49
47 90 50
50 92 51
49 92 52
49 89 51
48 88 50
48 89 50
46 87 48
48 88 49
38 75 42
41 77 43
42 80 45
43 79 44
39 76 42
39 73 41
40 73 41
43 79 45
40 72 41
0 0 0
0 0 0
0 0 0
0 0 0
0 0 0
0 0 0
0 0 0
0 0 0
0 0 0
0 0 0
0 0 0
49 13 13
90 25 24
100 28 27
97 27 26
92 26 25
103 28 27
100 28 27
101 28 27
99 27 26
99 27 26
97 27 26
105 29 28
113 31 30
100 28 27
111 32 30
115 31 31
104 27 26
111 31 29
116 31 30
109 30 29
117 32 31
116 31 30
121 32 31
116 31 31
117 32 31
118 32 31
118 32 31
117 31 30
124 31 31
120 32 31
125 31 31
123 32 31
119 31 30
119 30 30
120 30 29
122 30 30
126 31 31
125 31 31
128 31 31
125 31 30
117 29 29
118 30 30
117 30 29
120 31 31
105 27 27
106 27 27
111 28 28
108 28 28
112 29 29
110 29 28
114 48 48
108 86 86
110 94 91
108 86 83
114 94 93
114 92 92
121 96 95
120 100 99
118 97 95
122 105 105
117 100 98
115 103 101
124 103 103
116 97 95
118 107 104
118 101 100
118 104 103
115 100 99
101 60 59
95 27 27
97 31 30
89 26 26
89 32 31
95 28 28
130 117 116
135 131 129
142 140 137
145 141 140
140 138 137
146 144 142
148 143 141
126 120 119
137 137 135
147 143 142
147 144 142
147 144 142
143 139 138
150 150 147
149 142 141
151 147 146
142 138 136
143 140 138
141 140 138
149 148 145
138 136 135
147 141 140
149 149 145
152 149 147
141 139 137
149 145 143
148 146 143
143 144 141
144 140 138
147 146 145
144 144 142
150 149 147
153 151 150
153 152 150
159 159 156
148 146 144
158 157 155
158 159 156
157 156 154
152 153 150
149 150 146
146 146 143
155 159 154
163 162 159
147 146 143
160 161 158
155 157 151
142 145 140
148 151 147
150 149 146
149 151 148
154 156 153
145 147 142
130 135 128
130 133 126
126 129 123
134 138 131
125 130 123
129 133 126
126 131 123
129 136 127
138 140 134
130 136 128
130 135 129
130 136 128
133 139 131
128 130 123
129 133 126
126 133 125
127 135 126
122 131 121
129 134 128
124 132 122
126 135 125
119 124 116
127 129 122
122 131 122
122 131 122
126 134 125
123 128 120
122 127 119
126 130 122
121 128 121
117 125 116
118 126 118
120 128 119
119 128 118
121 128 120
120 128 118
121 130 121
119 130 118
118 128 118
110 118 109
108 119 108
114 122 113
117 124 114
114 120 114
114 123 114
114 124 114
112 122 112
114 122 112
109 118 108
110 121 111
108 116 107
116 126 116
118 128 117
109 122 108
107 121 107
112 122 111
107 118 106
104 116 102
105 120 106
99 110 99
100 112 100
109 118 106
103 115 102
102 113 101
102 112 101
106 117 105
103 115 103
103 115 101
50 98 54
48 94 51
53 104 58
50 101 55
50 99 56
53 102 57
56 109 61
51 98 54
53 107 59
56 109 61
55 105 59
51 100 56
55 106 59
54 106 59
56 102 58
56 108 60
54 104 59
54 100 57
56 108 60
54 102 58
58 112 63
51 96 54
54 105 59
55 103 58
54 104 58
52 101 57
49 94 53
53 99 56
50 93 53
52 100 57
50 92 52
50 96 54
52 99 55
48 93 52
51 98 55
51 91 51
47 90 51
50 95 53
45 86 49
49 89 50
44 83 47
48 88 50
48 91 51
43 79 44
44 80 45
40 74 42
42 77 43
42 78 44
43 78 44
40 74 42
0 0 0
0 0 0
0 0 0
0 0 0
0 0 0
0 0 0
0 0 0
0 0 0
0 0 0
0 0 0
0 0 0
51 15 14
91 26 25
92 27 25
89 25 24
100 28 27
100 28 27
97 26 26
101 29 27
105 30 29
102 28 27
101 27 26
100 28 27
110 31 30
107 30 29
107 29 28
111 30 29
104 29 28
114 31 30
108 30 29
115 31 30
112 31 30
115 31 30
113 30 29
113 30 30
118 32 31
118 33 31
123 34 33
117 30 30
122 32 31
121 31 31
122 32 31
117 30 30
120 31 30
122 31 31
115 29 29
123 31 31
123 30 30
127 31 31
119 30 30
120 29 29
127 31 31
120 30 30
118 30 30
113 29 28
113 29 28
111 28 28
104 26 26
103 27 27
119 31 30
116 30 30
108 42 41
113 92 89
113 91 91
115 94 93
113 94 93
113 98 96
110 92 91
120 94 94
112 96 95
114 97 95
120 104 103
121 97 95
116 102 100
117 100 98
120 105 104
113 100 97
117 99 98
121 101 100
96 54 53
84 33 33
94 30 30
97 33 33
96 26 25
89 25 24
137 129 129
126 123 121
138 134 132
128 126 125
138 131 129
132 127 125
138 133 131
134 130 129
147 144 142
144 138 136
140 136 135
144 138 136
145 144 142
145 144 143
143 142 140
141 141 139
143 139 137
147 143 141
151 148 147
141 139 138
144 143 140
145 145 142
142 136 135
140 139 136
146 143 141
153 152 150
151 151 148
137 135 132
153 149 148
150 148 146
153 153 151
149 143 141
157 155 154
154 152 150
150 150 148
150 151 148
155 153 151
160 157 155
149 149 145
155 154 152
138 138 135
148 150 146
156 156 153
147 143 142
151 151 147
152 152 149
153 154 150
148 149 144
146 146 142
148 151 146
161 163 160
151 153 149
149 151 148
126 131 124
135 138 132
128 132 126
124 129 123
126 131 123
125 132 124
128 132 125
131 138 129
126 127 121
118 124 116
119 124 117
131 136 129
117 123 116
126 133 125
136 138 133
127 133 126
133 140 133
126 132 124
123 127 120
129 133 125
128 131 124
123 129 120
126 130 123
124 130 122
133 142 133
129 134 126
120 124 116
122 128 121
120 125 119
122 127 120
124 130 123
126 132 124
113 121 112
117 126 117
123 129 122
120 126 117
116 125 115
113 121 113
118 128 118
115 124 115
117 126 116
113 120 113
115 128 115
116 126 115
115 120 112
116 126 117
110 121 109
110 119 109
111 117 108
106 116 104
116 127 116
113 124 112
104 117 105
109 119 108
112 120 111
106 114 103
105 115 103
107 117 108
112 122 111
106 117 107
107 120 108
107 119 107
109 122 109
102 116 102
107 119 107
101 109 99
100 113 100
97 111 97
48 93 52
48 95 53
50 98 54
53 103 57
51 98 55
56 107 60
53 105 58
52 103 57
55 105 59
56 109 60
56 109 61
54 103 57
52 101 57
55 107 59
55 106 59
52 102 57
57 106 60
54 105 59
54 106 59
54 105 59
57 106 60
57 107 61
55 105 59
54 104 58
56 107 60
52 103 57
56 106 60
55 102 58
54 101 58
47 89 49
51 95 54
50 95 54
54 101 57
50 92 52
45 84 47
46 89 50
48 88 50
47 87 49
48 88 50
46 90 50
46 86 49
47 85 48
45 82 46
43 76 43
44 82 47
43 81 46
40 77 43
41 75 42
41 77 44
33 62 35
0 0 0
0 0 0
0 0 0
0 0 0
0 0 0
0 0 0
0 0 0
0 0 0
0 0 0
0 0 0
0 0 0
51 14 14
95 27 26
94 26 25
96 26 25
101 27 26
104 29 28
99 28 27
102 29 28
102 28 27
93 25 25
102 29 27
109 30 29
115 32 31
108 29 28
108 30 29
113 31 30
110 30 29
118 32 31
116 32 31
112 31 30
115 31 31
118 33 32
113 31 30
121 33 33
116 30 30
121 32 32
123 33 32
116 30 29
121 32 31
122 32 31
121 31 31
118 31 30
122 31 31
125 32 31
123 31 31
121 30 30
118 29 29
123 31 30
114 28 28
120 30 30
123 32 31
119 31 30
113 28 27
114 29 28
116 29 29
98 26 25
103 28 27
109 29 28
112 29 28
110 29 28
113 44 44
112 96 94
120 95 94
115 94 93
114 94 92
113 94 94
113 91 90
111 95 94
114 94 94
115 95 94
111 96 95
121 104 103
123 107 107
116 99 98
116 100 100
117 101 99
120 99 99
119 103 101
106 61 60
93 28 28
90 27 26
93 29 28
89 27 27
88 35 33
128 121 119
143 142 141
137 133 131
140 137 134
130 128 126
141 134 132
133 129 127
137 134 133
148 145 144
140 139 136
155 151 150
143 139 138
149 146 145
147 147 145
143 138 137
139 135 133
140 138 135
151 149 147
148 144 143
143 143 141
138 135 133
152 146 145
146 143 141
151 150 148
149 144 143
145 142 140
157 158 156
162 163 160
134 136 133
151 153 149
148 148 146
148 149 145
149 148 145
142 143 140
156 155 152
156 155 153
149 152 147
154 154 151
152 152 150
157 157 155
149 149 146
150 150 147
154 152 151
144 146 143
153 152 149
154 156 152
158 157 154
172 173 170
146 147 143
154 154 151
150 149 146
153 158 152
156 159 155
135 137 131
128 125 119
130 135 129
126 130 124
129 134 127
129 132 126
129 131 124
131 135 129
130 136 128
125 133 124
116 118 111
129 139 128
129 134 126
127 130 124
131 136 129
127 133 125
127 132 125
120 127 119
126 130 123
130 135 128
118 124 116
128 133 126
122 127 119
119 128 119
125 131 124
116 128 116
128 132 126
122 126 121
119 126 118
122 129 120
119 125 116
114 120 112
129 137 127
119 128 118
120 128 118
116 126 116
112 124 111
112 123 111
114 125 114
120 133 120
120 129 120
112 121 110
113 123 111
114 120 110
110 118 109
117 125 117
117 123 113
110 122 110
110 119 108
110 121 111
110 123 111
110 118 108
111 120 110
107 120 108
102 116 102
114 126 114
105 114 104
101 114 101
107 118 107
104 118 104
101 111 99
110 122 109
103 117 104
102 113 101
98 109 97
106 116 104
100 111 97
96 110 94
49 97 54
47 94 51
48 96 53
48 94 52
51 101 56
51 102 56
52 101 56
54 107 60
56 109 60
53 103 57
51 100 56
54 101 57
56 105 59
52 102 57
54 107 60
57 110 62
55 107 60
56 109 61
55 105 59
55 104 58
52 101 57
53 100 56
53 103 57
55 103 58
53 102 57
54 102 58
53 101 56
53 99 56
52 96 54
53 102 57
49 91 51
55 104 59
47 89 50
49 92 52
48 93 52
47 90 51
46 86 49
46 82 47
46 83 47
47 84 47
47 85 49
44 84 47
43 79 45
43 83 46
43 81 46
43 80 45
44 82 47
42 79 44
43 80 46
38 70 39
0 0 0
0 0 0
0 0 0
0 0 0
0 0 0
0 0 0
0 0 0
0 0 0
0 0 0
0 0 0
0 0 0
33 9 9
93 25 25
98 27 26
96 27 26
104 29 28
95 27 25
95 27 26
97 27 26
96 27 26
105 30 29
106 30 29
103 28 27
100 27 26
104 29 28
114 31 30
116 32 31
111 30 29
113 32 30
118 33 32
115 32 31
115 31 31
115 31 30
124 34 33
116 32 31
110 29 29
114 31 30
118 32 32
119 31 31
117 30 30
118 32 30
122 31 31
123 32 31
123 32 31
117 31 30
123 31 31
122 31 31
120 30 30
120 30 30
120 30 30
120 29 29
123 30 30
121 30 30
113 29 28
112 29 28
104 27 26
103 27 26
104 27 26
106 27 26
111 29 28
113 29 28
114 46 46
120 90 89
114 91 90
111 92 91
113 96 94
114 93 91
119 95 94
116 93 92
115 99 97
113 96 95
117 97 97
110 101 98
115 96 94
114 95 94
122 104 103
117 102 101
119 104 103
117 101 100
98 54 54
86 22 22
87 24 23
95 30 29
90 29 28
88 24 23
132 120 118
134 132 130
140 140 137
125 121 120
134 127 125
134 130 129
130 130 127
145 136 135
137 131 130
134 130 129
133 131 129
139 136 135
147 145 143
150 145 144
133 128 126
143 140 139
148 145 143
140 140 137
141 138 136
137 134 132
146 144 142
145 144 142
136 130 128
135 133 130
141 140 138
148 147 145
151 149 147
147 145 142
150 149 146
146 147 144
144 146 142
151 151 150
154 154 151
145 145 143
144 144 142
154 154 151
147 145 142
152 155 151
153 152 150
155 157 153
161 160 158
156 157 153
157 155 153
155 154 152
157 157 154
145 148 142
148 147 144
151 152 149
151 151 147
159 160 158
146 149 144
159 158 155
152 156 152
129 134 125
131 133 129
131 137 130
135 140 134
125 130 123
134 136 132
127 131 123
131 137 129
125 130 123
127 132 125
130 135 128
131 136 130
127 134 125
122 128 118
126 131 124
127 130 124
131 139 130
119 127 119
120 125 118
124 128 122
125 132 125
126 134 126
121 128 121
121 130 120
125 131 124
123 129 121
117 127 117
123 133 123
121 126 119
121 130 120
118 126 117
118 124 116
122 131 122
124 129 122
120 127 118
121 128 120
119 127 118
117 125 116
114 125 114
113 122 112
116 126 115
118 123 117
120 129 118
116 127 117
113 122 112
110 120 109
115 122 113
109 119 108
119 126 116
110 123 111
113 123 112
109 122 109
105 114 103
111 124 110
109 123 108
104 116 104
103 114 103
108 118 106
112 123 111
102 113 101
102 115 101
106 116 105
106 116 106
100 116 101
102 111 100
106 118 105
107 119 107
93 105 92
46 92 51
49 98 54
51 98 55
49 98 54
55 108 61
54 105 58
53 104 58
55 109 60
53 102 56
53 101 57
55 108 60
53 102 57
53 107 59
54 107 60
56 109 61
55 107 59
53 102 58
55 106 59
56 109 61
54 103 58
56 109 61
54 104 58
53 101 57
54 102 57
53 99 56
55 103 58
53 100 56
50 93 52
53 98 55
50 97 54
52 100 56
50 95 53
48 93 52
48 92 51
48 89 50
47 90 51
49 89 51
46 85 48
48 88 50
44 85 47
42 83 46
40 77 43
47 86 49
43 83 46
41 76 43
41 76 42
44 81 46
41 73 42
40 76 43
36 65 37
0 0 0
0 0 0
0 0 0
0 0 0
0 0 0
0 0 0
0 0 0
0 0 0
0 0 0
0 0 0
0 0 0
38 10 10
97 27 26
94 27 25
98 27 26
104 29 28
97 27 26
103 29 28
99 28 27
105 29 28
106 29 28
103 29 28
98 27 26
108 29 28
104 28 27
106 29 29
117 32 31
112 30 29
107 29 29
116 32 31
114 31 30
119 33 32
121 33 32
116 30 30
114 31 30
113 31 30
123 33 32
116 32 31
117 31 31
120 32 32
120 32 31
122 32 31
123 32 31
116 31 30
121 30 30
127 32 31
118 30 30
119 29 29
121 29 29
119 29 29
121 30 30
113 29 28
116 28 28
108 27 27
103 26 26
109 28 28
97 24 23
108 28 27
103 26 25
115 30 29
105 28 27
110 49 48
109 93 92
116 92 91
110 92 91
113 95 94
112 95 92
114 96 96
112 96 94
109 92 91
114 96 94
111 94 93
120 101 99
114 97 96
121 106 104
114 101 100
114 104 102
112 99 97
116 102 100
95 58 57
82 27 27
91 27 27
97 28 27
92 27 27
94 29 28
132 121 120
145 140 139
134 134 131
132 132 130
142 141 138
140 136 135
143 140 138
144 142 141
141 135 134
140 138 137
144 141 140
145 143 140
134 134 132
141 137 136
131 129 127
147 145 143
130 128 124
141 137 135
140 137 136
136 133 132
140 136 135
133 133 131
137 136 133
139 139 136
150 148 147
141 138 136
140 141 139
152 148 146
159 157 155
154 154 151
149 149 147
139 139 136
133 132 130
147 150 146
152 150 149
149 150 146
151 153 149
148 149 146
146 146 143
143 143 140
161 161 159
152 151 150
153 155 151
164 165 162
156 155 153
151 153 151
152 150 147
148 148 145
162 164 161
164 164 161
158 158 157
153 154 151
145 147 143
127 131 125
130 133 127
125 126 121
140 145 137
123 131 123
136 139 133
130 132 126
126 132 124
129 129 123
126 129 122
126 132 126
130 134 126
128 133 126
132 137 131
127 133 126
127 131 126
129 134 127
125 131 123
124 133 125
121 131 120
127 132 125
127 133 126
122 129 120
123 127 121
133 140 132
122 131 122
122 131 122
120 131 120
128 137 128
127 134 125
133 132 126
122 128 120
122 128 122
123 128 121
121 129 121
123 127 120
117 126 115
118 123 115
114 123 113
113 126 114
111 125 112
116 126 116
114 120 111
110 119 109
112 117 108
113 123 112
118 125 117
113 123 112
108 119 107
110 120 110
105 116 105
104 112 103
102 111 101
108 119 107
105 118 104
103 115 103
109 121 108
106 116 106
102 109 98
107 115 106
103 115 103
101 114 102
100 114 100
104 119 105
101 112 101
101 112 100
97 108 96
95 107 93
48 98 53
50 96 53
49 95 53
52 104 57
50 99 55
50 98 54
54 106 59
54 105 59
52 104 58
54 105 58
54 103 58
57 110 62
53 103 58
51 100 56
57 111 62
53 103 58
55 107 60
55 106 59
54 104 59
55 104 59
54 104 59
51 98 55
55 106 60
53 100 56
54 102 57
50 95 54
51 96 55
54 101 57
53 101 57
51 98 55
50 95 54
51 96 54
49 92 51
46 87 49
45 87 49
49 92 52
45 87 49
47 87 49
43 81 46
46 85 48
47 88 49
42 77 43
46 87 49
45 86 49
44 81 46
42 77 43
44 86 48
42 77 44
42 76 43
35 65 37
0 0 0
0 0 0
0 0 0
0 0 0
0 0 0
0 0 0
0 0 0
0 0 0
0 0 0
0 0 0
0 0 0
44 12 11
98 27 26
98 27 27
99 28 27
96 26 26
96 28 26
102 29 28
101 28 27
95 27 25
105 29 28
97 26 26
103 28 27
111 31 30
104 29 28
111 30 29
105 29 28
117 32 31
107 30 29
112 30 29
110 30 29
112 31 30
117 32 31
116 32 31
120 33 32
118 32 31
110 30 29
111 30 29
110 31 29
117 31 30
127 33 32
120 31 31
120 31 30
123 31 31
119 31 30
118 29 29
116 30 29
120 30 30
114 28 28
112 28 28
118 29 29
107 27 27
111 28 27
116 29 29
104 26 26
104 26 26
110 28 28
103 27 26
104 27 27
105 28 28
106 28 27
112 43 42
117 93 93
113 91 90
118 98 98
116 94 93
114 95 95
106 93 90
115 90 90
110 94 92
121 103 102
111 95 94
116 99 98
117 100 99
112 97 96
115 96 95
115 101 100
110 98 96
114 104 102
97 64 63
86 29 29
83 21 21
93 36 36
88 26 26
85 25 24
128 120 119
133 127 126
128 121 119
141 138 137
143 139 138
131 130 128
145 141 140
140 137 136
142 140 138
147 142 141
134 134 132
135 128 126
145 143 141
136 134 131
132 127 125
140 139 137
134 132 129
134 131 128
138 133 132
152 147 146
150 145 143
140 140 138
145 142 140
146 143 141
140 138 136
147 146 144
144 143 141
151 149 148
134 133 131
139 136 134
154 152 149
156 155 153
147 145 143
147 147 144
144 141 139
159 157 156
143 145 142
151 151 149
157 154 153
142 143 139
157 157 155
158 161 157
144 145 142
141 141 138
142 143 140
163 162 161
144 147 142
154 153 150
159 160 156
154 154 152
148 148 145
150 150 147
147 150 146
137 138 133
137 143 135
127 132 124
133 136 131
133 136 131
129 133 127
127 131 123
123 133 122
127 131 125
129 135 127
124 128 121
128 134 127
130 133 125
123 129 121
131 138 131
128 128 123
124 132 122
124 130 122
124 130 123
123 128 121
130 139 130
118 128 118
121 130 121
117 125 116
123 129 122
117 122 114
127 135 127
119 129 119
117 125 117
117 128 117
118 126 117
119 128 119
113 120 111
118 126 117
119 129 119
120 125 117
117 127 116
119 128 118
113 125 112
116 126 115
115 126 114
115 122 114
115 123 114
113 119 111
118 126 117
116 125 116
113 119 110
109 120 109
112 122 112
108 119 107
105 114 103
113 125 113
106 117 105
110 122 109
113 124 113
113 122 112
112 120 110
104 118 104
103 115 102
108 121 108
102 115 102
104 114 101
103 115 103
106 116 106
103 112 102
100 111 99
98 107 95
98 113 99
45 90 49
48 97 53
52 101 56
48 95 52
50 98 54
54 103 57
53 102 57
52 102 57
55 106 60
52 101 57
50 98 54
53 103 58
55 106 60
56 107 60
52 102 57
58 113 63
53 100 56
56 109 61
56 107 60
54 105 59
54 103 58
52 98 55
54 103 57
52 100 56
55 104 58
52 99 55
51 98 55
52 101 56
49 95 53
50 96 54
50 92 52
51 96 54
51 97 55
49 92 52
47 91 51
49 92 52
51 94 53
45 82 46
45 84 47
44 84 48
48 87 49
43 81 45
46 87 50
45 85 48
46 85 48
41 78 44
42 77 44
43 78 44
44 80 45
37 70 39
0 0 0
0 0 0
0 0 0
0 0 0
0 0 0
0 0 0
0 0 0
0 0 0
0 0 0
0 0 0
0 0 0
48 13 13
94 26 25
93 26 25
93 26 25
94 26 25
104 28 27
93 26 25
97 27 26
105 29 28
107 29 28
100 28 27
102 28 27
110 30 29
107 30 29
102 27 26
104 29 28
106 29 28
103 28 27
117 32 31
113 30 30
114 31 30
118 33 32
119 32 31
119 32 31
110 30 29
122 33 32
117 31 31
118 32 31
116 31 30
114 30 29
118 31 30
118 31 30
123 32 31
119 31 30
123 30 30
122 30 30
124 31 31
114 29 29
119 30 29
119 29 29
117 29 28
109 27 27
111 27 27
110 27 27
98 25 24
95 25 24
87 22 21
102 26 25
106 27 27
106 27 27
109 51 51
112 87 85
111 89 88
113 91 90
113 95 93
102 87 85
113 96 94
116 98 97
111 96 95
113 95 94
113 100 97
117 101 99
117 100 99
118 101 100
119 102 100
114 101 100
118 100 99
115 97 96
92 49 48
86 25 24
95 24 24
78 23 22
93 29 29
87 23 23
125 119 118
131 125 124
139 129 128
132 126 124
131 126 125
138 136 133
137 132 132
141 137 134
130 128 125
140 137 136
138 133 131
124 118 115
142 140 138
143 139 138
140 136 135
148 145 143
148 144 142
149 147 145
140 138 137
136 130 129
143 140 138
143 143 139
147 143 141
151 151 149
136 133 130
147 146 144
146 140 138
150 147 146
145 144 142
147 148 145
151 150 147
147 147 145
143 140 137
137 136 133
152 150 148
142 140 137
149 148 146
152 151 149
157 155 153
137 137 135
145 146 143
144 144 140
143 145 141
146 148 145
143 141 138
143 144 142
157 156 153
149 149 146
148 147 144
157 157 154
156 157 155
129 128 125
137 140 134
125 130 123
126 129 122
132 135 129
129 133 128
127 131 124
127 133 126
133 135 129
130 131 125
128 134 127
122 129 120
128 132 126
132 138 131
125 129 123
123 130 122
118 127 116
125 131 124
122 127 119
126 133 125
129 135 129
117 125 117
118 125 117
121 129 119
126 133 126
120 125 119
125 131 122
125 130 122
119 123 117
124 128 122
117 129 116
121 126 119
117 128 116
124 130 122
118 125 117
124 133 123
125 134 124
115 125 115
118 125 117
114 124 114
114 126 114
118 127 117
127 133 124
113 124 113
111 120 110
119 128 119
115 123 114
112 120 110
109 117 108
110 119 108
112 126 112
116 125 116
114 123 113
115 125 114
106 116 105
109 119 108
106 116 105
108 119 107
104 118 103
109 119 108
105 116 104
108 117 107
106 118 105
105 116 105
101 110 99
99 110 98
101 112 100
102 115 102
100 112 100
94 112 94
48 94 52
50 99 54
52 100 55
49 96 54
52 100 55
55 105 58
51 102 56
55 107 60
55 105 58
53 104 58
52 100 55
56 109 61
56 109 60
54 103 58
54 104 58
54 102 57
55 107 60
55 105 59
55 106 60
57 112 62
54 106 59
53 103 57
58 108 61
54 104 59
51 94 53
53 101 57
53 103 58
56 106 60
51 95 54
51 97 55
48 91 51
52 99 56
47 88 50
48 90 51
47 92 52
51 95 54
47 90 51
45 85 48
44 84 47
45 84 48
48 87 49
45 83 47
46 89 50
41 75 43
42 78 44
40 77 43
43 79 45
41 76 43
44 83 46
34 63 35
0 0 0
0 0 0
0 0 0
0 0 0
0 0 0
0 0 0
0 0 0
0 0 0
0 0 0
0 0 0
0 0 0
49 13 13
92 26 25
99 28 27
90 25 24
100 28 27
96 26 25
105 29 28
99 28 27
94 26 25
99 28 27
108 29 28
104 28 28
103 29 28
113 32 30
106 30 29
115 32 31
110 29 28
105 29 27
111 31 30
109 30 29
120 33 32
113 31 30
118 32 31
111 30 29
116 32 31
124 34 33
110 30 29
122 33 32
115 30 30
120 32 31
121 32 31
115 30 30
126 32 31
118 30 29
118 30 29
117 29 29
112 28 28
117 29 29
119 30 29
117 29 28
114 27 27
111 28 27
104 25 25
108 27 27
98 26 25
95 24 23
87 23 21
94 25 24
97 25 25
104 27 26
114 41 41
113 91 89
115 95 95
112 92 92
117 97 96
107 89 87
115 96 95
112 95 93
113 92 92
109 93 89
115 96 95
116 93 93
112 101 99
114 97 97
116 99 96
111 96 95
113 97 95
120 102 101
97 53 51
89 28 27
91 29 29
90 35 33
93 35 34
86 29 28
122 117 115
128 124 122
136 131 130
129 123 121
131 124 123
140 135 134
141 138 136
128 124 121
139 135 133
136 132 131
132 129 128
132 130 128
123 123 119
139 132 131
136 134 133
139 135 133
139 137 135
132 127 125
143 142 140
147 144 143
143 142 140
137 134 132
145 143 141
138 135 134
143 142 140
148 146 144
146 146 144
149 150 146
157 156 155
152 150 149
151 151 148
146 141 140
137 134 133
149 148 146
142 142 139
141 141 137
142 141 138
139 138 135
152 152 150
147 147 145
154 150 147
141 137 135
141 142 138
147 148 145
156 155 154
153 153 150
149 149 145
142 144 140
151 150 148
149 149 147
141 143 140
144 144 142
144 144 140
132 132 126
127 133 125
128 134 127
120 123 116
121 125 119
134 140 132
128 130 125
128 133 125
131 137 129
139 138 134
124 128 121
129 134 127
123 129 121
132 136 130
125 131 123
127 133 124
133 137 131
123 130 123
125 132 123
124 129 122
120 126 119
123 128 119
129 135 127
128 133 126
128 134 126
132 141 131
118 127 117
119 127 119
118 129 118
113 124 113
126 131 124
114 125 114
114 122 114
114 123 113
118 124 117
119 127 119
110 121 110
117 126 115
108 117 108
115 122 114
114 127 114
115 121 112
110 122 111
116 128 117
110 122 110
117 128 118
111 119 108
112 123 112
111 123 112
117 125 116
109 124 109
106 119 106
108 120 109
109 121 109
119 130 119
105 116 105
110 116 105
105 115 104
103 117 103
112 120 109
104 115 103
103 115 101
99 109 98
99 112 99
102 112 102
102 113 101
102 115 102
95 104 94
50 99 55
47 91 50
49 97 54
52 102 57
51 100 55
51 100 55
53 104 58
50 97 55
54 103 58
51 98 54
53 107 59
56 110 61
58 114 64
55 106 59
54 104 59
56 106 59
55 106 60
59 116 64
55 107 60
54 101 57
49 92 52
57 108 61
53 99 56
53 103 57
54 105 59
50 100 55
53 101 57
49 94 52
51 96 54
53 99 56
52 99 56
48 89 51
47 92 51
48 93 52
50 93 53
47 88 50
49 90 51
47 89 50
44 83 46
44 82 46
44 81 46
45 86 48
44 82 46
41 76 43
43 80 45
44 78 45
40 78 44
42 76 43
43 79 45
39 72 41
0 0 0
0 0 0
0 0 0
0 0 0
0 0 0
0 0 0
0 0 0
0 0 0
0 0 0
0 0 0
0 0 0
47 13 13
98 27 26
92 25 25
91 25 24
90 25 24
92 26 24
104 29 28
106 30 29
103 28 27
99 27 26
100 28 27
105 30 28
103 28 27
110 29 29
106 30 28
107 30 29
111 30 29
108 30 29
119 32 31
111 30 30
114 31 30
116 32 31
117 31 31
119 33 31
109 29 28
117 31 30
118 32 31
123 32 32
116 30 29
121 31 31
126 33 32
121 31 30
121 31 31
120 30 30
122 31 30
111 28 28
115 29 29
119 29 29
114 27 27
120 28 28
115 27 27
101 26 25
97 24 23
100 24 24
103 26 26
98 25 25
89 22 20
94 24 24
101 27 26
107 28 27
115 45 43
115 93 92
110 86 85
114 91 90
114 99 97
113 91 90
112 96 95
112 92 91
111 95 94
112 94 94
113 95 94
111 96 94
114 96 94
113 100 99
113 97 95
116 103 100
111 94 92
115 104 101
97 57 57
88 29 28
89 31 29
91 28 28
89 25 24
89 26 26
121 116 114
131 126 125
134 129 127
143 138 138
129 125 124
141 136 135
131 128 127
143 142 140
130 128 127
139 133 132
131 129 127
142 141 140
143 139 138
139 136 135
139 135 134
146 145 143
130 123 121
138 134 132
138 134 133
143 141 139
141 136 134
141 139 137
146 142 141
139 139 136
147 147 144
146 148 144
148 149 147
148 147 145
139 136 134
153 152 150
145 144 142
150 150 148
138 136 134
139 137 134
147 145 144
144 143 141
150 150 147
145 145 142
149 149 147
149 149 147
152 154 150
138 139 136
155 153 151
150 149 148
155 155 152
150 149 147
152 153 149
144 144 141
149 150 147
141 143 140
136 137 134
141 143 140
124 128 122
127 132 125
125 130 124
126 128 122
130 130 125
123 127 120
130 138 129
120 129 120
128 130 124
131 134 128
129 133 127
120 129 120
131 136 129
122 129 120
133 136 131
128 130 124
120 126 118
123 129 122
128 131 124
127 129 122
121 127 119
120 128 118
125 131 122
125 129 123
123 132 124
126 132 124
117 125 115
122 131 121
118 126 116
118 127 118
118 125 116
115 125 115
118 126 118
112 126 112
121 128 121
114 125 114
119 128 119
115 126 116
114 124 113
111 115 109
122 128 120
110 118 110
115 122 113
110 119 110
115 123 112
114 124 114
111 119 109
114 122 113
112 122 112
108 119 109
111 124 111
110 120 110
105 116 104
112 124 112
115 126 115
108 119 108
111 119 109
102 113 100
104 117 104
95 110 95
103 119 104
100 115 100
107 117 107
108 113 105
104 115 104
106 120 105
96 108 96
101 115 101
92 108 92
49 96 53
47 91 50
50 100 55
50 99 55
54 106 59
50 99 55
54 104 58
53 105 58
51 98 55
53 103 58
53 102 57
51 98 55
53 100 57
51 100 56
55 108 60
57 108 61
57 111 63
56 108 61
53 102 57
52 104 58
51 98 55
56 107 60
54 100 56
55 104 58
50 96 54
55 104 58
48 91 51
52 97 54
54 102 57
50 96 54
48 91 51
50 94 53
49 95 53
51 96 54
51 95 54
45 86 48
46 86 48
47 91 51
45 84 47
46 89 50
44 81 45
45 85 48
43 79 45
44 82 47
40 76 43
42 77 43
42 77 44
42 75 43
39 76 43
38 67 38
0 0 0
0 0 0
0 0 0
0 0 0
0 0 0
0 0 0
0 0 0
0 0 0
0 0 0
0 0 0
0 0 0
42 11 11
90 24 23
95 26 26
97 27 26
98 27 26
98 27 27
102 28 27
100 28 27
102 28 27
100 27 26
99 28 26
102 28 27
103 28 27
108 29 28
108 30 29
105 29 28
104 30 28
107 29 28
119 32 31
113 31 29
111 31 30
113 32 30
110 30 29
111 30 29
117 32 31
122 32 31
120 33 32
118 31 30
121 33 32
118 30 30
117 30 30
120 31 31
116 30 29
121 30 29
117 29 29
122 31 30
124 30 30
115 28 28
115 28 28
107 27 27
108 26 26
106 25 25
101 24 24
96 24 23
99 25 24
93 24 23
90 24 23
84 21 20
100 25 25
104 28 27
106 42 41
112 90 89
116 91 91
106 91 89
109 93 92
110 87 87
105 90 89
114 97 97
107 93 92
112 91 90
110 89 88
113 99 98
112 97 96
112 99 96
112 94 92
113 95 94
106 93 91
109 97 95
95 53 52
94 29 29
87 26 26
77 24 23
94 33 33
88 30 30
124 115 114
129 120 118
133 130 129
142 140 138
135 130 128
144 140 138
138 133 133
138 133 131
129 125 123
133 129 127
125 124 120
136 132 131
132 128 126
135 132 130
142 141 138
141 137 135
145 144 142
144 144 142
145 143 140
125 122 118
152 152 150
139 136 134
145 143 141
145 146 142
148 144 142
150 148 147
144 144 140
149 148 146
152 152 150
143 141 140
141 139 136
140 141 137
151 150 147
151 150 148
137 135 133
152 150 150
145 142 141
159 160 157
147 147 145
149 149 145
156 154 152
143 143 140
155 151 150
137 136 134
150 150 148
157 157 155
146 144 142
148 148 145
145 147 144
146 147 142
147 146 143
131 133 129
137 139 135
127 130 124
122 127 120
127 133 125
126 133 125
121 130 120
120 126 118
130 129 124
127 134 128
131 133 127
125 130 122
124 129 122
125 130 123
120 128 119
124 129 123
121 125 119
127 133 125
128 135 128
122 127 120
128 134 125
120 130 119
128 136 128
126 133 124
123 131 123
123 130 121
118 126 117
123 130 122
117 126 116
123 131 121
117 128 117
121 126 118
121 130 120
111 122 111
119 127 118
121 133 122
122 131 121
121 131 119
112 121 111
116 124 115
117 125 116
122 131 122
114 124 114
113 123 112
115 124 114
114 121 112
113 123 112
108 119 108
107 118 108
113 123 112
116 125 115
113 123 112
109 117 108
106 117 105
111 119 109
103 113 102
104 116 105
106 117 106
108 122 108
107 120 107
105 114 104
102 115 103
102 114 102
104 115 102
107 114 102
100 109 99
105 119 106
103 111 101
100 114 100
97 110 97
47 94 52
46 93 51
51 102 56
53 103 57
52 100 56
51 101 56
55 105 59
52 102 57
52 99 55
55 108 60
54 105 58
55 108 60
53 102 56
54 106 59
54 104 58
55 106 60
54 106 59
54 103 58
54 103 58
57 109 62
55 106 60
53 105 59
52 101 56
51 99 55
54 104 58
52 99 56
54 102 57
48 94 52
52 98 55
49 96 54
49 96 54
52 98 56
49 92 52
51 99 55
46 88 50
47 91 51
46 89 50
46 90 50
47 85 48
44 81 46
44 79 45
45 83 47
42 79 44
41 75 42
41 78 43
44 82 47
44 77 44
44 80 46
43 79 45
36 64 37
0 0 0
0 0 0
0 0 0
0 0 0
0 0 0
0 0 0
0 0 0
0 0 0
0 0 0
0 0 0
0 0 0
36 10 9
90 25 24
100 28 27
91 25 24
95 26 25
99 27 26
97 27 26
105 29 28
100 27 27
101 28 27
101 27 27
111 32 30
105 29 28
104 28 27
109 30 29
104 28 28
106 29 28
106 30 29
115 31 30
113 31 30
114 30 30
123 32 31
113 31 29
117 31 30
115 31 30
116 30 30
126 34 33
116 30 30
118 31 30
121 32 32
113 29 29
111 29 29
115 29 28
117 29 29
123 30 30
118 30 29
113 28 28
113 28 28
112 27 27
104 26 25
103 25 25
109 26 26
105 26 26
94 23 22
91 23 23
88 22 21
93 23 22
82 21 20
93 24 23
99 26 25
107 40 39
112 92 92
107 88 87
111 90 89
111 93 91
110 90 90
108 90 90
114 95 94
113 95 93
109 93 93
105 91 91
109 95 93
105 94 92
108 89 87
110 95 94
103 91 90
109 95 94
106 93 92
86 48 45
83 21 21
92 30 30
93 31 30
89 33 33
85 27 27
127 118 117
120 119 117
126 124 121
136 132 132
129 125 123
138 135 133
130 128 126
149 144 143
135 130 129
135 133 132
139 137 135
136 134 132
137 135 133
139 137 136
127 122 120
145 141 140
137 133 131
139 137 135
138 134 133
140 139 138
139 137 135
141 136 135
137 134 131
138 137 135
143 141 140
141 140 137
136 131 129
146 144 142
144 143 141
144 143 141
148 146 145
147 149 145
138 136 133
145 141 139
142 141 140
144 144 142
145 144 141
140 141 138
143 144 141
155 153 152
142 141 139
144 144 140
148 148 144
150 152 149
156 156 154
146 146 143
150 151 147
150 147 145
152 150 149
153 153 150
151 152 148
148 148 145
144 146 142
130 132 127
130 134 129
124 129 123
130 134 127
127 131 124
124 129 123
126 129 122
133 136 130
122 129 121
127 131 124
125 133 125
124 125 120
118 124 117
131 137 129
128 133 127
118 124 117
119 126 118
120 126 116
117 124 116
128 136 127
127 135 126
117 125 117
123 129 121
123 134 123
114 122 113
120 129 117
121 132 120
119 128 118
120 127 118
117 124 115
122 129 121
120 127 119
124 131 123
120 127 119
113 123 113
120 125 118
115 125 114
116 124 115
124 134 123
112 121 111
121 130 121
113 124 113
114 123 113
106 119 107
111 120 110
111 123 111
110 123 111
110 120 110
107 118 106
109 120 107
110 119 109
111 122 111
102 115 102
109 121 109
105 114 103
106 115 104
106 118 106
104 116 102
105 118 105
103 115 102
104 114 105
105 118 105
103 115 101
101 113 101
97 110 97
97 109 96
99 114 100
98 110 96
51 102 55
48 95 52
50 100 55
51 99 55
51 100 55
52 101 56
52 102 57
55 107 60
57 111 62
54 104 58
53 104 58
50 99 55
52 102 56
55 109 60
55 106 60
57 108 61
52 102 56
52 101 56
53 102 57
56 108 60
52 103 58
52 98 55
52 104 57
53 102 57
51 97 54
50 97 54
49 92 52
51 98 55
50 94 52
55 102 57
50 94 53
51 97 54
47 89 50
46 86 48
44 83 47
49 93 52
46 90 50
45 82 46
46 89 50
44 84 47
48 91 51
42 81 46
43 82 46
44 84 47
42 79 45
41 76 43
43 82 46
38 73 41
41 74 42
36 66 38
0 0 0
0 0 0
0 0 0
0 0 0
0 0 0
0 0 0
0 0 0
0 0 0
0 0 0
0 0 0
0 0 0
43 12 11
86 24 23
89 25 24
91 25 24
97 27 26
93 26 25
95 27 26
103 29 27
98 27 26
103 28 27
103 29 27
102 28 27
103 27 27
99 27 26
109 30 29
111 30 30
110 29 29
105 28 27
115 31 30
112 31 30
114 32 30
117 32 31
113 30 30
114 31 30
115 31 30
124 33 33
111 30 29
119 31 30
118 31 30
118 31 30
117 30 29
123 32 31
121 31 30
119 30 30
117 29 29
118 29 29
115 29 28
109 27 27
105 26 26
107 27 27
102 25 24
104 25 25
100 25 24
96 25 24
99 24 23
85 22 21
90 21 21
96 25 24
99 26 25
104 26 25
107 40 39
112 92 90
110 89 89
111 88 87
108 88 87
104 84 83
103 87 85
111 92 92
102 88 85
102 86 85
107 93 92
94 82 82
103 90 89
108 96 94
106 92 90
111 92 91
109 89 88
108 91 91
96 56 55
85 24 24
83 25 25
89 25 25
89 30 29
86 29 28
126 117 115
133 125 124
123 119 117
137 132 131
139 135 134
135 130 129
126 122 121
139 137 135
135 129 128
130 126 124
133 130 129
138 134 133
147 145 143
137 136 133
145 139 139
127 125 122
135 132 130
134 129 127
144 141 139
133 131 130
134 133 130
144 142 140
140 138 137
138 137 135
141 135 134
138 134 132
150 149 146
142 141 139
144 144 141
145 143 141
138 137 135
144 141 139
141 139 136
145 144 142
141 141 138
147 143 141
148 147 145
143 144 140
150 150 147
140 140 136
139 139 136
144 144 141
139 139 137
145 144 141
152 151 149
144 144 141
137 140 134
132 135 131
139 139 136
142 144 141
151 150 148
143 144 141
131 134 129
129 130 125
127 131 125
123 128 121
125 131 124
124 128 120
122 128 121
129 132 126
129 133 127
121 123 118
124 133 124
123 129 121
127 136 127
121 129 119
125 133 124
126 131 124
118 122 115
123 129 120
124 132 124
127 131 125
121 128 120
119 125 117
129 133 127
122 130 121
121 131 121
118 127 117
122 125 119
125 133 124
121 130 121
121 129 121
120 127 118
119 128 119
121 131 120
119 123 117
117 126 116
110 120 110
114 123 113
120 127 118
113 122 112
110 120 110
114 124 114
105 110 102
122 128 121
116 123 115
112 121 110
113 118 111
113 120 111
110 115 108
110 121 110
105 117 105
115 126 115
109 114 106
113 122 112
108 120 108
103 114 102
105 115 105
105 114 103
108 117 106
103 114 102
104 116 103
103 111 101
103 114 103
101 114 102
103 117 104
102 118 103
95 109 95
106 114 104
97 110 96
92 109 93
50 99 55
50 101 55
51 100 56
51 101 56
51 100 55
51 101 56
52 104 58
53 103 58
53 104 57
54 104 58
53 103 58
55 109 60
53 104 57
53 104 58
52 103 57
52 100 56
56 106 59
55 108 60
52 101 56
57 106 60
53 105 59
54 105 59
53 98 55
51 97 55
58 112 63
53 103 57
53 102 57
53 101 56
52 99 55
48 91 50
48 90 51
51 96 54
49 90 51
48 90 50
49 92 52
46 88 49
46 84 47
46 85 48
48 85 48
45 83 47
44 82 46
45 82 46
45 85 48
43 80 45
45 82 47
43 78 44
43 80 45
41 76 42
39 70 40
34 62 35
0 0 0
0 0 0
0 0 0
0 0 0
0 0 0
0 0 0
0 0 0
0 0 0
0 0 0
0 0 0
0 0 0
37 10 10
93 25 24
88 25 24
97 27 26
94 25 25
103 29 28
88 24 23
104 28 28
101 28 27
106 29 28
103 30 28
104 28 27
104 29 28
106 29 28
110 30 29
112 30 30
109 30 29
111 30 29
114 31 30
115 31 30
109 30 29
117 32 31
118 32 31
122 32 31
119 33 32
117 31 31
118 30 30
119 32 31
122 32 32
116 31 30
118 30 30
121 31 30
111 29 29
115 29 29
121 30 29
108 27 27
117 28 28
108 26 26
107 26 26
104 25 25
106 26 26
102 25 25
100 24 24
85 21 21
91 22 21
84 21 20
81 21 20
82 20 19
104 26 26
98 26 25
101 38 37
103 83 82
107 87 85
100 87 83
107 88 86
103 84 83
109 90 90
102 88 87
105 89 88
99 81 80
100 87 85
108 92 90
112 92 91
98 88 87
104 85 84
98 88 86
101 87 86
101 88 86
88 45 43
84 22 21
87 24 24
88 25 25
81 25 25
85 27 26
128 123 120
134 127 126
132 128 127
131 126 124
122 118 117
127 123 122
135 133 132
131 127 126
129 124 121
132 128 124
119 117 116
140 140 137
138 136 132
142 135 134
135 134 132
136 132 131
138 136 134
134 130 129
130 126 125
144 142 140
143 139 137
142 138 136
143 140 138
144 144 142
143 142 139
136 133 131
152 153 149
133 131 129
141 139 138
138 137 134
157 153 152
139 137 134
142 142 138
149 146 145
144 142 140
141 144 138
136 134 132
145 144 143
149 149 146
139 141 137
149 149 146
138 135 133
142 139 137
143 142 140
143 141 138
144 148 143
144 143 141
145 145 140
146 146 144
152 151 149
149 149 145
142 143 139
146 144 142
124 127 122
128 132 125
125 129 122
131 134 128
123 129 121
128 134 127
123 127 121
124 128 123
125 131 124
125 133 123
128 135 127
122 130 121
126 131 123
124 128 119
123 127 121
122 129 121
121 124 118
123 129 121
119 126 119
120 128 120
126 132 124
121 126 120
117 126 117
127 131 126
120 130 120
119 128 119
124 132 123
118 125 117
115 123 115
118 128 118
115 127 115
116 124 114
113 125 113
117 125 115
117 127 116
122 132 122
112 121 112
114 122 112
112 120 111
108 122 109
111 122 110
109 117 108
111 121 111
113 125 113
116 125 116
109 120 109
110 119 108
109 121 108
111 121 111
114 124 113
108 118 107
108 118 107
105 116 104
109 117 107
107 121 107
110 124 110
101 111 102
103 115 104
103 117 104
102 115 103
96 109 97
103 114 102
102 115 100
100 112 100
99 107 96
100 113 101
103 112 102
93 107 93
44 87 48
48 97 53
49 96 52
50 98 54
51 98 55
53 103 58
51 100 55
53 104 58
52 102 57
52 98 55
54 104 58
53 102 57
51 101 56
53 101 56
56 105 59
50 97 54
55 105 59
55 107 60
55 108 60
52 102 57
53 101 57
54 104 58
51 98 55
49 96 53
51 99 56
49 94 53
49 97 54
48 95 53
51 96 54
50 94 52
49 96 54
49 92 51
46 88 49
47 90 50
46 86 48
46 90 50
45 87 49
46 89 49
44 84 47
46 85 48
46 87 49
46 88 49
42 79 44
44 83 47
44 81 46
43 79 45
43 80 45
39 71 41
39 72 41
29 57 32
0 0 0
0 0 0
0 0 0
0 0 0
0 0 0
0 0 0
0 0 0
0 0 0
0 0 0
0 0 0
0 0 0
46 13 12
90 25 24
95 26 25
91 26 24
94 25 25
94 26 25
96 26 26
106 29 28
106 30 28
106 30 28
102 28 27
101 27 27
103 29 27
108 29 28
105 28 28
106 29 28
112 31 30
105 28 27
112 31 30
116 32 31
117 31 30
111 30 29
123 34 32
113 30 29
118 32 31
118 31 31
119 32 31
113 30 29
110 29 28
118 31 31
122 32 31
117 30 30
114 30 29
119 31 30
112 28 27
115 28 28
109 27 26
100 24 23
103 25 25
102 23 23
97 23 23
103 25 25
97 23 22
86 21 21
89 22 21
82 20 19
88 21 20
75 19 18
81 21 20
99 26 25
99 39 38
110 87 86
106 84 84
107 89 89
98 82 81
98 80 79
100 84 82
101 89 86
105 95 91
102 83 82
105 90 88
99 85 84
102 88 86
90 76 73
98 82 80
95 80 78
101 82 82
98 87 85
90 48 46
87 28 28
93 33 32
92 29 27
90 29 28
88 31 30
127 118 116
129 124 124
135 131 129
124 119 118
128 124 123
129 123 121
133 128 126
136 132 131
128 125 124
123 121 119
132 125 124
139 135 133
135 133 130
125 124 122
138 137 135
138 135 133
143 140 139
137 134 133
130 129 127
139 135 133
144 141 139
136 136 134
140 135 134
139 136 135
138 139 137
136 134 132
134 133 129
133 133 129
137 137 134
140 140 139
138 135 132
136 133 131
149 147 145
141 140 138
142 143 139
151 149 146
138 136 134
142 142 140
150 148 147
141 141 139
144 145 140
138 136 134
137 139 134
131 129 126
146 146 143
142 145 141
143 143 141
145 147 144
143 140 137
143 143 140
153 153 150
141 142 138
133 135 131
123 125 118
125 128 121
131 136 129
128 130 126
133 137 131
131 132 127
125 132 125
125 127 121
118 124 116
125 130 123
126 131 124
125 132 123
124 130 122
128 134 126
122 128 119
127 131 125
123 127 121
122 129 120
124 130 124
123 130 122
121 129 119
121 128 120
119 125 117
115 123 114
119 127 118
123 130 122
120 127 118
114 124 113
120 127 119
119 126 117
117 123 116
117 123 115
117 128 117
119 126 117
123 129 121
120 129 120
118 125 117
120 128 119
118 128 118
111 120 111
111 121 110
111 121 109
113 120 110
111 119 110
103 114 103
111 122 111
112 122 111
106 117 106
113 122 113
106 119 107
102 116 102
106 118 106
109 118 108
110 117 109
110 117 109
104 119 106
102 113 102
107 118 106
107 120 107
102 113 102
106 119 107
105 117 105
96 110 97
97 110 97
101 113 101
100 113 100
97 112 98
93 110 94
47 91 50
48 97 53
47 92 51
50 99 55
50 98 54
52 105 58
49 97 54
53 104 58
53 106 59
54 104 58
51 98 55
51 101 56
53 104 58
54 105 59
53 102 57
56 106 60
56 110 61
54 105 59
51 99 56
53 103 57
54 106 59
55 102 58
53 101 57
52 100 56
50 96 54
49 94 53
51 98 55
49 94 52
50 95 53
49 93 52
47 91 51
45 88 49
44 84 47
47 91 51
46 84 48
44 84 47
45 88 49
47 85 48
44 85 47
45 81 46
45 85 47
43 83 46
44 80 45
45 83 47
44 80 45
43 81 46
42 77 43
39 73 41
39 71 40
38 68 39
0 0 0
0 0 0
0 0 0
0 0 0
0 0 0
0 0 0
0 0 0
0 0 0
0 0 0
0 0 0
0 0 0
46 12 12
92 25 24
87 25 23
90 25 24
95 26 25
96 26 25
94 26 25
101 29 27
105 29 28
103 28 27
102 28 27
96 27 26
104 28 27
108 30 29
98 27 26
108 29 28
106 29 28
110 30 29
110 31 29
114 31 30
118 33 32
113 31 30
118 31 30
117 32 31
111 29 29
113 28 28
112 31 29
114 31 30
117 31 30
114 30 29
120 30 30
121 31 31
119 30 30
112 28 28
117 29 29
114 28 28
109 26 26
110 27 27
97 23 23
97 23 23
100 22 22
92 21 21
93 24 23
94 23 23
89 22 21
90 22 22
77 19 18
81 21 20
85 22 21
93 24 24
96 34 33
101 79 78
102 88 87
106 85 84
104 86 84
99 85 84
103 88 87
103 89 87
99 84 83
98 84 82
94 82 79
103 90 88
97 79 77
98 83 81
99 84 82
98 77 76
98 82 81
99 79 77
78 37 37
80 23 23
85 25 24
91 34 31
77 25 25
91 33 33
121 108 107
134 126 125
127 123 121
125 124 122
135 125 123
127 123 121
130 127 126
122 118 115
130 125 123
126 121 120
133 128 126
137 132 131
143 137 136
127 128 124
132 129 127
134 130 129
146 141 141
130 128 127
139 135 133
124 122 120
137 135 133
141 134 133
137 135 133
137 131 130
138 135 133
139 138 136
130 128 127
146 139 139
138 138 135
139 137 134
143 141 138
136 135 133
142 141 139
145 144 142
138 139 136
145 141 139
129 129 126
136 138 134
143 145 142
142 143 140
146 148 145
138 139 135
132 131 129
149 148 145
137 136 132
136 139 135
143 141 140
146 147 144
143 145 142
145 143 141
144 147 142
151 152 150
131 131 126
115 121 112
126 131 123
131 135 129
127 131 124
125 129 123
124 129 121
131 134 129
123 128 122
114 121 113
121 129 120
121 126 119
125 131 125
126 131 125
123 128 121
121 124 118
121 129 120
123 128 121
127 132 125
126 133 124
119 124 118
124 131 124
122 128 120
122 125 119
113 125 113
114 121 112
121 125 118
116 124 115
119 126 119
114 123 112
122 126 118
126 133 124
113 126 113
112 122 112
114 125 115
111 122 110
120 129 119
119 124 117
117 129 116
114 124 113
114 122 113
113 124 112
112 122 112
114 123 114
117 125 116
100 114 101
111 116 107
111 120 109
113 123 111
107 119 107
110 118 109
104 117 104
105 118 105
107 119 107
103 117 104
104 120 105
107 118 107
103 116 102
101 114 101
108 123 109
111 123 110
104 117 105
100 111 100
100 112 100
100 111 99
101 113 102
101 114 101
101 110 100
92 109 92
49 95 52
47 94 51
48 96 53
49 98 54
50 98 54
49 96 53
49 96 53
52 104 57
53 104 58
53 104 58
52 103 57
55 105 59
53 104 58
54 104 58
53 106 59
55 109 61
53 104 58
53 103 57
51 99 55
54 104 59
56 109 61
52 102 57
51 97 54
55 106 59
52 100 56
56 106 60
52 100 56
50 97 54
48 94 52
50 95 53
49 94 53
48 92 51
48 93 52
49 87 49
44 83 46
46 86 49
47 89 50
44 80 45
44 84 47
47 90 50
48 88 50
41 79 44
43 80 45
43 78 44
44 81 46
42 78 44
40 74 41
40 76 43
41 75 43
35 66 37
0 0 0
0 0 0
0 0 0
0 0 0
0 0 0
0 0 0
0 0 0
0 0 0
0 0 0
0 0 0
0 0 0
40 11 11
94 26 25
94 26 25
98 27 26
101 28 27
95 27 26
105 29 28
99 27 27
99 28 27
97 28 26
104 29 28
104 28 28
101 27 26
102 28 27
117 31 30
101 28 27
112 31 30
105 28 27
107 29 28
117 32 31
114 30 30
114 31 30
111 31 30
117 31 30
115 30 30
116 31 30
117 31 30
116 31 30
118 30 30
116 31 30
112 29 28
116 29 29
120 31 30
113 27 27
109 27 27
107 26 26
105 26 26
106 26 26
99 23 23
96 23 23
97 23 23
97 24 23
93 23 23
88 21 20
86 20 20
87 22 21
71 18 17
84 21 21
77 19 18
94 25 24
97 32 32
96 80 77
103 82 81
103 83 82
98 80 78
100 83 80
102 84 83
96 79 78
97 82 82
95 76 75
94 77 76
93 80 78
102 88 85
88 73 71
94 80 80
94 76 75
94 82 79
97 86 84
72 33 33
83 26 25
92 40 39
79 25 25
92 30 29
88 28 27
124 117 116
120 114 113
121 116 115
125 120 119
127 124 122
131 126 125
125 121 121
125 124 121
138 133 131
134 128 126
129 124 122
130 128 126
141 137 135
131 126 124
134 131 129
137 131 131
132 130 129
126 122 122
129 127 125
129 127 125
126 126 123
125 121 120
137 135 134
140 138 136
145 143 141
141 138 136
144 143 142
140 139 137
134 132 129
141 140 137
141 141 137
145 144 143
142 144 140
140 137 136
129 127 124
134 135 132
136 133 131
148 145 144
141 143 140
145 146 142
137 133 131
146 147 144
139 139 137
151 150 148
142 141 138
145 147 141
137 138 135
142 140 138
139 141 137
152 153 150
135 136 131
149 151 147
140 142 137
129 135 128
128 132 125
126 130 122
122 129 121
119 119 112
136 140 135
121 128 120
121 128 120
128 131 126
122 128 120
121 128 119
119 125 118
124 126 120
128 132 125
124 129 122
119 125 117
120 125 118
121 125 118
120 127 117
126 132 125
124 131 124
115 122 114
123 130 123
123 128 121
119 126 118
119 125 116
122 131 121
113 122 112
119 129 120
118 127 117
113 121 111
114 122 113
116 125 114
118 125 117
119 126 118
111 120 110
115 125 114
113 120 110
116 129 117
112 120 110
114 126 115
117 126 117
116 126 116
111 119 111
112 123 111
111 121 111
111 123 111
109 121 109
105 116 104
112 123 111
116 125 114
112 120 110
105 114 104
102 113 101
107 116 107
104 113 103
104 114 102
97 110 98
104 116 104
110 120 110
108 125 109
100 110 99
104 114 103
102 115 103
96 108 96
100 112 100
102 113 101
95 106 94
49 97 53
47 94 51
50 99 55
51 103 57
52 100 55
50 99 54
49 97 54
50 101 55
53 102 57
54 107 59
51 99 55
52 98 55
50 97 54
52 101 56
54 104 58
54 106 59
54 104 58
52 98 55
54 105 58
55 108 60
53 101 57
53 103 57
52 99 56
51 96 54
52 99 56
48 95 52
52 98 55
48 93 52
48 94 52
47 89 50
49 94 53
46 87 49
46 89 50
47 92 51
50 94 53
46 87 48
47 88 50
44 85 48
47 89 50
43 81 45
46 86 48
43 82 45
41 77 43
42 76 43
43 79 45
41 77 43
43 77 43
44 82 46
41 74 42
29 56 32
0 0 0
0 0 0
0 0 0
0 0 0
0 0 0
0 0 0
0 0 0
0 0 0
0 0 0
0 0 0
0 0 0
36 10 10
94 26 25
95 27 26
88 25 24
96 27 26
98 27 26
102 28 27
103 28 27
99 27 26
104 29 28
100 27 27
107 29 28
105 28 28
111 30 29
110 29 28
109 30 29
107 29 28
112 31 30
111 30 29
112 31 30
112 31 29
119 33 32
114 30 29
113 30 30
122 32 31
121 32 31
114 30 30
117 31 30
115 31 30
115 29 29
110 28 28
115 31 30
118 30 29
115 28 28
108 26 26
113 28 28
105 26 25
101 25 24
105 25 25
97 23 23
87 20 20
93 22 22
89 21 21
90 22 22
84 19 19
84 21 20
74 18 18
75 19 18
84 21 20
83 21 21
85 35 33
98 83 82
96 76 75
94 80 79
93 80 78
96 84 83
97 84 83
94 72 72
90 80 78
96 78 76
94 82 80
99 79 79
91 73 73
100 81 80
93 79 77
95 82 80
95 73 72
89 70 70
76 40 39
86 24 24
82 22 22
86 23 23
88 28 28
88 25 25
115 109 107
126 121 120
126 118 115
116 112 110
134 128 126
131 127 126
131 128 126
130 122 120
131 126 125
124 121 119
134 131 130
136 136 133
136 134 132
140 140 138
133 130 128
134 131 129
141 138 137
133 132 130
144 141 138
126 126 123
140 138 137
129 126 125
131 128 126
138 140 137
130 128 126
131 128 126
144 142 140
135 131 129
144 141 140
140 141 137
141 141 138
137 135 132
144 143 141
146 144 142
143 142 139
142 142 139
144 144 141
138 138 135
143 143 141
147 149 144
142 139 137
134 134 131
137 138 134
140 141 137
143 142 140
140 138 136
144 144 142
145 145 142
133 133 131
143 146 143
150 147 143
146 147 142
130 132 127
127 130 124
124 127 121
124 130 123
123 126 121
124 130 122
123 129 122
126 130 124
127 133 126
121 124 118
122 128 120
121 127 120
120 125 118
126 130 123
122 130 121
128 137 129
121 127 119
120 127 120
124 131 122
116 125 116
126 130 125
125 130 121
117 124 116
119 128 119
119 127 118
118 124 117
112 121 112
124 129 121
116 128 116
115 122 113
115 125 115
114 120 112
116 123 115
123 130 121
120 128 119
115 124 113
115 125 114
119 129 118
115 121 111
108 121 108
116 126 115
114 122 113
115 124 115
113 117 109
110 120 110
111 121 110
104 115 104
111 121 110
113 123 112
104 116 104
110 119 109
111 120 111
107 120 107
104 116 104
101 113 101
107 116 104
109 120 108
103 118 103
103 112 103
109 118 109
104 114 104
106 115 105
99 110 99
104 115 102
96 107 94
102 109 100
103 117 103
99 113 99
96 110 96
48 97 53
48 97 53
50 95 53
49 100 54
50 98 55
52 100 56
51 99 55
53 105 58
52 98 55
50 95 53
52 102 57
53 102 57
52 100 56
52 102 57
55 107 60
53 102 57
51 103 57
54 105 58
53 101 57
54 105 59
53 101 57
51 98 55
53 100 56
51 100 56
53 103 57
50 96 54
54 104 58
54 98 55
50 96 54
52 100 56
47 93 52
46 86 49
49 92 52
44 87 49
50 90 51
46 86 48
47 87 49
46 85 48
43 84 47
47 89 50
46 85 48
44 83 47
42 79 44
42 76 43
44 78 44
44 82 46
41 76 42
40 75 42
39 73 41
41 76 43
0 0 0
0 0 0
0 0 0
0 0 0
0 0 0
0 0 0
0 0 0
0 0 0
0 0 0
0 0 0
0 0 0
38 9 9
91 26 25
89 25 24
95 26 25
95 27 25
97 26 26
104 29 28
99 27 26
92 25 24
94 26 25
102 29 27
103 28 27
107 29 28
101 28 27
108 30 28
105 29 28
105 28 28
110 30 29
109 31 29
110 30 29
114 31 30
118 32 31
112 30 30
113 30 30
118 31 31
112 31 29
114 30 30
117 32 30
108 29 28
117 30 30
115 30 30
114 30 29
117 30 29
104 27 26
110 28 27
113 27 26
102 25 25
106 25 25
101 24 24
94 22 21
106 25 25
102 24 24
87 21 21
84 21 20
88 21 21
75 19 18
86 22 22
78 19 18
76 18 17
81 21 20
95 43 43
96 72 71
97 82 81
91 68 68
93 75 73
94 78 77
99 84 83
86 71 70
90 74 73
90 79 77
97 77 77
91 79 78
88 75 73
93 75 74
89 75 72
87 66 66
86 65 62
89 76 74
82 26 26
84 27 26
83 24 24
84 28 27
84 28 28
86 34 34
128 120 118
133 126 125
131 126 124
126 120 118
129 124 123
131 126 123
119 115 114
134 132 129
131 127 125
129 128 126
124 117 116
133 131 129
134 130 127
124 120 119
136 133 131
145 140 139
120 120 118
137 135 134
140 141 139
137 134 132
125 122 120
128 126 123
131 129 127
137 134 133
141 140 138
140 138 136
145 143 142
136 138 134
137 139 135
135 131 129
134 133 132
140 140 137
147 143 141
135 134 132
135 137 134
135 135 133
142 141 139
140 138 135
140 138 136
146 145 143
143 143 140
139 138 134
139 140 136
138 138 135
143 144 141
150 148 146
147 148 145
143 145 141
143 146 141
149 147 143
150 151 148
136 136 133
133 139 132
124 132 123
129 131 127
128 131 125
121 129 120
122 123 119
126 131 124
127 126 120
129 133 127
125 126 121
123 131 122
117 123 115
123 129 121
125 128 121
128 134 126
119 125 118
123 131 123
124 133 123
121 131 121
126 134 125
123 130 121
127 134 125
118 126 117
118 123 115
120 128 119
117 127 117
124 130 122
119 126 118
120 128 118
116 127 116
117 126 116
120 126 118
110 116 108
116 125 115
119 127 118
115 122 112
109 118 110
117 127 117
111 118 110
113 123 113
112 125 113
110 118 110
110 121 109
111 120 110
108 120 109
110 117 108
111 121 110
106 116 106
106 117 106
114 125 114
102 113 101
110 117 108
110 123 110
104 120 105
107 118 106
107 118 106
102 114 103
100 112 99
107 114 106
101 113 100
103 113 102
103 117 103
106 121 107
101 115 102
103 113 102
104 114 103
98 111 98
103 113 102
95 109 95
48 96 53
49 98 54
49 96 53
47 92 51
50 99 55
49 96 53
54 107 58
53 102 57
56 109 61
53 105 58
51 101 56
54 107 59
53 104 58
53 100 56
51 100 56
51 100 56
51 100 56
55 108 60
52 100 56
51 99 55
56 106 60
51 101 56
48 95 53
54 105 58
52 100 56
50 96 53
47 91 51
50 96 54
46 89 50
49 95 53
49 96 53
50 97 55
49 91 51
46 85 48
45 87 49
47 88 49
46 87 49
44 82 46
41 80 45
42 80 45
42 82 46
42 81 45
46 81 46
44 81 46
41 77 43
45 82 46
44 77 44
40 78 44
42 77 43
35 59 34
0 0 0
0 0 0
0 0 0
0 0 0
0 0 0
0 0 0
0 0 0
0 0 0
0 0 0
0 0 0
0 0 0
32 9 9
96 27 26
88 24 23
91 26 25
98 27 26
93 26 25
99 27 26
104 28 28
104 29 28
99 27 26
98 26 25
100 28 27
103 28 27
101 27 27
111 30 29
111 30 30
110 29 28
115 31 31
116 32 31
111 31 30
108 30 29
111 30 29
112 30 29
113 31 30
109 29 29
121 33 32
121 33 32
123 33 32
112 29 29
115 30 29
110 28 28
105 27 26
110 28 28
111 27 27
112 28 27
106 25 25
100 23 23
92 22 21
104 24 24
106 25 25
98 23 23
89 21 21
93 24 23
81 19 18
87 20 19
80 20 19
77 19 18
69 18 17
83 22 21
81 22 21
89 41 40
90 69 67
96 72 72
87 65 64
90 75 74
83 68 65
88 77 75
97 79 78
91 75 74
88 73 72
87 70 69
91 77 76
89 75 72
88 74 72
92 77 76
88 69 68
89 70 68
85 72 67
87 50 50
72 22 21
85 26 26
86 28 28
84 29 28
84 26 25
128 116 116
129 128 127
127 125 122
125 122 121
130 127 126
136 129 128
135 130 128
127 124 123
128 124 122
127 125 122
131 129 125
132 128 126
138 136 135
140 135 134
133 130 129
137 133 131
137 134 131
132 128 127
128 125 123
133 128 126
127 121 120
139 135 132
129 128 124
133 133 129
132 131 129
141 141 140
138 135 133
142 140 138
123 118 116
129 128 126
141 140 138
142 141 138
132 131 129
144 141 139
145 143 141
146 146 143
141 140 137
140 139 138
131 131 128
143 141 138
140 140 137
136 137 132
152 151 149
137 137 134
134 135 131
144 147 143
136 135 133
136 136 131
140 136 133
138 138 136
138 138 134
149 149 146
131 131 127
121 124 119
123 126 121
123 129 122
120 122 117
123 130 122
123 127 120
119 121 115
117 121 115
119 123 115
123 127 120
120 126 118
127 133 126
122 124 119
126 132 124
120 130 119
117 125 116
124 133 125
118 126 118
121 127 120
124 131 123
124 129 122
112 120 112
121 126 120
117 125 116
107 115 105
122 125 119
118 126 118
121 125 118
119 127 117
126 134 125
118 128 117
116 128 116
112 119 110
115 123 114
114 123 113
113 120 112
113 120 111
117 128 117
111 120 111
115 124 115
115 121 114
107 118 107
117 125 116
103 114 102
114 125 114
106 116 105
112 118 109
111 122 111
113 123 112
112 123 112
105 118 106
110 120 110
105 120 106
106 117 105
106 118 107
103 115 103
108 116 106
98 111 98
104 116 104
100 110 99
98 110 95
99 111 100
100 112 99
107 114 105
99 112 98
95 107 94
95 110 96
89 104 90
47 95 52
48 97 53
51 99 55
51 101 56
50 98 54
52 103 57
50 100 56
51 99 55
52 102 57
53 103 58
54 107 59
50 97 54
51 104 57
55 107 60
53 102 57
54 105 59
54 103 58
52 102 57
52 102 57
55 106 60
50 97 55
49 96 53
49 96 54
51 101 56
48 94 51
52 100 56
47 88 49
48 94 52
46 90 50
49 95 52
49 92 51
47 90 50
45 86 48
46 89 49
46 86 49
49 93 53
47 89 50
43 81 46
44 84 47
43 81 46
48 84 48
45 86 48
40 74 42
43 79 44
42 79 45
43 80 45
41 76 42
41 73 42
42 75 42
35 63 36
0 0 0
0 0 0
0 0 0
0 0 0
0 0 0
0 0 0
0 0 0
0 0 0
0 0 0
0 0 0
0 0 0
35 9 9
94 27 25
96 26 25
92 26 25
101 28 27
94 26 24
99 28 27
93 25 25
98 27 26
106 29 28
104 28 27
102 29 27
106 29 28
108 29 28
111 29 29
108 29 29
109 30 29
110 30 29
109 30 29
119 32 32
114 31 30
113 31 30
113 31 30
116 32 31
113 30 29
120 32 31
111 29 29
112 30 29
116 31 30
121 31 31
114 30 29
117 30 30
105 27 26
112 27 27
98 24 24
102 25 24
99 23 23
92 22 22
100 25 25
95 21 21
87 21 21
97 24 24
82 19 18
79 19 19
83 21 19
77 19 18
75 17 16
76 19 18
65 15 14
76 18 17
83 33 32
85 72 70
92 72 70
87 68 67
94 77 76
89 72 71
90 76 74
85 69 67
90 74 72
85 76 74
93 72 70
89 82 80
89 70 69
82 62 61
85 70 67
83 64 63
86 76 74
82 62 60
73 37 34
76 24 24
80 25 24
86 26 26
82 24 23
82 34 33
118 113 111
125 122 119
126 121 120
127 125 123
129 125 123
120 115 113
128 126 125
132 126 124
124 120 117
134 131 130
117 114 113
129 127 126
128 125 124
136 133 132
131 128 127
134 129 127
140 136 135
141 135 134
124 124 122
130 128 125
139 136 135
139 134 133
132 131 130
134 132 129
134 131 130
138 133 130
142 143 140
137 136 134
136 134 132
141 140 138
132 128 126
135 132 131
135 135 132
132 129 126
136 133 130
136 131 129
144 145 143
149 146 144
144 141 140
140 138 137
141 139 137
140 141 137
154 153 151
137 136 133
146 145 143
138 139 135
145 145 144
142 141 139
144 146 142
151 150 148
150 151 147
142 139 138
136 139 134
128 132 126
117 120 114
130 136 129
126 131 125
125 128 122
124 134 124
125 131 123
117 126 116
120 124 118
123 127 120
128 132 125
129 136 129
117 122 114
122 133 122
115 120 113
125 131 123
117 122 113
124 132 123
118 126 117
123 129 122
119 129 120
120 127 119
115 125 116
118 122 114
120 127 118
120 126 119
120 127 119
119 128 119
116 123 116
117 124 115
121 129 119
118 124 117
116 123 115
114 121 114
121 127 120
123 132 123
114 123 114
117 127 117
117 124 116
113 123 112
109 122 109
113 122 112
112 123 112
108 119 108
112 120 112
110 120 109
104 115 104
115 123 115
114 120 112
105 114 105
102 114 102
106 114 103
103 114 103
105 114 105
107 120 108
108 123 109
105 114 103
105 118 105
99 108 99
102 112 101
99 109 98
101 113 101
102 115 102
97 112 97
103 116 103
97 110 97
99 111 97
95 108 94
48 98 54
47 95 52
50 97 54
50 98 54
48 95 53
52 104 58
50 100 55
51 100 56
53 105 58
53 104 58
49 97 54
54 107 59
52 102 57
52 102 57
52 101 57
53 102 57
55 103 58
55 109 60
52 103 57
51 98 55
49 96 54
49 96 53
49 94 53
50 96 54
47 93 52
51 98 55
52 96 54
49 94 52
47 90 51
47 91 51
48 92 51
45 87 48
48 91 51
48 91 51
49 93 53
46 89 50
44 84 47
45 84 47
43 86 48
43 80 44
44 80 45
43 80 45
42 76 43
46 84 47
43 82 46
42 79 44
41 75 42
38 74 41
42 78 45
34 61 34
0 0 0
0 0 0
0 0 0
0 0 0
0 0 0
0 0 0
0 0 0
0 0 0
0 0 0
0 0 0
0 0 0
44 12 11
88 25 24
88 25 24
95 27 26
98 27 26
99 28 27
102 28 27
101 27 27
100 28 27
98 28 26
99 27 26
98 27 26
101 28 27
112 30 30
106 29 28
108 30 29
102 28 27
110 29 28
105 28 27
117 32 31
111 30 29
105 28 28
108 30 29
112 30 30
114 30 29
111 29 29
111 30 29
110 29 28
112 30 29
113 29 29
116 30 29
110 29 28
109 27 27
104 25 25
94 23 23
100 25 25
96 23 23
99 23 23
96 22 22
93 22 21
94 23 23
82 19 18
89 20 19
82 19 19
80 18 17
77 19 18
62 15 14
77 19 18
73 17 16
80 21 20
79 37 35
88 71 71
86 67 66
92 73 71
74 57 57
87 72 71
81 64 62
86 72 70
85 70 68
88 74 73
90 72 70
92 73 72
78 62 61
86 73 71
87 65 65
88 69 69
93 76 74
83 62 61
83 39 39
76 21 21
84 25 24
86 25 25
88 29 28
77 29 28
118 110 109
122 115 114
121 115 114
124 121 119
121 119 116
126 122 120
130 127 125
127 123 123
132 126 125
127 123 122
132 128 127
129 125 124
131 125 124
137 134 133
128 125 123
141 139 138
133 128 126
138 136 133
135 129 128
135 133 131
136 133 132
135 131 128
132 130 128
133 129 126
129 124 124
141 138 135
146 143 142
138 135 133
141 138 137
146 145 144
137 138 134
133 130 127
134 133 130
135 132 130
141 141 137
142 141 139
138 137 135
135 135 132
137 134 132
132 130 128
132 128 126
134 134 129
137 134 132
134 132 129
144 142 139
133 137 132
146 144 143
137 137 134
139 140 137
150 149 147
129 132 127
145 143 141
128 127 124
121 126 119
127 130 125
123 128 122
128 129 125
126 129 123
122 126 120
119 127 118
126 130 125
127 131 125
126 129 122
126 133 126
115 123 113
116 126 116
121 127 120
116 123 114
119 128 119
120 128 120
121 129 121
119 125 117
118 127 118
113 125 113
119 126 116
117 125 116
123 132 123
112 122 112
121 127 119
115 123 115
116 123 115
119 126 117
121 127 120
118 126 117
118 124 116
113 124 114
121 126 117
116 124 115
111 123 110
117 127 116
108 119 109
116 127 117
106 120 106
111 121 110
111 121 111
107 119 108
111 118 110
113 123 114
110 118 109
113 124 113
110 120 110
104 112 103
107 119 108
101 112 101
110 120 111
107 116 105
100 114 100
108 117 108
103 114 102
104 114 103
104 114 103
107 116 107
100 114 100
108 120 108
101 111 100
102 112 101
101 112 100
99 111 97
98 110 97
99 108 99
88 104 88
47 96 52
45 91 49
49 97 53
53 104 58
50 100 56
51 99 55
50 100 55
50 101 55
51 101 56
51 100 55
53 103 58
52 101 57
52 101 57
50 97 54
52 101 57
56 110 61
52 100 56
55 108 60
53 105 59
53 102 57
51 100 56
54 106 59
48 94 52
49 94 53
47 93 52
50 99 55
45 87 48
47 88 50
49 92 51
48 92 51
48 95 53
47 90 50
49 93 52
47 90 50
47 89 50
49 91 51
46 85 48
44 82 46
42 79 45
47 85 48
43 83 46
43 81 46
43 82 45
45 82 46
43 81 45
37 70 39
43 78 44
41 76 43
44 78 44
37 70 39
0 0 0
0 0 0
0 0 0
0 0 0
0 0 0
0 0 0
0 0 0
0 0 0
0 0 0
0 0 0
0 0 0
46 13 12
97 27 26
96 26 25
99 27 26
92 25 24
101 27 26
96 27 26
102 29 27
108 30 29
100 28 26
104 27 27
101 28 27
100 28 27
104 29 28
105 28 27
109 30 29
109 30 29
101 28 27
117 32 31
111 29 29
110 30 29
104 28 27
111 30 29
114 31 30
117 30 29
126 34 33
106 28 27
119 32 31
113 30 29
118 31 30
108 28 28
107 27 27
102 26 25
100 25 25
104 26 25
98 24 24
93 22 22
93 23 22
91 21 21
91 21 21
85 20 20
85 21 20
89 20 20
79 19 18
83 20 20
71 16 16
66 16 15
67 15 14
72 17 16
81 20 19
82 30 29
87 70 68
83 64 63
81 59 59
83 70 68
85 67 66
75 58 55
88 71 70
81 64 62
82 62 60
73 60 58
84 59 57
78 59 58
84 59 58
79 53 52
82 57 54
76 63 60
85 70 67
71 38 37
77 19 18
82 27 27
82 29 28
88 31 30
79 24 23
123 120 119
126 116 116
131 129 127
128 122 121
127 125 122
125 118 116
131 128 126
117 112 110
123 121 119
132 125 123
131 126 125
138 131 131
134 132 130
124 119 117
128 124 122
137 130 127
125 121 119
136 133 132
130 128 126
132 132 129
135 132 130
133 131 128
134 130 128
137 133 132
131 127 125
135 130 130
141 141 139
136 133 131
143 141 139
134 133 130
138 136 133
146 146 143
139 134 133
141 140 138
136 137 134
147 149 146
140 137 136
142 140 139
135 133 132
133 132 129
133 132 130
132 131 129
143 141 139
130 128 125
139 139 136
144 142 140
142 142 139
142 142 140
135 133 129
139 140 136
150 150 148
138 140 136
128 131 126
116 124 114
123 128 121
126 131 125
122 124 119
123 127 121
125 133 123
121 126 119
116 121 114
117 123 115
119 124 116
124 131 124
121 128 120
123 130 123
119 125 116
117 124 115
126 129 122
124 132 124
120 128 120
125 132 123
114 121 113
120 124 117
121 126 118
119 126 119
117 126 117
117 125 117
127 133 125
116 124 114
118 124 116
121 130 119
116 123 116
116 124 113
118 125 115
113 123 112
115 124 116
120 128 119
121 129 122
114 128 114
114 123 113
113 121 112
115 126 115
110 118 109
109 120 109
112 121 111
112 123 112
110 121 111
107 121 108
111 122 110
109 116 108
112 120 111
111 118 110
106 116 106
109 121 109
107 116 107
105 121 106
110 120 109
106 118 106
105 118 105
109 120 109
103 118 103
110 120 109
100 110 99
101 111 102
107 118 106
99 113 100
104 114 104
102 114 101
98 110 98
98 114 98
45 90 49
51 99 55
47 93 51
50 97 54
49 98 54
49 98 53
49 98 54
49 98 54
51 95 53
50 100 55
52 104 58
52 99 55
56 108 60
52 102 57
50 98 55
52 102 57
51 99 55
51 102 56
53 102 57
52 102 57
49 94 52
52 101 56
52 102 57
51 98 55
50 98 55
47 92 51
48 92 52
47 90 50
50 96 54
46 88 49
46 89 50
53 98 55
47 90 50
44 85 48
46 85 47
44 86 48
44 82 45
43 79 44
45 85 48
40 75 42
43 81 45
45 86 48
45 84 47
45 81 45
42 77 44
39 73 41
39 73 41
40 74 41
40 74 41
36 68 37
0 0 0
0 0 0
0 0 0
0 0 0
0 0 0
0 0 0
0 0 0
0 0 0
0 0 0
0 0 0
0 0 0
41 11 11
80 23 22
96 26 25
99 27 26
91 25 24
100 27 26
92 26 25
103 28 27
98 27 26
97 26 25
98 27 26
108 30 29
108 30 29
102 28 27
103 28 27
101 29 27
110 30 29
109 29 29
111 30 30
111 30 29
108 30 29
113 31 30
119 32 31
113 30 30
111 30 29
113 30 29
114 30 29
111 29 28
114 30 29
112 28 28
108 28 27
108 28 27
116 29 28
100 25 24
97 23 23
99 24 24
98 23 23
90 20 20
92 22 22
80 18 18
96 22 22
85 19 19
83 21 20
76 18 17
71 18 17
71 17 17
63 16 15
78 20 18
70 16 15
75 19 18
84 34 33
87 69 68
83 67 66
83 70 68
77 62 61
82 71 70
83 64 62
85 69 68
77 63 61
74 60 58
84 66 63
78 68 65
79 65 63
89 66 63
82 63 62
74 61 60
71 53 50
79 60 59
82 29 29
82 39 38
87 32 32
82 29 28
82 24 23
87 28 28
122 118 115
128 123 121
122 119 117
121 117 115
117 112 110
126 123 122
131 124 123
123 121 119
129 123 122
118 114 112
126 121 120
130 128 126
132 127 126
125 122 120
125 123 121
128 124 123
134 131 130
141 137 136
130 129 126
136 130 129
138 137 134
134 131 130
127 127 125
142 138 136
132 130 128
133 130 128
143 141 139
143 142 140
133 130 129
128 126 125
133 131 129
136 134 132
127 125 122
137 134 132
140 135 133
134 132 129
137 136 134
145 144 143
136 135 133
137 135 132
145 144 142
137 133 131
145 145 141
138 136 133
142 140 138
141 141 137
145 146 142
147 144 142
144 145 142
149 147 145
144 145 140
142 145 140
129 130 125
115 118 112
125 128 123
120 125 118
121 130 121
123 128 122
123 129 120
124 130 124
121 129 121
125 130 122
122 126 119
126 134 126
124 129 123
117 124 114
118 122 113
120 126 118
117 124 116
120 124 118
124 128 120
122 130 121
120 129 119
113 120 111
122 126 118
122 129 121
112 117 110
123 128 121
115 122 112
116 124 116
122 129 121
119 128 117
117 125 116
112 121 110
118 127 118
121 129 120
116 126 116
110 121 109
120 127 118
110 120 110
116 124 114
107 119 106
113 123 112
110 120 110
110 120 110
103 116 103
103 112 102
107 116 106
106 115 105
113 123 114
113 122 112
112 125 113
108 119 109
103 115 104
106 118 105
107 119 106
108 120 109
100 113 100
108 118 108
101 112 101
104 116 105
105 112 104
100 113 101
102 115 103
105 116 104
102 116 103
103 114 102
104 110 102
95 108 95
98 111 98
89 104 89
47 94 51
47 95 53
50 100 55
47 94 52
49 92 51
50 99 54
50 98 54
53 102 57
53 104 57
51 103 56
52 102 56
49 98 54
52 103 56
53 102 58
55 108 60
54 106 59
53 105 58
52 101 56
52 101 56
50 98 54
51 98 55
51 101 56
51 100 55
50 100 55
49 94 52
49 96 53
47 91 51
46 89 50
48 92 51
50 96 54
47 91 51
48 93 52
47 93 52
46 89 50
46 86 47
45 87 49
47 89 49
44 84 47
43 82 46
45 83 47
44 82 46
41 75 42
44 82 46
42 77 43
41 78 44
42 79 44
39 73 41
40 73 41
42 79 44
33 62 35
0 0 0
0 0 0
0 0 0
0 0 0
0 0 0
0 0 0
0 0 0
0 0 0
0 0 0
0 0 0
0 0 0
38 11 10
97 27 26
91 26 25
89 25 24
89 25 24
95 25 25
99 27 26
97 26 25
101 28 27
98 28 26
105 29 28
102 28 28
105 29 28
110 31 30
102 28 27
101 27 26
103 28 28
111 29 29
109 29 28
104 28 27
117 31 30
110 29 28
107 28 27
117 31 30
113 31 30
115 30 30
111 30 29
116 30 29
110 29 28
107 27 26
105 27 26
105 25 25
102 24 24
98 23 23
99 24 24
98 23 23
87 21 21
95 22 22
84 18 17
92 22 21
88 19 19
77 17 17
81 18 18
80 20 19
71 17 16
69 16 15
65 16 15
61 16 14
66 16 15
63 17 15
84 36 36
82 62 61
87 77 75
85 68 67
81 67 65
82 69 67
71 57 54
73 60 56
74 63 62
86 65 64
70 56 54
84 69 67
81 60 59
81 68 67
85 73 72
68 52 51
72 58 56
69 59 56
76 40 39
74 21 21
75 25 24
78 25 25
77 39 38
86 35 32
110 105 102
127 120 119
125 120 119
120 119 117
134 131 129
126 121 119
126 117 115
132 128 128
134 132 131
127 125 124
133 129 128
127 124 122
133 130 129
132 127 126
128 124 120
135 130 129
124 123 120
128 127 124
132 131 129
126 120 118
137 132 131
129 124 122
127 123 122
134 133 131
141 139 137
132 130 127
129 128 126
129 129 126
137 135 132
136 133 131
140 138 134
141 139 137
134 132 130
131 126 124
145 145 143
136 133 131
136 133 131
138 135 133
136 132 130
135 134 131
128 125 121
144 141 139
141 139 137
139 140 137
136 133 131
136 135 132
138 138 135
146 142 140
141 139 137
143 143 140
133 135 132
146 149 145
145 147 141
120 124 117
118 120 115
119 124 116
118 122 115
118 122 115
117 124 116
113 119 111
121 126 117
123 130 122
117 123 116
121 124 117
118 127 118
119 125 117
118 127 118
116 122 113
122 125 118
121 127 119
127 131 126
117 124 116
118 127 118
122 125 118
119 127 117
125 131 121
120 124 118
125 131 124
116 120 112
115 125 115
116 124 115
117 126 117
118 127 118
116 120 113
114 121 111
112 120 111
120 127 120
112 121 111
119 123 117
120 126 117
108 118 108
117 125 116
110 121 110
110 119 110
113 122 113
111 121 109
106 118 106
106 119 107
108 121 109
109 118 109
107 116 106
110 120 109
108 119 108
106 115 105
100 115 101
103 115 103
107 120 108
106 117 105
108 119 108
107 115 107
106 117 105
103 114 103
104 115 104
99 112 99
102 109 99
98 112 97
98 113 99
95 106 94
102 117 103
99 111 99
93 109 93
48 93 52
48 96 52
50 100 55
48 95 52
50 96 53
51 100 56
52 102 56
54 105 59
48 95 53
53 103 57
51 100 56
51 101 56
52 104 57
54 106 60
51 103 56
51 101 56
51 101 56
54 106 59
54 108 60
49 94 53
51 100 55
51 100 55
50 96 54
50 98 54
46 93 51
46 91 51
49 95 53
48 95 53
47 88 49
46 89 50
46 91 51
47 89 49
48 91 51
41 80 44
48 92 51
45 82 46
45 83 47
44 82 46
43 83 47
41 81 45
44 84 47
45 85 47
41 78 44
44 82 45
44 81 46
43 81 46
41 77 43
42 77 44
41 75 41
36 68 38
0 0 0
0 0 0
0 0 0
0 0 0
0 0 0
0 0 0
0 0 0
0 0 0
0 0 0
0 0 0
0 0 0
48 13 13
94 25 25
92 26 25
92 26 25
94 25 25
92 25 25
95 27 26
99 28 26
99 28 27
98 27 26
97 26 25
100 28 27
105 29 28
105 28 28
101 28 27
110 30 29
102 29 28
113 30 30
104 29 28
125 34 33
110 30 29
114 30 30
107 30 29
113 30 29
107 29 28
115 30 30
109 29 29
113 29 28
116 31 30
111 29 28
105 27 26
115 28 28
107 25 25
103 25 25
99 25 25
98 24 24
80 18 18
91 21 21
85 20 19
81 20 19
79 18 18
80 19 19
87 21 20
64 15 15
69 17 16
69 17 16
58 13 12
70 17 16
57 15 13
71 16 16
70 32 32
74 57 56
74 59 58
76 58 57
82 68 66
77 58 57
74 55 53
78 61 59
79 64 61
75 64 63
79 62 60
74 56 56
78 60 57
73 55 53
76 59 58
68 56 54
74 48 46
76 63 60
74 38 36
72 30 29
77 21 21
82 21 21
80 24 23
85 28 26
125 118 117
124 114 114
120 115 113
111 106 104
122 119 117
123 117 116
123 119 117
129 127 125
126 120 119
119 115 113
125 123 121
137 134 133
129 126 126
128 126 124
140 133 132
134 130 128
131 125 123
126 122 120
129 127 125
131 127 125
138 135 134
142 135 134
139 136 133
135 130 129
123 120 118
125 124 121
133 131 130
134 130 128
125 124 121
137 131 130
129 127 125
130 127 125
142 140 138
138 136 133
139 135 134
137 137 134
136 135 134
133 131 129
127 126 122
124 121 119
122 121 118
122 125 121
140 136 134
139 135 132
136 136 134
142 138 135
141 140 138
136 134 132
124 125 120
136 136 133
137 137 132
139 138 135
139 140 135
118 123 116
123 129 122
118 124 117
121 124 117
118 120 115
125 129 124
113 121 113
119 124 117
122 127 120
128 133 127
121 126 119
118 123 116
120 125 118
119 124 117
120 129 120
123 128 120
118 123 115
117 122 114
120 127 119
120 127 119
120 127 119
114 122 113
125 131 123
122 126 120
115 122 114
120 129 119
120 126 119
116 124 114
116 125 117
112 122 111
117 121 114
115 124 115
116 121 113
107 115 105
113 119 112
116 124 116
122 130 121
114 122 113
109 116 107
109 118 108
102 108 101
112 121 112
112 120 111
110 119 108
109 119 108
103 115 102
104 118 103
115 124 113
102 112 100
110 117 109
108 119 108
111 121 110
106 117 107
112 121 112
105 115 105
103 116 103
103 113 102
103 114 103
106 119 107
101 112 101
99 115 100
104 115 104
103 113 102
101 118 102
106 117 105
97 106 95
95 106 93
92 108 93
48 95 52
49 98 54
45 90 49
50 96 53
52 101 56
50 99 55
48 95 52
51 97 54
53 105 58
51 101 56
52 102 57
51 103 57
51 101 56
54 105 59
50 99 55
50 100 55
51 99 55
51 99 55
51 101 56
53 103 57
52 98 55
52 101 56
50 99 55
47 91 51
52 102 57
48 93 52
50 93 53
46 89 50
44 89 49
46 88 48
50 96 54
45 87 49
44 83 46
47 88 49
45 84 47
42 82 45
47 92 51
45 86 49
47 89 50
43 81 45
46 87 49
39 75 42
42 81 45
43 81 46
41 77 43
38 71 40
40 74 42
46 85 47
45 79 44
32 61 34
0 0 0
0 0 0
0 0 0
0 0 0
0 0 0
0 0 0
0 0 0
0 0 0
0 0 0
0 0 0
0 0 0
39 11 10
92 25 24
91 25 24
96 26 26
97 28 26
97 26 26
97 27 26
93 25 25
101 28 27
102 28 27
99 27 27
108 30 29
101 28 27
106 29 28
110 30 29
108 30 29
110 30 29
108 28 28
114 31 30
112 30 29
116 32 31
119 32 31
116 31 30
107 29 28
118 31 31
117 32 31
116 31 30
115 31 30
110 29 28
110 28 28
109 28 27
100 24 24
109 28 27
99 25 24
95 23 22
86 20 20
101 22 22
88 20 20
99 22 22
91 20 20
79 19 19
77 18 18
80 19 18
73 16 15
69 16 15
83 21 20
60 15 14
64 17 15
69 17 17
72 19 18
71 24 23
72 65 63
73 57 56
65 49 47
70 50 48
71 54 53
70 58 54
68 49 46
75 63 60
76 62 60
74 57 54
71 58 56
77 63 60
76 52 51
74 61 59
63 51 46
70 51 48
68 49 47
74 39 39
80 22 21
84 27 27
83 30 29
84 32 32
81 32 32
112 103 101
122 116 115
127 120 119
129 125 124
127 125 123
132 124 122
123 117 115
121 116 115
136 131 131
119 112 112
132 127 124
123 117 116
134 129 128
124 118 116
125 121 118
132 127 125
134 127 127
134 127 125
125 122 119
130 128 126
140 133 132
132 129 128
136 136 134
133 131 128
127 125 122
133 131 129
135 132 130
126 123 121
134 131 129
137 133 132
140 138 137
133 128 127
135 133 131
138 137 134
145 141 140
132 128 126
142 139 138
135 133 131
145 141 139
137 136 133
145 142 140
140 136 135
139 136 134
134 133 129
141 139 137
152 153 149
135 135 131
134 133 130
146 145 144
143 139 138
141 138 136
130 130 126
131 132 126
121 125 118
119 119 115
121 124 117
116 122 115
126 130 124
121 127 120
112 117 110
123 131 123
129 132 125
134 138 133
134 136 131
120 121 117
127 132 125
133 138 131
126 130 124
121 128 120
125 129 123
130 134 128
121 126 118
126 132 124
118 124 117
127 133 125
118 127 116
118 125 117
116 123 116
114 125 114
119 125 117
117 125 116
113 122 113
114 121 113
115 125 114
114 124 112
111 120 109
110 120 110
117 124 116
114 121 112
117 125 117
111 121 111
115 124 115
113 117 111
120 129 120
113 124 113
115 125 116
114 126 114
119 129 119
110 121 111
103 115 103
111 120 110
108 118 107
107 121 108
109 118 107
109 120 109
108 119 106
108 120 108
106 114 105
102 114 101
103 114 102
104 114 102
105 117 105
101 113 101
103 115 104
99 112 98
103 114 102
98 112 98
99 111 99
105 114 105
100 109 99
95 111 95
45 90 49
51 101 55
50 98 54
51 100 55
51 102 56
48 94 52
49 99 55
52 101 56
51 102 56
51 98 55
49 98 55
53 102 57
53 105 58
54 104 58
52 101 56
57 110 61
51 103 57
49 96 53
51 103 56
55 105 59
49 97 53
49 97 53
49 96 53
49 96 53
50 97 54
48 94 53
46 90 50
47 91 50
46 91 51
49 93 51
46 87 48
47 92 51
45 85 48
42 85 46
44 86 48
46 89 50
46 84 47
45 87 48
42 78 44
46 87 48
45 82 46
44 80 45
40 76 43
42 80 45
40 75 42
40 76 43
39 73 41
38 71 40
42 72 41
35 67 38
0 0 0
0 0 0
0 0 0
0 0 0
0 0 0
0 0 0
0 0 0
0 0 0
0 0 0
0 0 0
0 0 0
39 10 10
91 25 25
89 25 24
94 27 25
98 27 26
98 27 26
100 27 27
101 28 27
102 28 27
93 26 25
98 27 26
104 28 27
99 27 26
102 28 27
105 29 28
110 30 29
104 29 28
108 30 29
106 28 28
110 30 29
115 31 30
117 32 31
107 29 28
117 32 31
105 28 27
114 31 30
117 31 31
109 28 27
110 29 28
108 28 27
110 28 28
107 28 27
102 25 24
100 24 24
91 21 21
99 22 22
88 20 20
94 22 22
93 21 21
81 19 19
80 19 18
82 17 17
77 18 17
74 17 16
74 18 17
62 14 13
67 15 14
66 16 15
62 15 14
66 16 15
69 23 22
68 54 53
64 53 51
70 57 57
75 56 56
70 55 54
60 45 42
77 59 57
79 58 55
75 52 50
77 57 55
73 52 50
83 68 66
66 50 46
71 55 54
79 63 61
70 49 47
83 59 58
69 31 30
74 25 25
79 23 23
81 21 20
73 25 24
85 31 30
124 117 116
125 117 116
128 125 122
122 120 119
124 119 117
124 117 114
124 118 118
127 119 118
122 120 118
131 128 125
127 125 122
126 121 119
131 125 123
131 127 126
134 131 130
130 126 125
129 128 126
134 128 128
125 121 120
122 118 117
127 124 122
135 131 130
126 120 119
141 134 132
134 131 130
133 131 129
136 136 133
135 131 129
131 131 129
133 131 128
133 127 126
137 134 132
130 126 125
122 120 117
136 133 132
136 131 129
134 133 129
134 131 130
138 134 132
133 132 129
144 141 140
140 139 137
134 132 129
136 135 133
139 139 137
131 132 130
138 136 134
131 128 125
141 140 138
134 137 131
142 138 136
136 136 133
130 132 128
121 126 119
122 128 119
119 123 117
122 126 120
124 127 122
132 135 129
149 153 148
150 149 146
157 156 152
163 163 160
152 153 150
150 150 147
155 157 151
152 156 151
151 154 148
157 157 154
148 150 145
152 155 150
155 155 150
150 151 147
155 153 149
154 155 150
152 153 149
143 147 141
144 147 140
140 142 136
147 150 146
134 137 131
140 144 138
138 144 137
131 136 129
143 150 142
132 139 131
135 138 132
125 131 123
132 137 128
124 130 123
120 125 119
122 128 121
123 135 123
121 128 120
127 135 127
124 131 122
119 129 118
111 120 110
120 129 119
109 119 109
110 118 111
107 116 106
106 114 105
109 118 108
106 120 106
106 116 105
107 120 107
107 118 107
102 117 102
105 115 104
109 120 108
101 114 101
100 114 101
105 116 104
103 113 102
98 111 98
101 117 102
101 113 101
97 108 96
97 113 98
100 112 97
47 94 51
47 93 52
48 96 52
49 95 53
48 96 53
50 99 55
54 104 58
53 103 58
54 106 59
53 104 58
50 96 53
51 105 57
48 95 53
51 101 56
48 96 53
49 98 54
51 98 55
54 107 60
49 98 55
50 100 55
50 100 55
51 97 54
50 98 54
49 93 52
49 96 53
50 99 55
47 90 50
46 88 49
46 88 49
43 85 47
47 93 51
44 84 47
49 96 54
46 89 49
45 86 48
42 78 44
43 81 45
43 79 44
44 83 47
46 85 48
41 77 43
46 84 48
41 75 43
40 72 41
42 78 43
40 76 43
38 70 40
39 70 39
40 74 42
31 58 32
0 0 0
0 0 0
0 0 0
0 0 0
0 0 0
0 0 0
0 0 0
0 0 0
0 0 0
0 0 0
0 0 0
39 11 10
92 25 24
95 26 25
92 25 25
95 27 26
99 27 26
99 27 26
100 27 26
99 28 26
102 28 27
99 27 26
98 26 26
101 28 27
102 29 27
101 28 27
112 30 29
108 30 29
111 30 30
111 30 29
116 31 30
115 31 30
106 30 29
115 31 31
113 31 30
117 31 30
121 32 31
111 30 29
116 31 30
116 30 29
111 29 29
120 31 30
102 26 25
100 24 24
94 23 22
92 23 23
93 23 23
91 21 20
75 17 17
79 18 18
87 21 20
81 19 19
78 17 16
78 18 17
78 19 18
64 15 14
60 15 14
57 15 13
63 16 15
70 16 15
73 17 16
66 32 30
77 59 55
69 50 49
68 50 49
73 58 55
68 55 54
77 62 58
72 58 57
74 60 57
60 49 49
75 60 57
70 54 53
72 59 56
76 54 53
77 57 56
67 53 50
69 49 47
68 51 45
68 30 29
80 38 38
84 25 24
80 34 33
81 28 28
84 24 24
123 116 114
128 123 122
112 107 106
121 116 115
123 122 120
122 118 116
125 121 120
125 120 119
130 124 123
123 117 117
120 115 113
115 112 108
126 121 121
129 126 124
129 123 123
122 118 117
126 124 122
125 121 119
133 129 126
132 128 126
128 126 125
131 131 127
138 136 135
128 125 123
138 135 134
133 131 129
128 125 123
134 134 133
140 137 134
138 135 133
137 134 133
135 132 130
135 131 130
141 140 138
135 135 133
133 130 128
135 132 131
141 138 138
132 132 129
148 146 145
132 129 127
145 141 140
133 133 129
144 143 141
136 133 132
136 135 132
134 133 130
140 136 135
146 146 142
139 138 136
128 124 122
139 139 135
143 145 141
117 122 115
121 124 119
133 136 131
143 145 140
141 141 137
152 154 150
158 158 154
147 150 143
153 152 148
148 149 144
145 146 141
160 163 159
144 145 140
144 147 141
145 147 142
142 144 139
149 153 149
149 148 145
151 153 147
143 147 139
144 147 142
142 145 139
153 156 152
138 139 134
150 153 148
145 148 142
149 153 146
147 151 145
142 146 139
147 148 144
144 149 142
146 149 144
144 146 140
139 146 138
147 150 145
144 149 142
147 148 143
139 143 136
140 145 139
138 142 135
135 142 134
145 143 138
132 136 129
138 138 133
134 140 132
137 143 136
136 140 134
139 143 135
138 141 134
140 143 135
128 131 124
135 144 135
134 138 130
133 140 131
133 140 132
128 136 127
134 142 133
128 132 125
128 137 126
128 133 127
124 133 122
110 119 108
102 116 103
100 113 101
99 112 98
103 115 103
92 103 91
96 109 97
46 94 51
47 94 52
46 93 51
50 97 54
48 96 53
49 99 55
50 96 54
49 99 54
51 100 55
51 99 55
51 104 57
48 97 53
51 102 57
52 101 56
50 98 54
52 100 56
51 99 55
51 104 57
52 101 56
52 100 56
51 100 55
53 105 58
49 94 52
51 101 56
48 94 52
49 94 52
45 89 49
46 92 51
45 89 50
48 95 53
47 90 50
48 93 52
44 85 47
43 85 47
43 84 46
43 83 46
45 83 47
44 82 46
46 85 48
44 85 47
41 77 43
43 77 43
42 80 44
43 81 45
41 75 43
40 77 43
39 74 42
44 80 45
40 70 39
31 56 32
0 0 0
0 0 0
0 0 0
0 0 0
0 0 0
0 0 0
0 0 0
0 0 0
0 0 0
0 0 0
0 0 0
40 11 10
93 26 25
97 26 26
96 26 26
93 25 25
88 25 24
94 25 25
97 27 26
100 28 27
109 30 29
106 29 28
98 28 26
104 30 28
103 29 27
105 29 28
113 30 29
106 30 28
111 30 30
109 29 28
106 29 28
110 30 28
106 28 27
121 33 32
112 30 29
114 31 30
109 29 28
110 30 29
114 30 29
113 30 29
106 27 26
103 26 26
105 26 26
96 24 23
93 23 22
99 25 25
80 19 18
91 20 20
82 19 18
86 20 20
82 18 18
81 19 18
91 21 21
73 18 17
70 17 16
68 15 14
61 13 12
66 15 14
62 15 14
61 16 14
66 16 14
63 20 19
68 49 46
70 56 54
72 51 50
69 56 54
72 58 57
69 52 50
66 49 47
67 50 50
70 51 50
71 47 45
62 44 39
69 53 52
63 44 43
69 56 55
62 49 47
67 51 49
61 47 44
77 39 38
78 21 21
80 28 28
77 24 23
83 29 29
77 24 24
120 108 106
124 118 117
128 123 122
120 116 115
126 124 123
125 119 118
128 124 122
122 118 117
128 124 122
122 122 119
130 124 122
119 116 114
138 134 133
121 118 116
123 118 116
125 124 122
126 121 120
128 122 121
130 127 126
139 135 135
129 128 126
126 120 119
129 126 126
133 126 123
121 120 116
126 121 120
131 128 127
137 135 134
137 133 131
126 123 121
131 127 125
125 124 122
128 124 123
138 135 134
132 128 127
140 135 134
135 133 130
146 141 140
138 135 132
144 142 140
136 132 131
133 130 128
140 140 138
140 137 136
140 138 136
131 131 129
135 135 131
142 143 140
131 129 127
137 136 134
141 137 135
145 143 141
139 139 136
145 147 141
156 157 152
149 150 144
147 149 145
149 148 145
143 143 140
154 150 147
153 151 148
141 145 140
142 144 139
145 146 142
150 151 146
149 147 142
144 145 141
149 152 147
149 151 146
146 146 143
149 151 147
146 147 142
148 147 143
150 150 145
147 149 145
147 149 144
146 147 142
139 137 133
142 143 139
144 149 141
149 149 144
136 135 130
148 149 144
140 146 139
147 151 145
141 146 140
148 150 145
132 137 131
135 140 133
138 139 134
130 135 128
134 136 130
138 141 135
133 138 131
137 140 134
140 143 138
137 141 134
137 142 134
137 142 134
133 137 131
136 142 134
133 138 131
130 135 128
136 140 133
133 142 131
134 135 128
136 142 135
131 138 130
126 132 125
130 133 127
130 135 128
131 136 128
130 133 127
110 118 107
50 78 53
89 103 88
103 114 101
99 111 98
99 112 99
92 106 91
83 101 85
46 94 51
49 96 53
49 97 54
49 97 53
48 94 52
49 97 54
48 98 54
52 101 57
51 99 55
52 105 58
49 95 53
50 98 54
51 100 56
51 102 56
49 96 53
52 100 56
53 102 57
52 100 55
51 101 56
48 97 53
49 95 53
49 95 53
51 100 55
51 99 56
48 94 52
49 96 54
45 92 50
44 87 48
43 86 47
46 91 50
44 86 48
45 87 48
47 91 51
45 87 48
44 83 47
44 83 46
45 85 48
44 83 47
41 80 44
43 81 45
40 77 44
40 76 43
41 77 43
41 79 44
41 77 43
43 78 44
44 82 47
38 73 41
41 78 44
33 60 34
0 0 0
0 0 0
0 0 0
0 0 0
0 0 0
0 0 0
0 0 0
0 0 0
0 0 0
0 0 0
0 0 0
45 13 12
89 25 24
95 27 25
83 24 23
91 25 24
99 28 27
98 27 26
107 29 29
102 28 27
102 28 27
103 29 27
104 29 28
102 28 27
104 28 27
109 30 29
105 29 28
97 27 26
106 29 28
112 30 29
112 30 29
108 29 28
113 30 30
106 28 28
112 31 30
107 29 28
110 29 29
114 30 29
116 29 29
114 32 30
111 29 28
105 27 26
107 27 27
99 25 24
91 21 21
88 21 20
81 19 18
85 19 19
86 20 20
82 18 18
70 15 14
79 18 18
76 17 17
68 16 16
71 15 14
60 14 13
58 14 12
62 13 13
55 13 12
66 16 15
63 16 15
72 35 35
69 52 50
67 51 48
74 57 55
67 51 50
65 51 49
56 41 40
68 47 45
66 52 51
64 47 46
66 52 50
66 47 47
67 47 45
60 49 47
72 53 52
69 50 47
61 50 48
74 48 46
68 28 26
67 26 26
75 27 27
78 29 29
82 26 26
85 29 29
117 109 108
130 123 122
125 120 119
122 117 114
127 121 120
122 119 117
129 126 124
130 125 124
121 116 114
126 123 121
122 115 113
121 116 113
133 128 126
132 128 128
126 117 117
121 118 117
125 121 118
129 127 126
132 127 125
127 124 122
127 122 121
122 119 116
126 121 119
131 124 123
129 123 121
135 132 131
128 127 125
129 124 122
132 130 127
135 132 130
148 145 144
134 130 128
142 141 137
139 136 135
135 131 129
135 129 127
137 134 132
138 135 133
144 142 140
146 143 141
138 136 134
133 127 124
135 134 131
142 137 136
143 140 137
143 144 141
144 142 140
134 135 131
142 141 138
146 146 143
147 144 140
146 145 141
149 145 142
141 140 136
153 151 147
141 141 136
144 145 140
147 145 142
133 135 131
144 141 138
142 145 139
138 135 131
137 141 135
149 144 142
142 144 138
149 146 143
144 145 140
150 149 146
148 147 144
148 148 144
142 145 140
142 144 140
141 141 137
144 146 140
143 144 141
139 142 136
143 143 138
142 144 138
140 140 136
143 142 139
139 141 136
133 139 132
139 141 135
146 145 142
142 146 140
140 143 136
141 142 137
139 143 136
141 144 139
130 135 127
134 136 130
140 143 137
137 144 135
136 142 135
132 134 130
134 139 131
132 134 128
130 129 125
133 135 128
131 133 128
129 135 127
132 132 127
129 136 128
130 131 126
129 132 125
131 137 129
130 133 126
133 140 132
128 136 127
128 132 125
125 131 123
128 133 126
97 112 98
38 68 40
37 75 41
91 104 92
103 114 102
104 116 103
99 112 98
96 110 97
91 106 91
46 92 51
49 97 54
48 97 53
48 97 53
48 96 53
50 97 54
53 104 58
51 99 56
49 99 54
49 97 54
50 98 55
52 105 58
51 102 56
52 103 57
55 109 60
52 102 56
52 101 56
51 99 54
51 101 56
53 104 58
50 100 55
47 91 51
47 92 50
49 97 53
47 94 51
50 95 52
44 88 48
49 94 52
47 90 50
46 88 49
44 86 47
43 85 47
44 85 47
47 89 49
44 86 47
44 81 45
42 81 44
46 83 47
43 81 45
41 77 44
40 76 42
42 80 45
43 80 45
42 77 44
46 85 48
40 75 42
38 75 41
42 76 43
39 71 40
34 61 34
0 0 0
0 0 0
0 0 0
0 0 0
0 0 0
0 0 0
0 0 0
0 0 0
0 0 0
0 0 0
0 0 0
47 12 12
87 24 23
92 26 24
100 27 26
95 26 25
94 26 25
97 26 26
99 27 26
95 26 25
94 26 25
101 29 27
103 28 27
103 29 28
106 29 28
106 29 28
106 28 28
108 30 29
106 29 28
106 28 28
107 29 29
114 31 30
113 31 30
110 29 28
111 30 29
117 31 30
116 30 29
110 29 28
111 29 29
102 26 26
116 29 29
109 28 28
101 26 25
103 26 25
97 24 23
97 24 23
92 21 21
88 21 21
77 16 16
89 19 19
83 18 18
76 17 16
66 15 14
76 17 16
68 15 14
61 13 12
66 15 14
59 13 12
55 14 12
61 16 14
46 12 10
63 14 14
66 48 46
63 46 44
71 52 50
62 48 45
60 44 42
68 48 45
63 48 47
67 54 53
67 49 47
65 49 48
62 50 45
70 50 45
55 43 42
56 45 43
64 44 43
72 57 54
59 43 39
64 24 22
66 25 25
75 31 30
81 33 33
77 21 21
75 28 27
117 104 103
130 122 121
130 125 124
118 112 111
129 122 120
122 115 114
124 122 119
126 122 121
119 113 112
132 129 127
121 116 114
130 127 125
119 117 115
129 123 123
133 130 129
111 107 104
126 121 119
129 126 125
131 129 128
134 130 128
137 136 134
130 129 126
133 129 128
130 127 125
122 120 116
127 124 122
131 125 124
136 133 132
140 136 135
135 130 128
133 129 128
125 122 120
131 129 127
137 135 134
132 128 126
128 123 121
142 139 137
133 129 127
124 122 119
144 144 140
134 131 129
143 137 135
135 135 132
149 147 144
131 131 128
146 144 142
139 136 133
144 143 139
146 146 143
142 140 135
134 136 131
150 148 143
134 135 130
151 150 146
148 145 141
142 140 137
146 144 140
140 145 139
138 138 134
140 142 138
138 139 135
138 138 134
140 142 138
143 143 138
138 140 136
140 134 132
136 140 134
136 137 132
145 144 139
141 141 137
136 140 134
136 134 131
137 137 134
137 138 133
134 132 129
139 137 132
138 140 135
138 137 132
134 134 130
137 138 134
130 132 128
136 140 135
139 139 134
130 132 127
137 138 133
133 136 130
136 136 133
135 134 130
134 137 131
130 135 129
138 139 134
138 140 135
128 131 126
132 132 128
128 133 127
126 132 125
133 136 129
130 132 126
132 133 128
121 123 118
135 139 133
130 132 127
126 127 121
131 137 129
127 131 124
128 130 124
125 128 122
128 131 124
129 131 126
126 131 124
123 126 119
76 92 76
37 72 40
38 69 41
40 73 41
96 111 96
99 114 99
97 110 96
100 113 99
104 115 105
95 111 96
45 89 49
47 97 53
51 104 57
47 93 52
48 96 53
49 96 53
51 102 57
50 100 56
48 95 53
53 105 58
54 106 59
53 102 57
51 99 55
49 98 54
50 99 55
53 102 57
50 100 55
52 103 57
52 101 56
51 103 57
53 100 56
48 96 53
51 99 54
49 94 52
46 89 49
45 92 50
49 94 52
48 93 52
46 90 50
44 85 47
46 89 49
45 87 48
44 89 48
45 88 48
43 83 46
44 84 47
43 83 46
45 85 48
42 82 46
45 84 47
43 81 45
42 78 44
42 80 46
41 78 44
44 79 45
42 77 43
41 77 43
39 73 41
40 76 43
36 67 37
0 0 0
0 0 0
0 0 0
0 0 0
0 0 0
0 0 0
0 0 0
0 0 0
0 0 0
0 0 0
0 0 0
44 12 12
90 24 23
86 23 22
91 26 24
92 25 25
98 26 25
98 28 26
98 26 26
97 26 26
95 26 25
101 28 27
104 28 27
106 29 28
109 29 28
103 29 28
104 28 27
111 30 29
116 32 31
110 29 29
103 29 27
112 31 29
113 30 30
114 31 30
115 30 30
118 31 31
104 28 27
107 28 28
112 30 29
103 28 26
112 30 29
106 28 28
105 26 26
98 24 24
96 24 23
100 22 22
84 19 19
84 20 20
86 20 20
82 20 20
72 16 16
79 18 18
72 16 16
64 15 14
62 12 12
66 15 14
68 16 15
59 14 13
54 12 11
61 15 14
55 15 13
61 19 18
63 48 48
59 44 42
57 42 39
57 38 36
60 42 40
67 54 52
50 40 35
60 41 40
61 45 41
70 48 46
61 42 41
62 43 39
56 44 41
60 46 44
64 43 40
57 42 37
59 46 43
70 35 34
72 27 26
75 27 26
83 28 28
79 25 24
81 32 31
116 107 107
119 119 116
120 115 114
115 109 109
116 113 111
131 129 127
128 122 121
131 123 122
116 114 111
121 120 117
124 122 120
128 124 123
117 113 111
126 122 121
131 129 128
135 131 128
133 128 126
130 124 123
121 117 116
130 127 125
135 130 128
130 127 125
141 138 136
134 130 129
129 124 123
127 122 120
136 131 130
129 126 125
128 125 121
129 128 125
135 132 130
134 129 128
137 131 130
139 137 134
126 123 122
140 136 134
137 135 133
137 134 132
144 138 138
145 141 140
138 136 134
132 128 127
136 134 132
144 142 139
127 120 118
129 123 121
128 121 119
126 123 121
127 125 122
130 129 126
140 141 138
141 142 139
143 142 139
139 136 133
142 141 138
140 136 134
137 136 131
141 142 139
139 139 135
131 131 125
131 131 127
132 132 129
136 138 133
141 139 136
136 136 131
138 136 133
136 136 132
138 139 135
137 137 132
135 135 132
131 126 122
134 137 133
134 134 129
135 132 129
132 134 127
130 134 128
132 133 128
135 136 133
133 134 129
132 132 128
139 139 136
126 126 121
134 133 129
134 138 133
135 133 129
131 134 129
133 131 124
134 140 133
131 132 127
135 136 132
131 133 128
134 136 131
128 131 124
130 132 126
123 127 120
128 132 126
130 132 126
129 131 126
123 127 120
129 133 126
129 126 121
125 128 123
123 126 118
130 126 122
129 130 125
127 131 126
125 127 120
127 129 124
122 126 119
105 111 104
77 89 74
35 65 38
36 71 39
39 72 43
38 73 41
95 109 95
95 112 97
99 111 99
102 115 102
97 107 93
88 104 89
44 90 49
47 93 51
48 96 52
48 93 52
49 96 53
48 97 53
50 99 55
49 96 54
51 102 56
49 100 54
52 102 57
52 104 58
50 99 55
52 102 57
50 98 55
51 100 56
51 103 56
50 100 55
48 96 53
53 102 56
48 94 51
50 97 54
50 97 54
50 99 54
48 94 52
47 90 50
46 91 50
40 80 44
44 88 48
45 91 50
45 85 47
44 85 47
44 87 48
44 88 49
46 88 48
44 85 47
42 81 44
44 85 47
40 77 43
42 82 45
42 80 45
42 80 45
42 81 45
38 72 40
40 78 43
41 76 43
39 73 41
39 72 41
40 77 43
33 62 35
0 0 0
0 0 0
0 0 0
0 0 0
0 0 0
0 0 0
0 0 0
0 0 0
0 0 0
0 0 0
0 0 0
44 13 12
88 24 23
92 25 24
94 25 25
94 26 25
93 26 25
94 26 25
100 28 27
102 27 27
100 28 26
100 28 27
102 28 27
106 29 28
104 28 27
105 28 27
105 29 28
111 31 29
111 30 29
113 30 30
109 30 29
111 30 29
108 29 29
114 31 30
114 31 29
115 31 30
113 30 30
113 30 29
107 27 27
107 29 28
113 28 27
108 28 28
99 25 24
98 23 23
89 21 21
93 21 21
88 19 19
85 19 18
78 17 17
72 15 15
71 15 15
79 19 18
73 15 15
66 14 14
64 12 12
57 12 11
60 15 14
62 13 13
59 15 13
64 17 16
51 14 12
61 21 20
65 51 48
67 46 44
65 53 51
62 47 43
49 32 31
58 44 44
57 44 42
60 43 41
58 37 33
61 45 44
68 51 48
61 37 36
58 44 42
57 35 29
56 43 41
63 47 43
71 44 42
69 25 25
75 21 21
69 20 19
68 26 26
82 33 32
82 26 26
119 113 110
122 117 116
120 114 113
117 113 112
129 120 119
124 118 116
124 120 118
118 114 112
125 122 120
124 114 113
125 119 118
129 126 125
128 122 121
122 114 114
121 116 114
127 122 122
128 125 124
132 127 126
134 132 129
136 131 130
129 123 122
135 133 132
124 120 118
126 123 122
131 125 124
132 126 124
128 124 123
138 133 131
123 120 118
132 128 126
132 130 128
136 133 132
132 129 127
133 130 128
137 131 129
144 139 137
130 129 125
128 124 121
142 139 137
140 135 133
137 134 132
141 139 137
136 134 131
145 141 139
62 53 51
38 24 24
39 27 27
34 19 18
43 18 18
34 17 17
43 39 38
40 32 32
51 46 45
69 62 62
67 55 54
69 67 63
69 64 64
79 77 76
84 77 76
81 74 73
82 81 78
87 86 84
86 84 82
100 100 96
99 97 93
105 104 101
106 102 100
117 117 112
113 113 110
106 107 105
111 112 108
122 123 119
126 121 118
126 129 125
122 121 117
129 131 127
132 133 129
136 138 135
128 127 124
131 131 126
124 127 122
127 128 124
137 136 132
128 130 124
127 128 123
127 130 125
128 128 123
125 128 122
126 124 120
128 126 122
124 127 122
134 132 128
131 129 126
125 127 122
133 137 132
127 127 122
122 124 119
119 123 118
123 130 122
127 126 123
120 126 119
123 125 120
121 122 117
121 127 120
124 129 122
119 122 115
126 129 123
126 127 121
94 104 92
40 61 41
35 64 37
40 70 42
38 69 40
41 74 44
42 75 44
97 111 98
100 113 100
100 110 99
94 107 93
98 109 98
92 109 92
48 97 53
46 92 51
50 101 55
50 100 55
47 95 52
51 102 55
50 99 55
52 100 56
51 100 55
53 105 58
52 103 56
51 100 55
50 98 54
50 99 55
54 108 60
52 102 57
51 99 55
49 99 55
53 104 58
52 102 57
50 102 56
48 95 52
48 92 51
47 94 51
50 101 56
49 95 53
45 89 49
45 89 49
44 87 48
45 86 48
47 88 49
46 85 47
43 83 46
44 83 47
43 85 47
46 88 49
45 85 47
43 82 46
40 75 42
43 82 46
40 78 44
39 75 42
38 73 40
37 70 39
42 76 43
41 76 43
37 73 40
42 77 43
37 69 38
38 65 37
0 0 0
0 0 0
0 0 0
0 0 0
0 0 0
0 0 0
0 0 0
0 0 0
0 0 0
0 0 0
0 0 0
43 12 12
88 25 24
93 26 25
94 26 25
91 25 24
95 26 25
92 25 24
94 26 25
104 30 28
88 24 23
102 28 27
101 28 27
101 28 27
101 28 27
113 30 30
103 28 27
108 29 29
111 30 29
111 30 29
114 30 30
113 30 29
110 30 29
108 29 28
115 30 29
117 32 31
113 30 29
106 28 27
108 28 27
112 30 28
106 26 26
101 26 25
107 27 27
94 23 23
91 20 20
81 20 19
79 18 18
79 17 17
73 16 16
70 15 15
77 18 18
71 16 15
62 13 13
71 15 15
62 14 14
63 14 14
61 13 13
57 15 13
46 12 9
60 15 13
53 12 10
62 34 33
65 41 40
66 46 44
60 43 39
57 44 41
67 57 54
59 44 42
56 33 29
61 45 43
64 42 41
54 40 36
59 43 38
60 39 38
56 34 33
68 44 41
58 37 33
55 35 32
57 44 40
68 31 29
69 22 22
75 23 23
78 22 22
76 30 30
81 26 25
117 106 105
118 115 114
121 116 116
124 118 116
122 115 113
129 122 121
117 110 109
120 116 114
122 113 112
128 126 125
123 118 115
125 119 118
126 123 121
120 115 113
126 121 121
126 122 121
125 121 120
128 125 123
136 131 130
121 117 114
120 121 117
125 119 118
133 131 129
127 123 121
133 126 125
127 122 121
136 135 133
132 126 126
132 129 128
130 131 128
129 125 124
135 131 130
136 130 130
131 126 124
137 133 131
129 127 126
141 137 136
141 139 138
141 137 136
138 137 134
139 137 135
145 140 140
134 131 129
148 147 144
51 39 39
26 18 18
51 36 34
49 32 31
27 20 20
44 31 31
23 20 20
23 12 12
34 25 24
34 22 22
39 29 29
39 30 30
38 25 25
36 26 25
43 32 31
38 25 24
34 28 27
34 26 26
36 25 25
34 23 23
30 21 21
20 15 15
30 21 17
28 22 20
37 27 26
32 13 12
29 19 18
36 23 23
29 20 19
38 27 26
37 23 22
36 22 21
32 26 26
49 49 45
53 48 47
54 45 44
62 59 56
67 64 62
72 71 67
77 73 69
77 71 70
72 72 69
93 90 87
79 83 77
105 104 103
93 95 91
91 91 88
109 107 103
112 113 109
100 101 96
115 111 108
114 117 112
104 104 101
106 107 104
112 118 111
116 118 113
116 117 112
121 124 118
124 127 120
121 123 117
117 119 114
120 120 117
120 124 116
72 84 71
35 60 37
35 62 36
36 69 39
39 74 43
35 67 38
36 71 39
40 75 43
97 109 97
94 108 94
101 114 101
97 105 95
100 112 100
91 107 92
46 92 51
48 95 52
48 95 53
47 92 50
52 104 57
48 93 51
51 100 55
48 96 53
49 97 53
51 101 56
52 104 58
47 94 52
50 100 55
50 98 54
53 105 58
50 101 55
48 94 52
55 107 60
51 99 55
52 104 57
53 106 59
46 91 50
48 94 52
50 98 54
47 94 51
47 94 52
47 93 51
45 87 48
45 87 48
43 83 46
48 91 51
43 86 47
43 86 48
44 87 48
46 88 49
42 80 45
40 78 43
43 83 46
41 76 42
43 81 46
43 80 44
40 77 43
41 78 44
44 83 46
41 73 41
41 75 43
41 75 42
37 72 40
41 76 43
31 59 33
0 0 0
0 0 0
0 0 0
0 0 0
0 0 0
0 0 0
0 0 0
0 0 0
0 0 0
0 0 0
0 0 0
43 12 11
85 23 23
95 27 26
89 25 24
96 27 26
100 28 27
99 28 27
101 28 27
100 26 25
109 30 29
105 28 27
103 29 27
102 28 27
104 28 27
102 28 27
102 28 28
108 29 28
107 28 28
107 30 29
103 29 28
107 29 29
108 30 29
113 29 29
105 28 27
117 30 30
104 28 27
112 29 29
110 28 28
112 30 29
110 29 28
101 25 24
97 24 23
87 21 21
89 22 21
87 20 20
83 20 19
77 18 17
73 15 15
74 16 16
69 16 15
69 14 13
66 15 13
65 16 15
64 15 14
67 14 14
62 12 12
55 13 12
54 12 11
58 15 13
51 13 10
49 17 16
55 35 34
59 42 41
60 50 47
57 39 38
58 46 45
55 44 43
60 40 38
61 40 37
54 32 31
51 37 35
53 37 35
52 31 27
65 50 49
52 38 33
55 39 36
58 49 47
58 45 40
61 27 25
66 25 24
74 35 33
70 21 21
87 34 34
80 29 29
114 102 101
123 118 117
117 111 109
125 118 116
124 120 118
120 116 116
116 111 110
124 119 118
120 117 115
124 121 121
120 118 118
126 119 118
117 109 108
125 121 119
121 117 116
118 118 115
124 117 116
130 125 125
124 119 118
124 122 119
124 123 120
131 125 125
134 132 130
125 125 122
127 122 120
129 128 126
133 131 130
136 129 128
135 132 132
125 125 122
131 128 127
119 117 115
137 134 132
125 121 120
134 127 126
132 128 126
145 142 141
132 131 129
122 117 115
139 136 134
139 137 135
129 127 125
138 134 133
141 138 136
44 38 36
34 18 16
35 26 24
37 30 28
44 31 31
38 22 22
42 34 34
37 23 23
32 19 17
30 20 19
30 20 19
32 19 17
30 22 22
35 24 24
27 15 15
33 20 20
41 29 29
30 21 20
51 38 38
36 29 26
33 19 19
36 22 21
26 22 22
35 23 23
28 21 17
41 29 29
18 11 10
34 18 18
29 22 19
36 29 28
23 20 19
33 18 16
30 22 22
28 21 21
33 20 20
32 29 28
32 26 26
27 16 16
40 26 25
33 21 21
28 21 21
24 20 20
25 15 15
34 32 28
29 20 19
29 13 13
16 14 13
29 21 18
22 18 16
27 22 22
34 18 18
15 9 9
23 17 15
28 21 20
25 15 14
18 13 13
25 22 19
31 25 23
25 22 20
26 21 21
50 50 48
50 48 47
54 63 52
34 61 36
31 59 33
36 67 39
37 64 39
34 67 37
34 67 38
46 73 48
39 71 41
89 102 89
96 107 95
96 111 97
97 112 98
101 114 101
94 108 93
47 96 52
47 93 51
46 93 50
47 95 52
51 100 55
50 99 55
50 97 54
49 97 54
48 96 53
50 98 54
49 99 55
50 99 55
47 95 52
50 102 56
55 108 60
53 105 58
52 102 57
52 105 57
48 96 53
50 99 55
47 93 51
48 95 53
48 94 52
50 100 55
48 96 52
46 89 49
46 92 51
46 91 50
47 91 51
45 89 48
44 87 48
41 82 45
41 83 45
44 84 47
41 80 45
41 77 43
42 83 45
38 75 41
40 78 43
45 85 48
43 80 45
40 76 42
43 76 43
41 76 43
39 75 43
40 73 40
40 74 41
39 73 41
37 72 40
35 65 37
0 0 0
0 0 0
0 0 0
0 0 0
0 0 0
0 0 0
0 0 0
0 0 0
0 0 0
0 0 0
0 0 0
39 11 11
98 27 26
91 25 24
87 24 23
94 26 25
96 26 26
101 28 28
94 26 25
98 27 26
100 28 27
98 27 26
101 28 27
96 27 26
103 28 28
100 27 26
106 30 28
102 28 27
112 31 30
108 28 28
107 30 29
112 31 30
106 29 28
108 29 28
109 29 29
115 30 29
115 32 30
109 28 28
106 28 27
102 27 26
104 27 26
95 24 24
102 26 25
91 21 21
93 22 22
81 20 19
81 18 18
74 16 16
74 16 16
77 17 17
75 16 16
70 15 15
71 16 15
60 15 14
74 17 16
61 12 11
60 14 13
60 14 13
54 12 11
53 14 12
53 13 12
54 20 18
70 50 49
56 37 36
52 41 39
47 29 27
50 33 31
55 38 37
46 38 33
50 31 30
59 36 33
56 35 34
58 39 38
62 41 37
59 39 34
59 40 36
53 33 30
58 34 30
59 41 36
58 19 18
64 20 20
67 28 27
80 27 26
79 36 36
82 30 29
120 111 110
118 115 111
118 112 110
126 118 117
119 116 113
114 112 110
118 116 114
116 108 107
128 125 123
123 119 118
124 118 117
128 123 122
126 122 120
123 119 118
122 119 118
119 114 113
128 120 119
129 124 124
133 130 127
126 119 118
133 126 125
129 124 123
131 123 120
138 135 133
138 136 135
132 126 125
139 136 135
133 127 127
133 128 127
136 132 131
125 121 119
129 127 125
135 131 129
132 129 127
131 129 127
138 134 133
132 126 125
132 130 129
142 138 137
131 127 125
143 140 139
136 135 132
139 137 135
136 132 131
60 54 53
39 31 30
31 20 20
32 16 16
39 28 27
38 21 21
35 19 19
45 33 33
31 18 18
43 23 23
30 24 22
31 24 23
33 17 17
34 24 23
37 22 22
29 24 21
29 19 19
35 23 23
40 14 13
24 18 18
36 34 33
23 17 16
32 16 16
27 21 20
21 23 19
27 17 15
31 19 15
30 18 18
30 22 21
31 28 25
23 22 19
23 14 14
32 22 22
27 20 20
35 22 21
36 28 27
27 22 21
26 24 20
26 14 14
38 28 26
32 32 28
36 28 27
25 17 15
24 20 20
29 18 17
15 14 13
31 20 18
25 17 17
23 14 14
20 16 15
23 13 13
36 30 29
21 16 15
25 18 17
33 23 22
22 15 13
18 14 13
26 16 13
23 6 6
24 21 19
27 25 25
18 14 14
22 33 22
30 57 33
31 59 33
34 62 37
33 62 36
37 68 40
37 68 39
42 78 45
36 67 39
88 100 87
95 112 96
94 108 95
94 106 93
98 109 97
94 107 94
46 90 49
48 96 52
49 98 54
46 92 51
49 99 54
52 104 57
50 100 55
49 96 53
51 101 55
49 97 53
52 103 56
50 99 54
50 99 55
51 101 56
50 100 56
51 102 56
49 99 55
47 95 52
49 98 54
50 101 56
52 104 57
50 99 55
48 97 53
47 92 51
50 98 53
47 93 51
48 94 51
44 88 48
44 86 48
46 92 51
45 89 49
43 82 46
44 84 47
42 82 45
42 82 45
42 81 45
40 77 43
44 81 46
42 79 44
40 78 43
43 78 44
43 81 45
42 81 45
39 73 41
41 78 44
38 74 41
41 76 43
40 72 41
37 68 39
34 61 34
0 0 0
0 0 0
0 0 0
0 0 0
0 0 0
0 0 0
0 0 0
0 0 0
0 0 0
0 0 0
0 0 0
43 12 12
96 26 26
89 25 24
86 24 23
92 25 24
100 28 27
97 27 26
100 27 27
102 28 27
96 26 25
100 27 26
112 30 29
104 29 28
107 28 28
105 29 28
111 30 29
99 27 26
104 29 27
102 28 27
107 28 27
114 32 30
103 27 27
112 30 29
109 29 28
110 30 29
110 30 29
110 30 29
110 30 29
107 27 26
99 26 25
94 23 22
89 22 21
96 24 23
84 21 20
77 17 16
79 18 18
75 16 16
75 16 16
72 14 14
75 17 16
67 14 14
74 17 17
68 17 15
63 13 12
68 15 15
65 15 14
63 15 13
48 10 9
58 15 13
47 11 10
59 12 11
47 34 33
57 33 31
45 27 25
56 40 38
57 35 34
50 33 28
58 34 29
65 42 40
56 36 33
56 38 35
57 42 36
55 38 35
58 39 35
48 34 28
60 41 38
55 35 33
58 37 32
63 31 30
72 26 26
74 22 21
75 19 19
78 23 23
83 31 30
105 96 94
123 113 113
125 118 116
122 119 117
120 116 114
114 109 107
126 119 119
116 112 110
121 116 115
127 120 119
122 117 116
123 117 117
128 122 121
122 116 115
121 116 115
124 122 121
130 126 124
143 139 139
128 123 122
133 128 126
130 126 124
133 130 130
131 126 125
133 127 126
130 127 125
129 125 125
133 130 127
128 125 123
130 122 122
137 131 130
132 126 126
137 132 132
146 141 140
137 131 130
140 134 133
132 128 127
134 133 131
132 130 127
131 129 127
139 136 133
135 132 131
141 138 137
146 142 141
146 145 143
54 49 46
31 26 26
39 29 28
49 25 24
27 18 16
41 24 21
36 21 21
27 14 13
26 20 19
42 28 26
41 26 25
30 20 17
34 30 30
48 35 33
36 25 25
37 29 27
34 25 22
39 26 26
16 14 14
36 26 26
33 19 19
31 25 21
30 22 21
36 29 28
17 11 10
28 17 17
43 31 31
25 16 16
29 26 25
35 24 24
20 18 17
32 20 19
34 26 24
27 16 16
24 18 18
39 33 32
28 20 19
21 10 10
27 16 15
22 17 14
33 21 20
18 17 16
25 23 18
37 22 22
42 27 26
27 21 20
19 8 6
23 15 14
28 18 18
32 18 17
23 9 9
19 21 17
13 12 12
32 17 17
23 18 16
35 27 24
18 13 10
16 18 12
18 14 13
28 22 22
36 17 15
25 18 16
40 47 33
33 61 36
33 61 35
34 64 37
35 66 38
38 68 41
40 73 42
42 70 44
41 74 44
90 109 92
91 106 92
99 111 99
103 112 102
92 108 93
89 101 89
45 93 50
48 96 52
47 94 51
48 95 53
49 98 55
49 99 54
49 96 54
49 97 54
51 103 57
51 104 57
49 96 53
52 104 58
47 93 51
49 97 54
50 99 55
53 105 58
50 98 54
52 104 57
50 98 54
50 101 56
49 96 54
50 100 55
47 95 52
47 95 52
45 90 49
47 93 52
43 85 47
47 90 50
43 89 48
44 87 48
40 80 44
43 86 47
42 82 45
45 87 49
41 81 44
43 86 47
43 85 47
44 87 48
43 82 46
42 77 44
40 77 43
40 77 43
42 78 44
41 79 44
40 74 42
41 74 41
38 70 39
40 76 43
39 73 41
37 66 37
0 0 0
0 0 0
0 0 0
0 0 0
0 0 0
0 0 0
0 0 0
0 0 0
0 0 0
0 0 0
0 0 0
35 10 9
83 24 22
88 24 23
95 26 25
95 27 25
94 26 25
98 27 26
97 27 26
97 26 25
100 27 26
100 27 26
101 27 26
108 29 28
108 30 29
101 27 27
99 27 26
112 31 30
106 29 28
110 30 29
103 28 27
109 29 28
110 29 28
108 30 28
114 30 29
113 29 28
112 30 29
114 30 30
106 28 28
106 27 27
106 28 27
110 28 28
94 23 23
89 20 20
81 18 18
78 18 17
77 17 17
82 17 17
75 15 15
69 14 14
73 16 16
64 13 13
72 16 16
68 15 14
67 15 15
70 16 15
58 14 12
71 18 17
61 15 13
56 14 12
53 14 12
54 17 16
51 38 35
52 37 35
48 32 31
52 28 26
53 32 31
48 32 28
61 46 41
54 37 35
55 41 38
47 35 32
55 38 35
52 39 36
56 36 35
55 37 32
55 38 33
57 34 28
56 40 35
68 32 31
68 21 21
76 21 21
68 27 26
75 25 25
75 29 28
115 102 102
119 108 108
117 110 109
115 109 107
124 118 117
121 116 114
135 129 128
129 119 118
125 121 120
125 118 118
128 122 121
126 121 120
131 128 126
133 127 127
116 112 112
122 117 116
122 121 119
131 126 125
118 113 111
137 130 129
128 123 121
124 118 118
125 116 116
125 121 119
137 129 129
130 126 126
130 125 122
132 128 126
130 125 123
137 137 134
125 122 120
138 135 134
132 128 127
133 129 128
141 138 136
123 121 119
124 119 118
131 127 124
147 145 144
139 133 133
139 136 135
133 130 129
141 138 136
142 139 138
55 42 42
38 23 23
30 22 22
37 24 24
30 19 18
34 21 20
43 28 27
41 27 27
43 34 33
36 20 19
37 24 24
17 15 15
32 24 24
34 23 22
44 30 30
29 12 12
31 24 24
28 22 20
39 26 25
29 23 23
25 18 18
35 26 25
31 27 25
24 15 14
37 28 27
35 26 26
36 25 25
21 10 9
41 28 28
31 26 26
29 22 21
28 22 22
19 12 9
29 18 17
22 15 15
23 14 14
31 22 22
28 21 19
33 23 20
29 20 19
23 21 20
25 19 17
37 27 25
31 16 15
31 24 22
24 10 10
25 23 20
21 14 14
30 15 14
35 28 26
19 16 15
29 19 17
16 11 11
15 13 12
21 11 9
23 15 14
31 24 23
27 21 19
19 17 14
18 16 15
16 15 13
20 17 16
31 40 26
35 61 36
36 62 38
38 68 40
39 67 40
34 61 36
38 65 39
39 72 41
39 75 43
85 105 86
99 111 99
98 106 96
99 114 99
92 106 93
92 106 91
48 97 52
49 100 54
49 97 53
47 94 52
49 98 54
48 96 53
51 99 55
49 98 54
49 97 54
51 99 55
49 99 54
50 99 55
47 93 51
49 99 55
50 99 55
52 103 57
50 100 55
50 99 54
51 103 57
48 92 52
50 101 56
46 93 51
51 101 55
47 93 52
48 95 53
47 93 50
49 98 54
45 92 50
45 87 48
43 84 46
44 85 47
47 92 50
42 82 46
42 83 46
44 86 47
42 84 47
40 82 44
39 76 42
41 76 43
41 81 45
41 79 43
41 76 42
42 76 43
36 70 39
38 72 40
39 74 41
38 73 40
37 69 39
39 70 40
32 60 34
0 0 0
0 0 0
0 0 0
0 0 0
0 0 0
0 0 0
0 0 0
0 0 0
0 0 0
0 0 0
0 0 0
45 11 11
89 24 23
87 24 23
92 27 25
93 25 24
95 26 25
95 25 24
92 25 24
100 27 26
98 27 26
96 26 26
100 27 26
107 29 29
99 26 25
102 28 27
103 28 27
103 28 26
107 29 28
108 29 28
104 28 27
103 28 27
110 29 28
111 30 29
107 28 27
112 30 29
109 29 28
112 30 29
109 29 28
104 28 27
104 27 26
106 27 27
88 23 22
90 21 21
87 20 20
84 19 19
86 19 18
76 18 18
76 17 16
65 13 13
65 13 13
67 14 13
68 15 14
58 10 10
67 13 12
60 13 12
66 16 15
61 14 13
55 13 12
51 13 11
55 14 12
51 16 15
44 33 30
51 38 38
52 32 30
51 34 30
54 25 25
56 41 37
45 32 29
50 36 32
45 30 26
58 38 36
48 38 34
52 28 26
56 41 39
54 32 31
59 43 38
58 44 42
61 46 43
60 24 22
69 27 26
74 24 23
74 27 27
87 43 43
79 34 34
115 108 106
126 122 121
125 120 119
116 109 107
123 117 116
116 108 107
114 109 108
125 122 120
126 118 117
129 122 121
126 120 118
111 107 105
130 129 127
123 119 117
128 121 120
126 122 121
132 127 125
126 122 120
129 125 123
130 126 125
126 121 120
126 122 120
128 127 125
134 128 128
136 127 126
128 125 123
127 124 122
138 134 133
131 126 125
134 130 129
130 130 128
132 126 125
134 131 129
135 131 130
136 133 133
133 131 130
133 131 129
141 139 138
138 135 133
143 141 139
134 129 128
143 139 138
138 132 131
144 140 138
43 32 31
37 28 27
40 27 27
42 33 33
29 14 14
41 31 29
42 27 26
41 25 25
28 13 12
32 23 21
43 32 31
32 21 21
37 27 26
41 27 25
41 22 22
41 33 32
35 18 18
35 26 26
33 29 28
37 29 28
38 29 29
30 17 16
41 26 25
33 24 22
31 20 20
34 24 23
19 14 12
23 18 18
35 24 22
35 25 23
34 26 25
26 21 20
31 20 20
32 21 18
27 16 16
30 25 25
34 26 25
34 26 25
21 17 17
22 17 17
15 12 12
24 17 17
28 23 22
34 26 25
28 23 22
26 22 20
30 21 16
28 21 20
28 19 19
26 23 21
27 20 20
23 16 15
26 18 17
33 21 17
29 17 15
27 19 17
15 15 15
29 19 18
34 28 28
27 21 19
27 23 20
9 7 7
16 31 18
34 59 35
33 60 36
35 63 37
30 59 34
40 78 44
39 71 42
38 72 41
40 77 43
96 110 95
96 109 97
98 110 98
99 110 97
95 108 96
96 107 95
47 93 51
47 92 51
47 96 52
47 95 52
47 94 52
48 95 53
50 99 55
48 95 52
49 97 53
50 100 55
52 101 56
48 94 52
51 103 57
52 102 56
49 96 53
49 96 53
49 99 55
51 100 55
50 99 55
47 91 50
47 95 52
48 96 53
44 91 49
45 91 50
45 88 48
45 90 49
44 86 47
42 85 46
43 87 47
42 86 47
44 90 49
41 82 45
41 81 45
43 84 47
42 83 45
42 80 44
45 86 48
39 79 43
41 80 44
38 76 41
42 79 44
40 76 43
41 77 43
40 73 41
39 74 41
40 75 42
40 74 42
39 69 39
37 71 40
33 60 34
0 0 0
0 0 0
0 0 0
0 0 0
0 0 0
0 0 0
0 0 0
0 0 0
0 0 0
0 0 0
0 0 0
36 9 9
88 25 24
92 25 24
90 25 24
93 26 25
93 26 25
95 27 25
104 29 28
103 28 28
101 27 26
102 29 28
99 26 25
102 29 27
101 27 26
108 30 29
106 29 28
113 31 30
100 28 27
105 29 28
104 27 27
105 28 27
107 29 28
105 28 27
109 29 29
106 28 27
107 29 28
109 28 28
102 27 26
104 28 26
103 26 25
94 24 23
89 21 21
91 22 21
81 20 19
74 17 16
75 17 16
72 15 15
73 15 15
69 14 14
66 13 13
59 12 11
62 13 12
59 12 11
61 13 12
60 14 13
57 13 12
61 14 13
52 12 11
58 13 13
52 14 12
49 19 17
41 28 24
42 20 16
51 36 35
50 33 30
52 30 28
48 32 27
56 42 38
50 31 28
58 45 42
54 30 26
52 36 33
53 32 29
53 35 32
52 32 28
51 41 36
49 28 27
59 38 35
66 23 23
58 19 19
73 21 21
74 29 29
74 24 23
80 36 35
121 111 110
124 118 117
119 115 115
116 113 112
117 110 109
111 107 107
124 121 118
120 112 111
118 114 113
110 106 104
124 120 119
121 114 113
124 120 119
128 123 122
114 109 108
126 123 122
121 114 113
128 126 124
131 127 127
133 128 128
132 128 126
133 127 125
130 127 126
132 125 124
129 126 124
130 126 123
121 118 117
133 126 124
137 131 130
127 119 119
132 127 125
130 127 125
135 129 127
140 133 132
141 138 137
133 130 129
145 141 140
140 137 137
130 129 127
135 134 132
146 143 142
139 137 135
151 147 146
138 136 134
57 45 44
31 16 15
36 28 28
40 26 25
37 27 27
40 27 26
34 23 22
33 25 25
38 25 25
52 40 38
40 29 29
32 19 18
44 28 27
26 15 14
40 26 25
42 25 25
36 26 25
38 23 21
33 20 17
36 29 29
46 30 30
44 37 36
45 27 25
35 20 20
34 26 25
30 20 20
32 26 25
37 23 23
29 14 11
33 22 21
30 23 22
26 25 24
25 16 15
36 24 24
26 24 22
27 21 19
24 22 21
28 20 20
19 16 16
23 14 14
17 12 12
26 23 18
24 16 14
33 30 29
28 19 18
27 22 22
32 19 18
22 10 10
9 9 9
31 23 22
17 17 17
21 16 13
12 3 3
25 18 18
25 20 19
12 12 10
23 12 10
26 23 21
18 17 17
23 13 13
17 15 13
20 21 19
23 39 24
33 53 32
33 59 35
39 66 41
36 65 38
40 71 42
39 72 41
38 71 41
38 75 42
94 109 95
103 114 102
100 111 100
98 111 97
101 115 101
90 103 90
48 93 51
47 91 50
48 96 53
47 93 51
52 103 57
51 100 56
47 96 53
49 98 54
51 103 57
50 101 56
51 101 56
49 97 53
51 102 57
50 101 55
49 97 54
52 103 57
51 103 56
50 98 54
50 99 55
48 97 53
47 93 51
47 97 52
47 94 52
46 92 50
48 97 53
47 93 51
45 90 49
45 88 48
43 85 47
44 85 47
42 85 46
42 83 45
41 83 45
43 86 47
43 83 46
41 81 45
40 78 43
41 79 44
42 80 44
43 84 46
40 77 43
41 78 44
39 74 42
37 71 40
42 78 44
39 75 41
38 72 39
37 68 38
39 74 42
36 64 36
0 0 0
0 0 0
0 0 0
0 0 0
0 0 0
0 0 0
0 0 0
0 0 0
0 0 0
0 0 0
0 0 0
48 13 12
92 25 24
86 23 23
84 24 22
96 27 26
91 25 24
99 27 26
96 26 26
98 27 26
97 27 26
93 25 24
102 29 27
97 26 26
102 28 27
104 28 27
101 27 27
107 29 28
104 28 28
111 30 29
113 31 30
104 29 27
114 30 29
105 29 28
107 28 28
111 30 29
108 29 28
105 28 27
112 28 28
106 28 28
110 29 29
100 24 24
90 22 22
94 23 23
82 19 19
79 18 18
76 18 18
76 16 16
73 17 17
63 13 13
74 15 15
79 18 18
63 14 14
59 13 13
65 15 15
52 12 11
56 12 11
50 11 10
56 13 12
50 12 10
57 12 12
50 16 15
56 36 33
55 39 35
45 30 29
51 37 37
47 28 25
45 25 23
51 37 35
57 36 35
57 34 33
43 23 21
54 37 35
56 40 37
51 33 32
51 43 41
55 42 39
51 37 33
60 46 41
57 20 20
63 22 21
73 27 27
69 27 26
67 30 30
79 26 26
110 102 101
121 114 112
126 118 118
121 113 112
121 115 115
120 117 115
120 117 116
126 121 120
121 118 116
113 108 106
124 117 116
127 122 120
112 104 103
132 124 123
110 106 103
121 116 115
131 126 125
132 126 125
131 128 127
122 119 117
128 124 123
136 130 129
131 128 126
121 115 114
133 127 126
129 121 120
128 124 122
130 126 125
134 131 130
125 121 120
132 129 128
126 123 121
134 130 129
135 130 129
136 133 132
134 130 129
139 137 136
142 137 137
120 116 115
134 132 131
133 131 128
120 116 114
139 137 136
137 136 135
34 21 21
36 26 24
34 26 25
36 20 20
31 19 19
41 31 29
42 25 24
35 24 23
37 23 22
42 20 20
46 29 29
25 20 20
41 30 27
31 28 26
38 24 23
39 21 21
27 14 14
31 24 23
23 19 16
31 20 20
43 38 38
29 22 21
29 25 24
35 25 23
33 19 18
35 18 17
26 18 18
26 24 23
26 15 15
24 19 19
33 20 19
43 20 19
28 24 23
12 13 11
28 16 16
35 23 22
31 19 18
28 22 21
37 19 17
25 18 15
27 24 23
26 19 18
34 24 23
28 18 18
21 10 10
23 21 21
21 20 19
19 11 7
32 23 23
22 19 17
30 25 24
16 16 16
26 21 16
28 23 21
31 19 17
18 18 18
26 15 15
19 18 17
24 24 21
29 30 27
23 20 18
23 23 19
28 45 30
30 60 34
34 62 36
35 59 35
34 65 36
40 71 43
38 67 41
34 65 36
39 70 42
92 105 91
104 117 104
97 110 97
101 113 100
98 110 98
92 105 91
44 89 48
46 93 51
48 95 52
49 94 53
50 97 54
47 94 52
49 97 53
50 99 54
51 101 56
50 100 54
48 95 53
52 103 57
48 95 52
50 100 55
51 101 56
48 96 53
54 105 58
52 103 57
47 94 52
46 93 52
48 94 52
48 95 52
48 97 54
45 89 49
46 92 50
44 86 47
45 89 48
44 87 48
43 85 46
45 87 48
43 86 47
41 83 45
42 83 46
41 81 44
44 86 48
42 84 46
44 87 48
43 84 46
41 78 43
40 80 45
42 83 46
39 75 41
40 78 44
40 78 43
37 75 42
40 73 41
40 74 42
39 73 41
38 73 40
37 71 40
0 0 0
0 0 0
0 0 0
0 0 0
0 0 0
0 0 0
0 0 0
0 0 0
0 0 0
0 0 0
0 0 0
31 7 7
99 27 26
91 26 24
93 26 25
88 25 24
94 25 25
95 25 25
98 27 26
91 25 25
93 25 24
105 28 28
102 28 27
100 27 26
101 28 27
101 28 27
98 26 26
111 30 30
101 27 26
109 29 29
106 28 27
110 30 29
110 30 28
112 31 30
111 29 28
107 28 27
104 28 27
112 30 29
110 29 28
106 27 27
96 25 24
95 23 23
100 25 25
93 22 22
84 20 20
73 16 16
76 16 16
70 16 15
70 14 14
68 14 14
65 14 13
60 12 11
66 14 13
61 14 13
58 12 11
58 13 13
57 12 12
54 13 12
52 12 12
58 14 13
51 12 10
49 16 13
44 26 26
49 29 28
47 30 28
44 33 29
55 36 34
47 27 24
50 37 32
54 34 33
62 51 47
55 37 34
60 38 33
51 36 33
57 41 38
54 42 39
53 39 34
51 38 34
54 40 39
64 24 24
66 17 17
77 28 25
66 19 19
81 33 33
76 30 29
115 108 108
119 115 113
121 117 116
121 113 112
113 106 105
122 114 112
118 112 111
121 113 113
129 123 122
123 120 119
124 117 116
122 113 111
131 123 123
122 117 116
124 120 118
132 126 126
128 121 120
125 116 116
119 112 111
130 125 124
127 122 121
132 127 125
123 120 119
134 127 126
131 126 125
126 120 118
121 117 116
129 124 123
128 125 124
123 117 116
135 129 128
130 126 124
133 131 129
138 134 133
130 128 127
127 123 121
132 129 127
141 137 136
139 134 133
135 131 130
132 128 127
136 130 129
132 128 127
133 132 129
53 48 48
35 23 23
46 32 28
29 14 14
44 35 35
33 23 23
36 23 23
43 30 30
34 27 26
41 35 35
30 20 20
25 20 18
26 20 19
41 26 26
31 23 23
40 30 28
40 25 23
40 28 27
36 27 26
31 27 27
31 23 22
28 15 15
34 23 20
22 19 17
46 30 30
36 26 25
25 20 19
38 27 26
35 26 26
27 20 19
33 22 21
26 21 21
24 24 21
32 25 23
35 21 21
29 25 24
27 21 21
33 18 18
32 24 22
29 23 23
26 19 18
28 16 16
24 12 11
32 23 22
23 18 17
27 17 16
28 23 22
24 9 9
22 16 15
24 9 9
29 13 9
34 32 31
34 34 34
34 28 26
27 18 18
31 27 25
27 25 22
26 17 17
25 14 13
21 22 21
15 11 11
20 6 6
23 34 21
31 55 33
34 62 35
31 61 34
32 63 35
41 72 44
35 69 39
35 70 39
39 72 42
90 104 90
98 113 99
94 108 95
100 111 100
91 104 91
87 105 88
48 95 53
44 91 49
47 94 52
48 97 53
47 95 52
50 98 54
50 98 55
51 100 55
48 97 53
48 95 53
49 96 53
50 99 55
51 99 55
49 93 52
54 107 59
50 98 55
52 104 58
50 100 55
47 94 52
52 102 56
50 100 55
49 99 54
46 94 51
44 90 49
47 95 52
47 95 52
45 92 50
45 92 50
47 93 51
45 87 48
42 84 46
44 87 48
42 83 45
43 82 46
38 76 42
41 79 44
38 76 42
42 79 44
41 78 43
42 82 45
42 79 44
41 77 43
38 72 40
40 74 41
41 77 43
38 71 40
40 77 43
39 74 42
39 73 41
37 66 37
0 0 0
0 0 0
0 0 0
0 0 0
0 0 0
0 0 0
0 0 0
0 0 0
0 0 0
0 0 0
0 0 0
46 13 13
88 25 24
91 25 24
93 26 25
97 26 26
93 26 25
101 28 27
98 27 26
96 27 25
100 27 27
103 28 27
99 27 26
105 28 27
107 28 28
101 26 26
106 28 28
102 27 27
106 28 27
108 30 29
107 29 28
109 29 28
112 31 30
114 30 30
116 31 30
114 31 30
114 31 30
109 29 28
111 29 28
101 26 26
106 27 27
100 25 25
83 20 20
85 21 20
79 19 18
79 19 18
74 15 15
68 14 14
72 15 14
67 15 15
63 13 13
63 12 11
63 11 11
54 13 12
54 10 10
53 12 11
58 13 12
59 15 14
59 14 13
55 13 12
49 12 11
43 15 11
51 30 30
53 31 31
48 38 36
52 40 38
50 34 28
56 47 44
52 37 36
47 27 24
49 31 30
58 43 40
51 32 32
55 40 37
57 41 39
49 37 32
58 34 31
46 31 27
61 46 45
54 23 20
59 22 22
66 25 24
71 22 21
75 35 35
72 27 27
110 102 101
115 108 107
120 115 114
116 109 108
126 124 123
119 111 110
114 109 109
122 117 115
116 111 110
123 118 117
115 108 107
124 119 118
126 122 120
124 117 116
125 120 118
127 123 122
131 125 124
121 116 116
126 124 121
123 118 117
128 124 124
129 124 123
117 113 112
126 126 124
128 127 125
133 130 129
124 121 120
135 130 129
129 121 120
130 125 124
135 129 129
132 127 127
138 134 133
140 134 133
134 131 129
124 119 118
121 118 115
145 142 141
134 133 132
139 136 134
134 128 127
137 133 131
134 133 130
136 132 131
63 51 50
37 25 24
44 26 25
44 32 31
39 25 24
40 25 25
31 23 23
35 24 24
33 23 23
41 24 23
32 22 19
39 21 21
42 32 31
33 25 24
37 27 27
34 22 22
38 32 31
30 21 19
29 17 17
43 28 27
29 25 22
35 26 25
22 11 10
37 21 19
28 21 20
35 30 29
40 27 27
26 18 18
34 26 24
29 29 28
24 17 17
35 27 26
27 24 23
34 28 28
29 20 19
29 19 19
30 26 24
34 29 29
30 23 23
31 22 22
33 16 16
25 14 14
33 32 29
33 18 18
30 26 24
33 21 21
11 10 9
32 24 21
33 27 26
23 18 15
28 23 20
19 15 15
29 25 22
23 14 12
20 17 16
28 21 20
29 18 18
30 17 17
26 16 15
22 20 20
36 31 29
23 20 19
28 36 24
36 60 36
37 64 37
37 65 39
31 58 34
37 72 41
37 70 40
34 69 38
42 75 45
89 103 88
102 115 102
99 110 98
98 109 97
100 115 101
85 104 86
46 95 52
45 88 49
49 96 53
46 94 52
47 95 52
50 99 55
49 99 54
49 95 53
50 99 55
51 98 55
49 99 54
52 102 57
51 101 56
50 102 56
48 96 54
55 107 60
51 102 56
48 96 53
50 98 55
48 95 52
47 97 53
48 93 51
47 95 52
46 91 51
46 94 51
44 87 47
44 90 49
44 85 47
43 85 46
42 84 46
42 85 46
41 80 44
42 81 45
42 85 46
42 82 45
40 82 45
40 79 44
40 79 44
40 78 44
42 82 46
43 80 45
42 82 46
42 77 44
38 72 40
39 71 40
38 71 40
38 73 41
36 67 37
39 74 42
34 63 35
0 0 0
0 0 0
0 0 0
0 0 0
0 0 0
0 0 0
0 0 0
0 0 0
0 0 0
0 0 0
0 0 0
43 12 11
94 26 25
96 26 25
93 26 25
93 26 25
94 25 24
87 23 23
95 26 24
95 26 25
103 28 27
98 27 26
102 28 27
97 27 26
105 29 28
102 29 27
104 28 28
111 30 29
105 29 28
106 29 28
105 29 28
105 29 28
112 30 29
105 28 27
110 28 28
116 31 30
119 31 30
111 29 29
100 26 26
107 27 26
102 25 25
96 24 23
92 22 21
84 20 20
82 18 18
71 15 15
77 16 16
60 13 12
71 15 15
69 14 14
70 15 14
61 11 10
59 12 12
60 12 12
57 12 11
52 12 11
62 14 13
55 15 13
50 11 10
61 15 14
51 11 10
45 8 8
45 30 27
48 30 28
45 28 25
47 34 30
47 30 27
49 31 28
45 33 29
53 33 29
46 27 21
48 32 30
47 35 33
58 39 37
57 41 38
55 37 34
52 35 34
62 46 44
56 46 43
67 31 29
65 23 22
74 36 35
73 35 34
75 27 26
76 34 33
121 110 109
121 113 112
114 105 105
118 111 109
119 111 110
120 114 113
122 115 113
124 119 117
129 122 120
117 111 110
126 119 118
125 120 119
119 113 112
120 116 115
128 121 119
119 115 115
123 117 117
127 122 121
135 130 129
130 124 123
128 123 122
118 114 113
138 135 134
127 125 123
136 132 130
129 126 125
126 123 122
134 129 128
131 127 126
130 124 123
136 131 129
141 133 132
130 124 123
135 133 132
127 123 122
136 130 129
133 128 125
140 136 135
140 135 134
134 132 131
136 130 130
129 125 124
130 125 123
137 135 133
63 55 55
37 25 24
48 40 39
40 28 28
47 23 23
35 21 21
48 34 33
25 15 15
39 29 29
26 24 24
32 23 21
37 26 26
34 31 31
43 28 28
28 16 16
21 18 18
26 22 21
39 23 20
35 26 25
32 18 18
41 32 30
39 24 23
39 25 24
41 25 25
29 22 20
33 29 27
29 22 20
46 29 28
29 17 17
37 28 26
31 18 18
31 28 26
35 25 24
27 22 21
11 11 8
25 21 20
33 21 20
37 24 24
30 21 20
25 22 22
22 19 17
25 20 20
27 18 18
36 28 26
27 18 18
20 10 9
30 21 21
20 9 9
28 25 22
28 19 19
18 19 17
27 21 20
20 7 7
18 15 14
17 17 17
31 16 15
18 13 11
24 17 14
20 17 15
14 15 13
16 11 10
20 18 16
27 35 21
34 59 36
34 59 36
37 67 39
33 57 34
36 67 39
38 70 40
39 72 41
39 75 43
91 104 91
98 113 99
101 112 100
96 109 97
100 112 99
94 109 95
46 92 51
47 93 51
48 97 53
45 92 50
49 97 53
53 105 58
49 96 53
48 96 53
48 94 52
50 99 55
48 96 53
48 99 54
50 98 54
54 108 60
51 102 56
49 99 55
51 101 56
48 96 53
49 100 55
50 102 56
49 99 54
45 91 50
47 92 51
44 92 50
47 93 51
44 89 48
44 89 48
45 90 49
42 85 47
43 85 47
43 86 47
41 82 45
39 80 44
41 82 45
41 83 45
41 80 44
40 79 44
38 74 42
42 80 45
40 78 44
40 76 43
41 77 43
41 79 44
42 82 46
44 80 45
39 73 41
36 69 38
38 72 40
40 73 42
35 67 38
0 0 0
0 0 0
0 0 0
0 0 0
0 0 0
0 0 0
0 0 0
0 0 0
0 0 0
0 0 0
0 0 0
50 14 13
90 25 24
89 25 24
96 26 25
98 27 26
95 26 25
93 26 25
100 26 26
97 26 25
98 27 26
96 26 25
98 27 26
96 27 26
104 29 28
110 30 29
100 28 27
103 28 27
104 28 27
109 29 28
114 30 30
106 28 27
108 27 27
105 28 27
110 29 28
115 30 29
115 31 30
107 29 28
110 28 28
108 28 28
95 24 23
97 24 23
87 21 21
81 20 19
79 18 18
78 18 17
75 15 15
67 13 13
70 13 13
68 14 14
59 13 13
67 14 13
60 10 10
59 14 13
55 11 11
59 13 12
52 12 10
58 14 13
54 13 12
52 13 11
53 12 11
42 15 14
42 30 25
47 25 23
42 22 20
45 21 18
45 29 26
54 38 36
47 28 26
43 28 25
54 38 35
59 31 29
45 31 28
49 30 28
56 35 31
48 30 27
48 41 29
54 38 30
55 34 30
59 26 23
60 23 22
74 27 27
80 27 27
77 29 28
82 35 34
110 105 104
114 108 106
113 107 106
116 108 107
116 108 108
115 110 109
125 114 113
119 108 108
121 116 114
130 126 125
119 112 111
118 113 111
126 121 119
127 120 119
127 123 122
124 118 116
121 119 117
125 122 121
127 122 121
123 120 118
129 124 123
118 116 114
119 113 113
131 123 122
133 127 126
129 127 125
124 119 118
130 127 125
124 120 118
128 123 122
131 128 126
138 135 134
125 121 119
130 124 123
138 137 136
130 125 124
134 128 127
133 131 129
139 136 135
133 130 128
136 133 132
132 132 130
143 137 136
137 134 133
48 38 37
40 30 30
30 19 19
40 32 32
55 25 25
43 32 31
46 33 32
40 21 21
40 31 30
29 24 24
33 25 25
49 31 31
38 32 31
30 23 23
38 25 24
35 26 25
37 30 29
32 25 22
29 22 20
26 25 23
38 27 26
27 23 22
35 26 25
30 24 22
37 22 21
34 26 25
36 21 20
36 30 29
45 29 28
25 23 22
33 17 17
34 27 26
28 26 22
18 9 6
28 18 16
19 8 8
28 18 18
32 27 26
37 22 22
40 23 22
33 15 14
21 13 11
27 10 8
36 28 28
22 12 10
35 26 25
25 15 12
19 17 17
37 24 23
28 25 24
29 26 25
25 21 20
21 15 15
21 16 15
25 21 19
23 17 14
20 15 12
23 24 23
15 15 13
31 24 22
20 19 16
27 21 21
30 35 24
33 56 35
30 56 32
36 60 38
36 66 38
35 67 38
35 67 38
38 70 41
42 72 45
102 113 102
95 105 93
98 110 97
92 106 91
97 107 97
89 102 88
47 95 52
47 95 52
47 93 51
47 95 52
48 97 53
47 95 52
49 95 53
49 98 54
48 95 53
50 100 55
48 96 53
48 96 53
50 100 55
50 101 55
49 99 54
50 100 55
49 99 54
47 95 51
51 102 56
50 99 55
48 97 54
48 97 54
47 96 53
45 92 50
44 89 49
45 87 48
44 89 49
46 95 52
42 85 46
43 83 46
43 87 48
42 81 45
38 77 42
39 78 43
42 83 46
41 80 44
41 80 45
39 77 42
40 77 43
43 80 45
40 77 43
39 75 42
40 75 42
41 78 44
38 71 39
37 72 40
39 77 43
40 73 41
39 72 41
32 64 35
0 0 0
0 0 0
0 0 0
0 0 0
0 0 0
0 0 0
0 0 0
0 0 0
0 0 0
0 0 0
0 0 0
40 11 11
89 25 24
95 26 25
92 25 24
93 25 24
89 25 24
92 25 24
95 27 26
97 27 26
94 26 25
95 26 25
96 26 26
100 28 27
98 26 26
107 29 28
106 29 28
106 28 28
109 29 28
104 28 27
107 29 28
107 29 28
102 28 27
110 30 29
111 29 29
109 29 28
103 27 26
105 28 27
109 29 28
105 28 27
96 24 23
101 25 25
86 21 21
81 18 18
78 17 17
77 17 17
72 15 15
65 15 15
68 13 13
69 13 13
62 12 12
55 12 11
63 12 12
60 13 12
56 12 11
54 12 11
56 12 11
47 11 11
52 13 12
52 14 12
43 10 9
48 18 16
53 33 29
46 31 27
43 31 26
39 26 22
54 38 36
45 24 20
56 44 41
54 35 34
53 42 38
42 27 27
50 35 32
51 38 33
55 37 34
54 34 32
64 45 40
57 33 30
55 39 37
61 35 31
64 17 17
60 29 29
71 28 28
76 27 27
76 33 32
115 101 100
121 115 115
107 101 100
123 116 114
116 107 107
121 117 117
116 109 107
122 113 112
114 108 106
121 118 116
121 115 114
128 123 122
124 120 119
122 115 114
121 114 114
124 119 118
123 117 116
124 121 119
127 121 120
134 131 129
125 121 119
129 122 121
129 122 122
132 126 125
136 130 129
133 132 129
120 119 118
136 132 130
131 124 123
126 120 119
133 124 123
135 128 127
136 132 131
128 125 124
138 134 133
129 122 122
134 131 130
134 130 129
131 128 126
135 131 129
134 128 128
136 131 130
131 130 128
145 139 138
50 33 33
31 19 19
37 29 29
43 26 25
36 29 28
36 24 24
31 22 22
41 23 23
42 29 28
45 33 33
37 22 22
33 24 21
32 23 20
32 20 19
33 28 27
38 26 26
36 16 16
30 27 26
43 27 27
36 23 22
37 23 23
32 22 21
42 30 29
35 26 26
28 22 21
42 28 26
37 19 17
31 27 26
26 16 15
25 23 23
35 30 27
34 28 27
33 30 29
30 20 19
41 35 33
36 27 26
37 36 36
36 21 21
32 27 27
26 20 20
28 20 18
38 29 27
24 22 22
24 19 18
26 22 20
26 22 21
16 8 7
26 16 16
38 28 27
33 25 25
14 10 7
19 14 10
22 16 15
22 14 14
27 19 16
15 8 8
16 9 7
29 28 25
18 20 11
18 18 18
28 19 18
10 11 10
25 39 26
35 57 37
37 60 36
34 62 37
40 65 42
34 67 37
39 69 42
37 73 41
39 70 42
92 106 93
98 112 98
100 113 101
96 110 96
94 111 96
91 104 91
44 88 48
46 92 50
49 98 54
47 95 52
47 93 51
48 95 52
46 94 52
49 96 54
50 100 55
51 101 56
51 100 55
47 95 52
51 101 56
49 99 54
48 96 53
51 101 56
49 99 54
49 99 54
49 97 54
49 99 54
49 98 55
47 96 52
48 96 53
44 89 49
45 92 50
43 88 48
44 87 48
40 82 45
43 86 47
41 80 44
41 82 45
43 87 48
42 85 46
43 84 46
42 82 45
40 78 43
39 75 42
43 84 47
41 80 45
39 78 43
40 78 43
39 75 42
40 77 43
35 67 37
39 73 41
43 76 43
37 72 39
40 71 40
37 69 39
31 60 33
0 0 0
0 0 0
0 0 0
0 0 0
0 0 0
0 0 0
0 0 0
0 0 0
0 0 0
0 0 0
0 0 0
43 11 11
85 24 23
87 25 24
91 26 25
92 26 25
96 26 25
95 25 24
99 27 26
93 25 25
98 27 26
104 29 28
93 26 25
103 27 27
106 28 27
104 29 28
108 29 28
104 28 27
107 29 28
102 28 27
106 28 27
105 28 27
108 29 28
114 31 30
107 29 28
109 29 29
112 29 29
111 29 28
104 27 27
100 25 25
98 26 25
97 25 24
88 20 20
93 23 23
91 22 21
72 17 17
67 14 14
72 13 13
65 14 14
62 12 12
61 10 10
52 9 9
60 12 12
57 11 10
56 12 11
55 14 12
52 13 12
51 14 12
59 13 12
49 11 9
39 9 7
42 12 10
41 27 25
50 38 35
50 32 27
48 36 34
50 37 34
46 37 35
52 34 30
50 23 23
55 36 29
53 34 30
51 33 29
53 33 31
54 37 32
58 41 35
65 43 40
56 33 29
54 39 35
59 30 30
62 26 25
70 28 27
73 31 30
82 41 40
82 36 34
113 106 105
120 114 113
116 111 109
118 114 113
115 106 105
121 117 116
112 108 107
123 119 118
118 115 113
124 116 115
122 118 117
119 109 108
123 116 116
127 122 120
117 111 109
124 120 119
132 129 128
131 126 125
120 116 114
126 121 119
121 118 116
134 127 126
133 130 129
132 128 127
128 123 122
128 121 120
130 122 121
123 121 119
124 122 121
132 128 125
133 125 124
132 128 127
130 125 125
134 130 129
131 127 126
132 128 128
132 129 127
132 128 126
136 131 130
134 129 126
134 128 126
129 124 122
145 141 140
128 124 123
68 56 56
38 25 25
41 28 27
39 33 33
40 28 28
36 21 21
40 25 24
39 29 29
40 32 32
36 26 26
38 27 26
36 27 27
29 22 22
32 24 23
34 25 25
45 32 32
31 26 26
36 28 27
35 26 26
34 24 24
33 26 26
33 26 26
30 16 16
40 30 30
28 18 15
32 26 24
34 28 24
40 36 33
39 30 28
34 20 19
33 27 26
30 18 16
23 15 15
33 24 24
23 15 15
20 19 17
40 32 31
27 20 19
23 16 16
30 22 20
29 17 17
24 20 17
30 24 24
22 16 15
28 17 17
21 12 12
39 29 27
24 19 18
36 29 26
30 24 24
31 31 29
22 17 15
27 15 15
29 23 22
29 22 19
26 17 17
32 27 26
20 19 16
29 13 13
34 24 23
13 6 4
33 30 28
27 36 25
32 57 34
29 55 31
37 66 40
32 62 35
36 69 40
37 66 39
44 75 47
40 72 43
90 102 89
103 112 101
94 108 95
96 108 96
100 113 100
90 104 88
43 88 47
46 91 50
46 91 51
47 95 53
48 94 52
49 98 54
48 94 52
49 98 54
49 98 54
49 98 54
51 101 56
50 100 55
51 100 56
46 92 51
50 100 55
49 96 53
50 99 55
48 97 53
48 96 53
47 95 52
50 101 55
46 91 50
42 86 46
46 93 51
45 91 50
46 94 51
41 83 46
42 85 46
43 85 46
44 86 46
41 83 45
43 86 47
40 79 43
40 80 44
41 79 43
39 79 43
37 75 41
43 83 46
40 78 44
40 78 43
39 75 42
40 76 43
40 77 43
39 75 42
38 72 40
37 70 39
38 72 40
39 73 41
35 66 37
36 66 37
0 0 0
0 0 0
0 0 0
0 0 0
0 0 0
0 0 0
0 0 0
0 0 0
0 0 0
0 0 0
0 0 0
38 11 10
92 26 24
91 25 24
97 27 26
91 25 25
95 25 24
93 26 25
97 27 26
98 26 26
97 26 25
101 28 27
97 26 25
102 28 27
105 29 28
100 27 27
104 28 27
100 27 26
104 28 27
114 30 30
110 29 28
112 30 30
105 28 28
104 28 27
110 29 29
107 28 28
115 30 29
110 30 29
111 28 28
109 28 28
96 24 24
90 22 22
99 23 23
77 18 18
90 22 21
70 16 15
71 16 16
75 15 15
63 12 12
61 12 11
55 9 8
57 13 12
61 13 12
61 13 12
57 12 12
56 15 14
54 11 10
57 11 11
56 14 12
47 11 10
46 10 9
49 11 11
44 36 31
41 33 28
45 28 25
52 33 30
40 20 19
44 31 28
53 37 35
49 40 37
48 37 32
45 28 27
53 32 30
55 37 35
51 33 30
51 34 32
53 32 29
51 36 29
51 36 29
53 23 21
62 23 23
77 29 29
69 30 29
73 35 34
71 27 27
107 98 96
114 109 108
117 109 109
119 113 112
124 118 117
114 107 106
119 113 111
116 109 108
121 115 115
124 120 120
119 114 113
116 114 113
121 116 116
119 113 113
127 124 123
121 118 117
125 121 120
128 121 120
129 122 122
125 120 119
123 119 118
124 123 120
124 119 118
131 124 124
139 131 130
126 119 118
135 131 129
128 121 121
124 117 115
133 129 128
131 125 124
133 129 128
126 118 118
134 131 130
129 125 124
131 130 128
136 132 131
131 126 125
135 129 128
138 135 133
127 126 124
143 138 138
144 139 137
135 133 130
70 60 59
41 36 36
46 32 31
49 35 35
41 28 27
37 25 24
43 31 31
37 23 22
42 29 28
49 29 29
42 36 35
36 26 26
48 30 29
35 26 26
33 27 27
32 25 19
31 22 20
37 27 26
37 23 22
50 36 34
37 28 28
35 23 22
36 31 31
32 25 25
34 23 23
29 28 25
27 20 20
29 17 16
36 22 19
32 24 24
37 33 31
33 21 21
37 30 28
36 34 33
27 18 18
33 22 20
36 24 23
25 20 19
32 25 25
30 25 23
36 22 20
29 27 25
37 20 19
36 25 23
19 16 15
28 20 16
41 24 23
26 14 14
15 9 9
33 22 20
28 23 22
29 19 18
36 26 23
26 27 23
33 22 21
24 16 14
14 16 14
5 5 5
16 4 4
23 23 21
21 21 20
35 24 24
33 44 34
31 56 32
36 62 38
35 64 37
36 65 38
38 63 39
40 79 44
37 69 40
39 69 42
95 108 95
93 108 93
94 107 95
96 107 95
102 114 103
88 101 86
46 92 50
45 91 50
48 95 51
48 96 52
48 99 54
50 98 54
47 94 52
50 99 55
46 91 49
50 98 54
51 103 57
47 96 52
50 99 55
52 104 57
51 101 56
48 97 53
50 98 55
50 97 53
48 98 54
47 95 52
48 98 54
47 96 53
45 93 50
44 90 49
44 89 48
41 84 45
42 86 47
42 87 47
42 86 47
44 89 48
43 87 47
42 83 45
43 84 46
40 82 45
40 82 45
39 77 43
41 80 44
39 77 43
40 79 44
42 81 45
37 73 40
39 72 40
41 78 43
42 80 45
37 69 39
39 74 41
37 68 38
37 70 39
36 69 39
35 64 36
0 0 0
0 0 0
0 0 0
0 0 0
0 0 0
0 0 0
0 0 0
0 0 0
0 0 0
0 0 0
0 0 0
34 9 9
87 24 23
96 26 25
97 27 26
91 25 24
95 26 25
94 26 25
98 27 26
104 28 27
101 28 27
102 28 27
107 29 28
102 28 27
106 29 28
106 29 28
102 28 27
108 29 29
109 30 29
107 29 28
111 29 28
107 29 28
105 28 28
108 29 28
107 29 29
108 28 28
106 28 27
97 26 25
105 27 27
107 28 27
100 25 24
103 25 25
87 21 21
87 20 20
75 17 16
87 19 19
66 13 12
69 14 14
65 13 13
67 13 13
62 13 13
55 11 10
57 12 11
61 13 12
62 13 13
57 14 12
53 13 12
49 11 9
49 9 8
47 11 10
43 10 9
50 12 10
53 36 34
42 28 22
46 33 31
41 20 19
50 34 31
45 28 27
56 31 30
45 31 30
50 40 37
59 36 36
51 35 32
48 30 29
48 37 33
47 43 36
54 28 23
57 37 35
51 33 30
68 31 31
58 16 16
64 19 19
72 31 29
77 30 29
79 34 33
110 98 98
111 104 103
114 108 107
120 116 116
124 117 117
119 113 111
128 124 121
115 110 109
118 111 111
129 120 120
130 122 122
122 115 114
120 115 115
120 116 115
121 118 117
117 113 112
122 116 115
128 118 118
131 126 125
123 118 117
120 116 115
121 117 116
130 125 124
125 119 119
125 119 116
134 126 125
117 114 113
120 116 115
134 130 129
136 130 129
137 133 131
134 133 132
126 124 123
135 131 131
135 129 128
131 127 125
139 130 129
135 133 131
132 129 128
136 129 129
135 132 131
131 128 126
140 138 137
132 126 124
53 41 40
41 25 23
43 35 34
40 29 28
36 23 22
44 31 29
31 19 18
38 26 25
34 25 25
39 16 16
33 29 28
37 29 28
38 28 28
33 25 24
48 38 36
32 26 25
39 26 26
34 27 26
31 24 20
32 23 23
34 27 26
31 27 24
30 24 23
25 17 17
29 26 25
37 31 29
37 29 28
27 21 19
32 20 17
33 29 29
33 31 30
30 19 18
33 27 26
34 23 22
27 22 22
30 25 24
28 19 19
32 24 24
24 17 17
37 24 24
38 30 28
27 14 14
40 30 29
45 29 28
21 12 12
39 26 26
37 23 23
33 24 23
19 19 17
28 23 23
27 17 16
34 28 26
34 26 25
42 26 26
24 14 14
28 16 16
31 32 28
19 15 15
28 22 21
32 29 27
30 22 21
25 23 20
26 42 26
30 57 33
35 62 36
37 63 39
38 67 41
39 72 42
38 65 40
43 78 46
37 69 40
89 105 90
102 113 102
97 109 97
95 109 95
98 112 98
95 108 94
44 89 48
46 91 50
45 91 50
48 98 53
48 95 53
47 93 52
50 100 55
50 100 55
49 98 53
47 97 53
47 93 52
50 98 54
53 106 59
53 106 59
47 96 52
49 98 54
47 93 51
49 97 54
49 98 55
49 101 55
47 94 52
47 95 52
44 91 50
44 89 49
43 89 48
43 86 47
45 91 50
41 84 46
43 88 48
40 83 45
44 88 49
43 85 46
45 88 48
40 78 43
38 75 41
40 79 43
41 78 43
40 79 43
41 80 44
39 76 42
40 74 41
38 75 42
38 74 41
42 77 44
40 77 42
38 74 41
39 71 40
42 77 43
38 71 40
36 68 38
0 0 0
0 0 0
0 0 0
0 0 0
0 0 0
0 0 0
0 0 0
0 0 0
0 0 0
0 0 0
0 0 0
36 9 9
100 27 27
91 24 24
96 26 25
98 27 26
93 26 25
95 26 25
96 27 26
101 28 27
105 28 28
97 26 25
101 27 27
101 27 27
101 28 27
103 28 27
105 29 28
101 27 26
101 26 26
107 29 28
110 30 29
105 27 27
102 27 26
107 29 28
108 29 28
104 28 27
103 27 26
106 28 27
100 27 26
104 27 26
97 24 23
95 23 22
85 20 20
78 19 18
80 17 16
74 15 14
69 15 15
69 13 13
62 11 11
60 13 13
54 11 11
62 13 12
47 10 8
54 10 9
57 14 13
63 14 14
62 14 13
51 12 11
57 14 13
45 10 9
45 10 9
49 17 15
39 29 24
49 35 31
42 26 26
48 37 33
42 28 24
47 31 30
50 41 36
55 33 31
57 39 37
49 37 34
48 31 30
55 36 35
49 30 28
60 45 44
47 35 29
50 32 28
56 41 38
59 23 17
53 14 13
68 27 27
70 31 31
74 29 28
70 26 26
111 105 103
112 104 103
118 114 113
119 115 114
126 119 119
117 112 111
120 114 114
119 114 114
119 112 112
118 112 111
124 119 117
117 112 111
124 116 115
119 113 113
123 117 116
128 123 122
128 123 122
114 111 110
132 125 125
126 122 121
126 122 121
128 122 122
128 123 121
128 120 120
128 124 124
134 129 129
127 119 119
130 126 125
129 126 125
125 118 117
130 127 126
132 130 128
131 129 129
129 126 125
128 123 122
130 125 124
134 129 128
133 128 126
133 126 125
139 134 134
141 136 135
126 122 121
140 137 136
140 136 134
40 28 27
32 19 19
48 34 32
34 20 19
38 29 29
41 29 29
33 16 15
37 22 22
35 23 23
41 29 28
54 39 39
41 32 31
36 32 32
35 23 22
36 26 25
27 19 19
36 23 23
36 25 25
32 24 24
38 28 27
46 27 26
37 31 30
47 38 38
35 19 18
33 30 30
31 28 24
38 28 26
35 21 21
47 41 39
44 30 30
40 26 25
33 22 20
38 26 25
31 26 26
32 15 13
40 34 32
43 33 29
23 19 17
26 19 16
18 15 13
25 14 14
27 16 15
27 20 18
23 23 23
25 26 23
36 31 29
20 17 15
16 18 16
32 24 22
30 25 24
17 17 14
36 19 19
31 23 23
37 31 30
17 19 12
25 26 24
15 10 8
27 29 26
28 17 16
27 24 20
16 15 12
21 8 6
31 43 28
33 57 33
34 63 37
30 58 32
37 66 39
37 69 39
38 67 41
37 69 40
40 76 43
90 104 90
95 108 96
91 105 91
97 109 98
94 106 94
84 101 85
46 92 50
45 89 49
48 97 53
47 97 53
47 93 52
48 93 52
50 101 56
48 96 53
50 98 54
50 99 55
49 96 53
48 97 53
49 98 54
48 96 53
51 102 56
47 94 52
51 100 55
47 95 52
48 96 53
48 97 53
47 94 52
46 93 51
46 93 51
46 95 51
44 87 48
43 89 48
44 89 48
46 94 51
40 82 45
39 83 44
43 82 45
42 85 46
39 79 43
42 81 45
41 82 45
41 81 45
42 81 44
40 79 44
43 82 46
38 74 41
41 75 43
38 72 40
35 71 38
39 74 41
38 74 41
40 77 43
36 69 38
39 71 40
39 71 40
33 60 34
0 0 0
0 0 0
0 0 0
0 0 0
0 0 0
0 0 0
0 0 0
0 0 0
0 0 0
0 0 0
0 0 0
46 12 12
97 27 25
89 24 23
95 26 25
98 27 26
92 25 24
95 26 25
97 26 25
97 27 26
95 26 25
98 27 26
104 29 28
103 28 27
104 28 27
105 28 27
111 30 29
101 27 26
106 29 28
107 29 28
108 29 28
112 29 29
107 28 28
109 29 28
110 28 28
116 30 30
112 29 28
101 27 26
108 30 29
98 25 24
96 24 24
94 24 23
82 20 20
81 20 19
78 18 17
79 16 16
69 15 14
68 13 13
68 14 14
60 11 11
56 12 12
62 14 13
62 14 13
64 14 13
54 12 11
53 11 10
55 12 12
53 13 12
49 11 10
58 14 13
47 12 10
49 17 15
39 22 22
43 29 27
47 39 35
46 30 26
43 32 30
49 33 29
50 29 27
42 31 26
45 28 25
57 35 32
52 44 40
49 40 36
48 28 27
45 34 30
48 39 37
44 36 31
55 34 31
52 32 31
56 21 21
70 34 34
70 25 25
78 34 34
81 34 33
107 99 98
116 109 108
121 113 112
110 107 105
117 112 112
122 114 114
118 113 113
123 117 116
114 109 108
121 115 114
119 111 110
121 119 118
122 119 118
120 113 113
115 110 109
127 121 120
118 109 108
120 117 116
129 125 124
134 130 130
121 115 114
120 116 114
127 122 120
128 124 123
127 124 123
136 130 129
132 128 127
127 125 123
132 126 126
134 127 126
135 128 127
137 133 132
121 119 118
133 128 128
132 131 130
135 131 129
129 126 125
134 128 127
130 127 126
139 134 132
129 123 121
127 124 123
132 127 126
131 128 126
60 52 50
53 36 36
37 28 27
39 28 28
32 25 23
43 27 27
40 18 18
43 31 31
41 33 32
36 29 28
48 33 32
44 36 36
45 35 35
37 21 20
27 21 21
41 35 34
43 35 34
41 27 27
37 29 28
26 21 21
33 26 25
40 29 29
41 33 33
32 20 19
29 21 20
32 25 25
29 21 21
31 24 21
21 20 20
30 19 19
37 22 22
24 14 14
23 20 20
36 26 26
32 27 24
25 22 21
27 19 16
29 26 25
27 18 16
32 24 23
38 26 26
31 21 19
23 19 17
28 23 22
31 27 26
25 17 16
28 21 20
23 20 20
24 18 17
21 17 15
41 29 28
24 23 23
38 29 26
29 16 16
26 18 18
29 16 14
23 19 16
33 21 20
18 22 18
17 13 12
20 15 14
23 19 19
25 39 23
33 57 35
30 58 33
32 56 34
33 62 35
35 63 38
39 67 40
39 70 42
40 77 44
86 103 87
96 109 96
93 109 94
98 107 97
91 103 92
89 106 89
43 89 47
47 93 51
47 92 51
47 94 52
44 89 49
48 96 53
47 94 52
50 101 55
50 98 54
49 99 54
50 99 54
48 96 53
52 100 56
50 98 54
52 104 57
48 96 53
49 99 54
48 93 52
49 100 54
46 94 51
47 96 53
45 91 50
45 89 49
45 92 49
43 86 48
44 91 48
42 85 46
42 86 46
42 84 46
43 87 47
41 86 46
37 75 41
38 77 42
39 80 43
40 80 44
39 79 44
41 80 44
39 77 43
36 72 40
42 81 45
37 74 41
37 74 41
41 76 42
38 71 39
37 69 39
42 75 42
38 70 39
39 73 41
38 69 39
33 61 34
0 0 0
0 0 0
0 0 0
0 0 0
0 0 0
0 0 0
0 0 0
0 0 0
0 0 0
0 0 0
0 0 0
25 6 6
89 24 23
93 25 24
87 24 23
91 25 24
87 24 23
98 26 26
94 25 24
103 28 27
94 25 25
96 26 25
103 28 27
100 27 26
102 28 27
101 27 27
104 27 27
106 29 28
99 26 25
108 29 29
117 31 30
106 28 27
101 27 26
106 28 27
110 29 29
110 30 28
104 28 27
110 29 28
105 27 27
102 26 25
100 25 24
82 21 20
83 19 19
79 18 18
72 16 15
67 14 13
71 17 17
62 13 12
65 12 12
65 12 12
56 9 9
60 11 10
59 11 11
49 10 9
53 11 9
54 12 11
57 12 11
47 11 9
53 11 11
49 12 10
52 10 9
44 14 13
39 24 20
43 24 23
45 28 26
44 26 24
44 29 29
54 28 28
51 34 32
56 41 41
47 26 25
59 44 43
49 30 29
50 29 26
53 36 34
54 40 37
52 35 34
53 46 43
52 44 37
56 25 23
62 24 23
71 28 28
62 31 29
62 32 32
80 36 35
110 104 102
112 105 105
109 97 97
113 108 107
120 116 115
125 119 118
116 115 111
118 113 111
111 104 103
113 110 109
120 116 114
127 119 119
128 122 121
126 119 118
123 117 117
116 109 108
124 118 117
127 122 121
119 115 115
120 115 114
135 129 128
119 114 112
118 115 114
129 125 124
124 122 121
131 127 126
127 123 122
125 117 116
134 130 130
123 122 121
135 128 127
135 131 130
131 128 127
131 125 124
133 129 128
131 128 127
127 125 123
125 119 118
127 119 117
140 135 134
142 140 138
130 124 122
135 131 130
135 131 130
57 43 43
44 23 23
50 35 34
44 33 33
40 30 28
38 36 32
47 36 36
37 25 25
33 28 28
44 31 29
46 31 31
36 25 24
32 29 29
32 25 24
44 29 29
37 24 20
35 31 30
44 32 30
30 24 22
45 32 32
40 27 27
37 20 19
34 28 25
28 24 22
31 22 22
25 23 22
34 25 22
36 29 28
39 28 27
33 21 21
39 31 31
33 24 24
22 19 17
32 26 26
36 27 26
37 21 20
40 19 18
37 31 30
40 33 32
38 32 31
33 23 23
36 23 23
37 27 24
28 19 14
28 22 19
36 28 26
28 23 23
31 22 20
17 13 12
27 15 15
16 13 12
32 30 24
25 26 24
29 25 24
21 19 17
22 23 21
30 24 23
30 23 22
21 20 17
39 34 33
25 23 19
26 20 18
28 38 25
37 60 38
36 65 38
36 62 38
35 60 38
38 64 40
37 70 40
39 73 42
41 75 44
90 103 90
102 112 101
102 111 100
97 108 97
97 111 97
94 105 94
46 89 49
46 91 50
45 89 49
44 88 48
46 92 50
48 94 52
47 94 52
47 94 52
51 101 56
51 100 56
47 94 51
49 99 54
49 100 55
48 97 53
49 98 54
48 97 53
50 101 55
50 98 54
53 103 58
50 98 54
47 98 53
46 91 50
44 91 49
41 84 45
43 87 48
43 89 48
43 86 48
42 83 46
44 88 48
43 83 46
40 81 44
41 80 44
39 79 43
37 75 41
38 78 42
40 81 45
39 78 43
39 76 42
38 75 41
39 76 42
37 74 41
40 76 43
36 72 39
40 76 42
39 73 40
36 67 37
37 70 39
35 69 38
39 69 39
32 58 33
0 0 0
0 0 0
0 0 0
0 0 0
0 0 0
0 0 0
0 0 0
0 0 0
0 0 0
0 0 0
0 0 0
44 11 11
93 25 24
101 28 27
88 25 24
97 26 26
93 25 25
95 26 25
96 26 25
96 27 25
103 28 27
98 26 26
104 29 28
93 25 24
108 30 29
106 29 28
103 29 28
107 29 28
103 27 26
98 26 25
111 29 29
109 28 27
113 30 29
107 28 28
111 30 29
101 26 26
105 28 27
108 28 28
102 27 26
96 24 24
104 27 26
93 24 23
88 22 21
80 19 19
72 15 15
67 14 14
61 11 11
71 14 13
57 11 11
60 9 9
56 9 9
58 10 10
59 12 11
56 11 11
52 9 9
56 13 12
58 14 13
58 13 13
62 15 14
60 13 13
42 11 9
52 16 16
38 24 20
48 35 34
38 19 18
42 30 27
43 23 21
45 36 32
35 20 18
46 32 30
45 28 27
53 41 40
51 40 36
39 32 29
48 30 26
48 32 30
56 34 32
54 33 30
41 24 22
61 30 26
59 22 21
63 26 26
76 24 23
74 32 32
78 32 31
121 114 113
115 109 109
117 110 109
122 116 116
103 100 97
120 113 112
119 112 112
123 115 115
111 104 103
121 117 115
124 119 118
112 109 107
128 122 121
119 113 112
122 116 114
119 112 110
126 123 122
127 121 120
112 107 106
126 122 122
124 120 120
128 126 124
125 121 120
131 122 120
120 115 114
122 117 116
121 115 115
136 130 129
126 122 120
136 134 133
135 131 130
129 124 123
129 126 125
125 120 119
129 124 124
123 116 115
137 128 128
128 123 122
127 124 122
140 136 135
133 129 129
140 136 135
136 134 132
132 128 127
64 59 58
49 37 37
43 31 30
39 29 28
35 25 25
54 36 36
39 28 28
46 39 37
43 33 32
39 34 31
24 22 19
39 29 28
35 28 28
36 27 26
27 21 21
40 23 22
37 25 25
36 27 27
40 30 28
40 39 38
33 27 26
42 33 32
23 13 12
36 25 24
38 28 26
35 26 25
40 26 26
30 28 28
40 33 33
31 24 23
34 19 18
23 21 21
40 33 32
21 12 12
30 27 26
19 18 15
30 26 25
28 25 24
27 22 22
38 32 30
37 30 30
32 15 15
36 24 23
35 24 24
25 25 22
25 23 21
25 20 17
23 19 14
24 19 19
21 22 20
34 32 31
20 20 18
22 21 18
17 18 16
26 24 22
33 25 23
18 16 15
27 14 14
23 17 17
24 23 22
28 24 23
13 14 13
26 39 24
26 52 29
31 60 34
33 60 36
37 66 40
41 71 43
46 71 48
38 69 41
38 68 41
92 107 92
93 105 92
98 111 98
95 106 95
91 103 91
87 102 87
44 88 48
48 97 53
47 93 51
44 90 49
46 93 51
48 98 53
48 98 53
52 103 57
47 92 51
50 100 55
49 96 53
52 101 55
49 102 55
49 98 54
53 106 59
48 97 54
50 101 56
51 101 56
45 91 50
48 100 54
46 95 51
48 96 53
45 92 51
45 93 50
43 87 47
43 89 48
41 86 46
40 85 45
42 87 47
42 84 46
41 83 46
41 84 45
40 77 42
40 81 44
39 78 42
40 80 44
38 75 41
38 75 42
37 73 40
39 74 42
39 76 43
39 72 40
37 70 39
40 75 41
38 69 39
36 70 39
39 73 40
36 68 38
35 66 37
35 64 36
0 0 0
0 0 0
0 0 0
0 0 0
0 0 0
0 0 0
0 0 0
0 0 0
0 0 0
0 0 0
0 0 0
46 12 12
95 26 25
95 26 25
99 27 27
94 27 26
87 24 23
96 26 26
92 26 25
99 27 26
102 27 27
94 26 25
102 28 27
101 27 26
102 27 27
95 26 25
103 27 27
97 27 26
110 30 29
105 28 28
103 27 27
107 28 28
112 30 29
112 29 28
105 27 27
111 28 27
100 26 26
106 28 27
109 28 27
107 27 27
93 24 23
86 21 21
85 21 20
76 19 18
78 17 17
73 16 16
71 15 14
55 11 10
58 10 10
60 12 12
57 12 11
56 9 9
50 10 9
56 11 10
54 12 12
57 11 10
45 9 8
51 11 10
46 12 10
46 10 9
45 10 9
41 18 17
39 27 24
41 28 27
35 32 27
42 25 25
41 23 19
49 32 31
56 39 38
43 35 31
44 33 30
52 37 34
56 30 29
44 26 24
52 41 35
44 30 25
52 34 29
54 42 39
57 41 36
62 32 32
62 20 19
63 27 25
73 27 27
77 29 28
88 38 37
114 104 104
113 107 106
123 113 112
122 115 115
119 115 114
117 109 108
114 108 107
120 115 114
129 124 123
116 114 112
120 112 111
115 108 108
123 114 113
125 117 116
118 112 111
119 116 114
123 115 114
130 125 124
120 117 116
124 121 120
125 119 118
123 119 118
130 127 126
125 123 122
130 122 121
124 121 120
131 126 125
128 124 123
123 119 118
128 123 122
126 122 122
129 124 123
135 126 126
135 128 127
128 124 123
132 127 126
129 126 125
130 124 123
129 126 124
131 125 124
139 136 135
133 131 130
139 134 133
129 127 125
59 51 50
41 33 33
41 33 30
40 27 27
42 29 29
41 27 26
41 25 25
39 36 35
48 30 30
42 30 29
39 28 28
34 26 26
47 44 43
38 26 24
43 30 28
38 30 29
36 24 23
50 39 38
36 33 31
36 21 21
41 32 30
38 35 33
34 27 27
42 32 32
32 20 19
39 30 30
27 20 20
33 20 20
36 22 22
36 26 25
37 34 31
23 15 15
31 25 24
25 24 23
36 24 23
24 16 16
39 31 29
29 20 20
30 25 25
32 29 28
23 21 20
35 25 25
24 22 20
29 17 15
30 25 24
28 24 23
20 13 13
21 19 19
33 18 18
27 24 23
28 19 18
34 27 24
20 19 18
26 16 16
25 21 19
35 23 23
26 22 22
30 27 24
34 15 12
24 23 21
38 34 33
27 23 23
28 33 24
37 64 39
29 55 31
31 56 33
36 66 39
35 62 37
38 68 40
37 68 40
36 70 40
83 100 84
99 109 99
98 110 98
98 109 97
90 103 91
99 113 100
46 94 51
44 90 49
45 91 50
48 95 53
46 94 51
47 94 52
46 93 51
49 99 54
48 96 53
48 98 53
47 91 51
48 96 53
49 98 54
51 100 56
50 100 55
48 97 53
49 100 54
49 99 54
47 96 52
47 96 52
48 97 53
46 93 51
45 93 50
44 90 49
41 85 46
42 85 46
40 84 45
41 83 44
43 86 47
41 84 45
40 80 44
40 81 44
40 81 43
40 82 45
39 78 43
39 78 43
40 77 43
39 75 41
39 76 42
40 76 43
37 73 40
37 72 40
39 73 41
37 69 37
36 67 37
39 74 41
37 71 40
35 68 38
38 71 40
32 61 34
0 0 0
0 0 0
0 0 0
0 0 0
0 0 0
0 0 0
0 0 0
0 0 0
0 0 0
0 0 0
0 0 0
38 10 10
97 26 26
94 26 25
93 26 25
93 26 25
91 25 24
102 28 27
93 26 25
92 25 24
97 27 26
95 26 25
105 29 28
105 28 27
105 29 28
106 29 28
103 29 28
104 27 26
103 27 27
99 27 26
104 28 27
108 28 28
104 28 27
114 29 29
112 29 29
104 27 26
105 28 27
102 27 26
97 26 25
100 26 25
98 25 24
90 22 22
86 21 21
83 20 19
79 17 16
55 11 11
67 14 14
58 8 8
58 11 11
59 11 11
62 13 12
59 11 11
53 11 10
51 10 9
50 10 10
46 12 10
51 12 11
60 13 12
49 11 10
49 10 9
42 10 9
41 12 9
42 25 23
40 28 28
46 26 26
44 29 28
45 24 21
41 35 33
46 38 34
45 32 27
49 32 30
52 38 35
48 33 29
46 31 25
43 37 32
51 25 23
49 40 34
57 44 40
53 40 38
58 25 23
59 21 21
66 18 18
71 36 35
70 24 22
74 34 34
118 109 107
116 111 110
113 106 105
120 113 110
117 109 108
119 110 109
113 109 108
124 119 118
118 115 112
119 114 113
122 119 118
117 111 111
112 108 107
121 114 112
118 111 110
119 116 116
122 119 117
119 115 113
125 118 117
122 117 116
118 114 113
128 125 124
129 125 124
124 118 117
124 121 120
128 121 121
137 128 128
123 119 119
131 130 127
130 125 124
127 123 122
133 126 125
128 123 122
123 118 117
135 129 129
121 118 117
134 127 127
126 122 121
124 121 120
137 133 132
129 123 122
133 131 129
133 128 127
130 127 125
57 50 50
38 27 25
41 31 31
42 27 27
45 35 34
53 47 46
47 36 36
42 30 29
46 35 34
32 16 15
46 30 30
35 25 23
46 34 31
46 36 35
39 31 30
26 22 19
39 20 19
29 30 28
31 23 23
40 30 29
31 24 23
39 25 25
40 32 30
38 31 31
31 27 26
21 17 17
34 24 24
26 19 18
27 26 24
40 35 32
30 25 23
41 30 30
30 27 25
34 27 25
31 20 20
38 32 31
23 16 16
28 23 23
34 22 21
46 32 31
23 18 17
8 5 5
29 16 16
35 27 25
31 23 23
23 18 17
37 29 29
40 18 15
25 23 22
26 20 18
34 31 29
29 21 21
34 23 22
20 7 7
30 22 21
20 15 14
27 18 18
22 15 14
30 23 21
16 8 5
16 20 17
30 21 21
25 36 22
33 60 35
35 58 36
31 57 34
39 65 40
32 58 35
41 74 44
41 73 44
44 75 47
85 102 86
98 113 99
98 108 98
93 105 93
98 113 99
91 108 92
46 93 50
44 90 49
45 91 50
47 93 51
46 91 50
46 93 51
45 90 49
47 97 53
50 101 55
48 96 52
51 102 56
51 101 56
52 102 57
49 97 54
48 96 53
47 95 52
47 96 53
50 99 55
47 97 52
46 94 51
50 100 55
46 93 51
47 96 52
45 92 50
42 86 47
41 85 46
40 81 44
40 83 45
42 87 47
39 79 43
41 83 45
40 83 45
41 82 45
39 81 44
38 79 43
39 80 43
40 77 42
42 85 46
39 78 43
41 78 43
37 71 39
37 72 40
42 80 44
38 71 39
38 71 40
40 74 42
39 76 42
37 70 39
36 68 38
33 63 36
0 0 0
0 0 0
0 0 0
0 0 0
0 0 0
0 0 0
0 0 0
0 0 0
0 0 0
0 0 0
0 0 0
41 11 10
89 24 23
97 27 26
91 25 24
99 27 26
93 25 24
94 26 25
92 26 25
95 26 25
94 24 24
102 28 27
99 27 26
104 28 27
97 26 26
103 28 27
106 29 28
104 28 27
105 28 27
109 29 29
105 28 28
103 28 27
109 29 29
110 30 29
104 27 27
112 29 29
109 29 28
104 28 27
108 28 28
101 26 26
96 24 24
90 22 22
85 20 20
83 21 20
66 15 15
61 13 13
60 12 12
56 10 9
60 10 10
63 12 12
61 12 12
58 12 12
50 12 11
58 13 12
53 12 11
54 11 11
55 13 12
65 14 13
54 12 11
56 13 12
45 10 8
46 20 19
38 30 25
35 26 24
39 23 22
42 27 24
42 26 23
46 32 30
48 35 33
41 26 24
49 27 25
51 40 39
47 30 28
49 28 26
55 39 35
49 36 31
53 37 35
48 38 35
47 33 28
49 27 23
67 19 19
56 19 19
76 29 29
75 37 37
84 41 40
110 104 102
122 112 111
124 119 119
118 112 112
125 123 122
121 114 114
115 112 111
123 120 119
121 113 112
118 111 110
126 120 120
122 115 115
119 115 114
114 111 110
127 123 121
123 115 115
127 118 117
115 106 105
121 114 113
122 117 116
122 119 117
130 123 123
127 125 123
119 113 113
129 125 123
126 121 119
117 111 111
122 118 116
135 130 129
131 127 125
130 124 123
122 120 119
133 129 128
131 125 124
134 131 130
128 125 124
126 123 122
139 134 133
133 128 127
136 130 129
131 128 126
137 133 132
134 131 129
134 129 128
67 62 61
47 37 37
46 37 36
48 30 30
45 32 30
42 34 33
43 28 28
45 33 33
49 40 39
43 30 30
42 33 32
36 19 19
40 28 27
37 32 31
38 26 26
32 27 27
33 21 20
44 34 34
45 39 39
41 31 31
40 34 32
41 32 31
33 28 28
40 31 30
31 16 16
25 20 20
30 18 17
28 27 26
26 22 22
33 22 22
43 26 25
37 32 29
30 25 23
36 26 26
32 26 24
34 25 23
27 21 20
29 14 13
38 30 29
37 29 25
30 22 22
12 14 11
35 29 28
37 27 26
21 16 16
44 35 34
37 32 32
25 22 20
22 23 21
22 21 21
12 12 12
39 30 29
26 21 18
30 22 22
34 31 30
24 19 19
26 20 17
24 25 24
19 15 15
22 12 11
27 24 23
27 16 15
29 42 27
31 55 33
34 61 36
33 63 36
32 58 34
35 64 38
34 66 38
39 70 42
41 77 45
94 108 95
96 106 95
93 105 94
99 108 97
88 99 88
89 105 90
43 89 48
47 95 52
47 92 51
45 90 49
46 90 50
49 98 54
47 95 52
46 92 51
49 97 54
49 96 53
49 98 54
49 99 54
49 101 55
50 101 55
48 100 54
48 97 53
47 96 53
50 103 56
46 93 51
49 99 54
47 99 53
45 91 49
43 86 47
42 87 47
43 89 48
41 86 46
41 84 45
40 82 44
39 83 44
40 80 44
41 82 44
40 84 45
39 79 43
36 76 41
39 77 42
40 76 42
40 82 45
38 77 42
38 72 40
35 70 39
41 76 43
40 76 42
41 76 42
39 74 41
37 71 40
37 70 39
38 73 41
37 67 38
35 66 37
33 62 35
0 0 0
0 0 0
0 0 0
0 0 0
0 0 0
0 0 0
0 0 0
0 0 0
0 0 0
0 0 0
0 0 0
39 10 10
88 24 24
94 26 25
89 25 24
87 24 23
96 26 25
93 25 24
95 25 25
96 26 25
100 27 26
98 27 26
98 28 26
103 28 28
94 26 25
102 28 27
111 30 29
109 29 28
106 28 28
108 29 29
109 28 28
101 26 25
104 28 27
100 27 26
110 29 29
113 30 29
112 30 29
107 28 28
99 25 24
100 26 25
100 24 24
94 24 23
89 20 20
86 21 21
73 18 17
58 11 11
76 17 17
62 12 12
60 10 10
60 11 11
61 12 12
57 13 12
56 11 10
56 10 10
62 13 12
56 11 10
54 12 11
59 12 12
52 13 12
50 10 9
42 10 8
43 18 17
47 37 35
40 29 25
40 26 19
37 29 26
47 38 36
39 27 21
45 30 25
53 40 39
47 30 26
45 22 21
37 20 16
52 37 32
53 37 33
51 33 29
50 37 31
52 36 32
53 45 41
65 39 37
55 19 19
59 23 22
64 28 28
68 32 30
75 32 32
115 107 105
116 106 105
116 108 108
111 107 106
120 114 113
116 113 112
114 105 104
113 107 106
122 115 115
116 112 111
127 125 124
122 117 117
124 119 118
119 113 112
130 126 125
130 123 123
116 109 108
131 124 123
128 119 119
130 122 120
120 116 115
126 121 119
121 119 118
125 118 117
131 125 125
115 109 108
124 118 117
127 124 123
125 122 121
133 128 127
131 126 125
133 127 127
133 126 126
133 125 124
127 121 120
135 132 131
135 130 129
140 136 136
130 125 124
133 129 128
141 139 137
133 128 127
139 134 132
141 133 133
52 40 40
50 35 34
54 44 42
38 26 26
45 36 36
40 28 27
45 34 33
39 23 23
35 26 25
36 26 26
36 27 26
25 17 17
41 29 29
41 32 32
41 40 37
42 35 33
32 25 25
31 26 26
43 29 28
37 28 27
37 26 26
33 29 28
29 19 19
35 30 29
40 34 33
33 27 23
35 32 31
28 30 26
29 26 26
28 21 19
33 24 24
26 23 21
42 30 28
32 24 22
39 30 28
41 31 29
23 20 19
32 23 22
37 34 33
34 28 26
41 35 33
41 37 36
28 26 23
27 28 26
34 28 27
28 24 22
31 25 25
38 29 27
27 16 16
18 14 13
35 32 30
29 23 22
32 24 21
21 20 16
23 20 19
37 20 19
29 18 18
25 13 12
25 17 17
22 20 16
30 15 15
21 18 14
27 35 24
30 58 32
31 58 34
35 60 37
38 62 39
38 63 40
38 66 40
36 66 39
39 70 42
99 113 99
95 108 96
98 110 98
95 108 95
93 108 94
88 102 87
43 86 46
47 91 50
45 91 49
44 88 49
50 100 54
48 98 54
45 91 50
47 96 52
51 101 56
47 94 51
51 97 54
50 97 54
48 95 53
48 98 54
49 97 54
49 96 53
51 102 57
48 99 54
47 97 53
47 95 52
46 92 50
43 90 49
44 91 49
45 92 50
44 91 50
42 87 48
42 86 46
41 83 45
42 88 47
39 82 44
39 78 42
40 82 44
38 79 43
40 80 44
40 81 44
39 80 43
39 77 42
38 75 42
38 76 41
38 75 41
39 75 41
37 70 39
39 76 42
37 69 39
38 71 40
41 75 42
37 71 40
35 65 37
38 72 41
32 63 35
0 0 0
0 0 0
0 0 0
0 0 0
0 0 0
0 0 0
0 0 0
0 0 0
0 0 0
0 0 0
0 0 0
39 11 10
88 25 24
99 28 27
91 24 24
89 25 23
95 26 25
95 26 25
90 24 24
96 27 26
93 26 25
97 27 26
103 27 27
97 26 26
102 28 27
113 31 30
102 27 26
99 27 26
106 29 28
107 28 27
112 30 29
112 30 29
113 30 29
109 28 28
111 29 29
107 28 28
99 26 25
110 29 29
102 26 25
99 25 24
87 22 22
86 22 21
89 21 21
77 18 18
56 11 11
64 13 13
60 11 11
56 11 10
61 9 8
48 8 8
57 9 9
49 9 9
55 12 11
53 12 11
49 10 9
46 11 10
51 12 11
49 12 11
59 16 14
58 14 13
43 10 9
43 16 14
43 30 27
46 31 29
36 24 21
47 39 37
43 29 24
48 29 26
40 21 20
44 28 26
43 29 26
40 32 25
48 29 25
45 20 20
48 31 29
46 33 29
43 32 24
52 34 30
52 35 30
49 21 21
63 26 25
61 24 23
67 27 26
71 30 29
80 31 30
110 100 97
118 113 112
122 118 117
100 94 93
110 107 106
123 115 114
119 111 110
126 121 120
121 115 114
126 118 117
120 112 112
120 116 115
121 114 112
126 120 120
122 115 115
115 110 109
130 123 123
121 115 115
120 112 111
127 121 121
123 118 118
130 121 121
128 122 121
120 112 111
126 122 121
135 128 128
124 120 120
135 128 127
124 119 118
133 126 125
129 126 125
129 125 124
136 134 132
128 123 122
133 127 126
137 132 132
133 127 127
137 131 131
126 122 121
129 123 122
133 127 127
125 123 122
129 123 122
136 131 129
63 54 54
48 39 39
47 39 39
45 29 28
47 32 31
50 37 35
41 31 31
36 32 30
48 37 36
38 30 29
46 34 32
35 27 27
32 21 20
37 27 27
41 20 19
34 30 30
36 23 23
33 28 27
53 42 41
27 18 17
37 32 32
30 21 21
29 26 26
46 36 35
40 29 28
29 25 23
34 29 28
28 24 24
23 15 14
33 30 29
33 28 27
38 28 27
42 33 32
24 21 19
35 30 29
38 26 23
38 35 33
30 19 18
32 31 30
25 20 19
17 9 9
34 21 21
32 30 29
23 21 18
27 18 18
26 19 19
19 17 15
26 19 19
24 15 13
33 27 26
20 8 8
30 19 19
34 34 31
27 26 23
26 8 8
34 29 28
22 23 19
28 25 24
25 22 20
14 14 12
29 22 19
26 22 18
35 40 27
32 58 35
35 56 34
41 64 42
35 60 37
37 70 41
37 70 40
41 71 44
40 72 43
90 102 90
103 112 101
101 114 102
96 109 96
94 107 95
90 104 90
45 90 49
45 92 50
46 93 51
48 96 53
47 91 50
47 94 51
45 92 50
49 97 53
47 96 53
51 101 56
49 98 54
49 98 54
50 98 55
51 101 56
49 98 54
49 99 55
48 97 53
47 94 51
47 95 52
43 87 47
48 99 53
47 98 53
45 92 51
44 91 49
43 89 48
41 85 46
40 83 45
41 85 46
39 81 44
41 85 46
39 79 43
39 79 43
40 81 44
39 82 44
39 78 43
36 75 40
37 76 41
39 75 41
37 72 40
38 78 42
40 76 42
38 73 40
35 68 38
36 70 39
37 70 39
37 69 39
37 70 39
36 69 38
36 67 37
30 58 33
0 0 0
0 0 0
0 0 0
0 0 0
0 0 0
0 0 0
0 0 0
0 0 0
0 0 0
0 0 0
0 0 0
38 10 9
88 24 23
87 24 23
95 25 24
87 23 23
92 25 25
94 26 25
93 25 24
101 27 27
93 26 25
99 26 26
99 27 26
99 26 25
99 27 26
105 28 28
103 29 28
105 28 28
114 30 30
104 27 27
106 28 27
103 28 27
109 29 28
102 27 27
110 29 28
101 26 26
115 30 29
106 29 28
98 26 25
109 29 28
84 22 20
86 22 21
91 22 22
77 18 18
74 16 15
59 14 13
67 14 14
47 8 8
53 9 9
58 9 8
56 10 10
59 11 10
58 13 13
57 12 11
52 11 10
49 10 10
45 10 10
51 12 12
52 13 12
46 11 10
40 9 7
37 12 10
39 26 23
38 25 23
38 28 25
37 25 21
45 28 27
45 38 32
40 26 19
46 35 29
49 38 34
42 29 26
51 38 34
43 27 26
48 36 32
54 37 35
51 35 29
50 35 30
55 42 40
58 24 23
54 16 16
68 37 37
70 31 31
67 25 25
83 40 40
114 107 106
114 108 107
115 104 103
117 108 106
120 113 113
117 111 110
115 111 110
115 108 108
112 106 104
123 117 116
132 125 123
113 107 106
114 110 109
118 109 109
116 110 109
119 115 114
127 119 119
123 114 114
122 118 116
118 110 110
127 121 120
116 110 109
127 119 118
126 119 117
127 123 121
128 126 125
129 127 126
126 120 119
131 127 126
122 116 114
132 124 124
128 124 124
132 130 129
133 126 126
122 118 117
131 128 127
125 122 120
129 124 122
131 126 125
130 126 126
141 136 134
131 126 125
136 132 131
137 133 131
53 42 40
49 37 37
53 39 38
43 34 34
43 28 27
37 23 23
45 31 30
41 33 33
33 23 21
41 33 32
26 15 15
41 26 25
45 33 32
43 32 32
50 30 30
44 34 34
33 21 21
29 22 22
44 29 26
36 29 28
35 31 29
44 28 27
44 34 33
37 33 33
30 24 22
37 25 24
31 21 20
40 36 35
39 22 21
43 39 36
35 30 28
39 26 24
29 17 17
32 26 23
29 22 22
36 30 30
44 23 22
36 30 28
33 28 26
34 28 27
42 30 29
38 28 26
32 25 24
26 13 13
32 19 17
22 17 17
28 24 23
30 28 26
27 25 23
23 20 19
39 22 22
36 26 23
30 23 23
33 27 27
34 26 26
21 5 5
29 23 20
29 29 25
28 22 21
25 23 20
20 17 17
33 24 24
26 40 26
32 57 34
32 49 32
33 60 36
32 63 35
36 67 39
31 59 34
40 69 42
38 68 40
90 102 91
101 111 101
91 100 89
97 106 96
95 108 95
92 108 93
45 92 50
45 90 50
46 92 50
46 92 51
45 88 48
46 93 51
48 96 52
49 97 53
47 94 51
45 94 51
48 97 53
48 96 52
49 97 54
51 102 56
49 97 53
49 99 54
50 100 55
48 98 54
45 94 51
49 101 55
44 89 49
45 92 50
45 91 50
41 85 46
40 81 44
42 86 47
41 84 46
41 83 45
42 87 47
42 83 45
41 83 45
39 80 44
38 80 43
39 80 44
38 77 42
38 78 42
37 75 41
40 79 43
37 75 41
37 73 40
37 71 40
41 80 44
34 68 38
38 73 41
36 69 38
35 66 37
39 73 41
36 70 39
36 69 39
30 55 31
0 0 0
0 0 0
0 0 0
0 0 0
0 0 0
0 0 0
0 0 0
0 0 0
0 0 0
0 0 0
0 0 0
47 13 13
95 26 25
89 23 23
97 26 26
97 27 25
92 25 24
93 26 25
88 24 23
90 25 24
92 25 24
98 27 26
99 27 26
103 28 27
105 28 27
109 29 28
104 28 27
104 29 28
108 29 29
103 28 28
106 27 27
106 28 28
108 28 28
99 26 25
107 29 27
101 28 27
107 28 28
103 27 26
114 29 29
107 28 27
97 25 24
91 24 23
84 20 20
75 17 17
72 18 17
65 13 12
64 13 12
56 10 10
58 10 10
64 12 12
59 11 11
61 12 12
58 13 13
50 10 8
61 14 13
56 11 11
55 13 11
48 10 9
53 12 11
48 11 10
50 12 10
30 9 7
37 25 24
39 30 24
42 29 27
37 30 22
42 34 30
38 26 20
45 29 26
44 30 25
49 36 34
50 26 26
51 26 26
53 41 39
50 42 36
41 26 20
50 38 33
58 35 33
51 34 30
48 26 23
53 22 22
64 19 18
68 35 34
77 32 31
76 40 40
110 94 93
111 105 105
115 110 109
110 108 106
113 110 109
114 108 108
120 112 111
120 116 115
120 113 112
118 113 112
128 122 121
114 109 108
116 110 109
122 113 113
119 112 112
117 110 110
121 115 114
123 117 116
121 113 112
120 116 115
124 118 117
134 128 128
122 117 117
124 121 120
118 114 112
130 122 122
132 128 127
125 120 119
123 119 118
135 131 130
128 123 122
133 126 125
129 124 123
138 129 128
128 125 123
132 127 126
143 141 140
131 125 124
127 124 123
126 124 123
136 131 131
130 124 123
125 124 122
137 133 130
60 52 51
39 28 27
46 37 37
55 46 45
44 30 30
44 35 34
41 32 31
47 33 32
48 30 30
45 32 32
41 32 32
38 30 29
38 32 29
43 28 27
53 38 37
36 26 25
31 25 24
48 34 34
37 32 30
35 24 23
38 30 30
40 28 28
39 27 26
34 23 23
31 19 17
35 28 27
40 31 30
40 27 25
39 31 31
25 19 18
28 22 21
31 22 21
40 27 24
40 35 33
35 25 25
25 25 22
35 30 29
33 26 25
46 31 29
28 22 22
27 25 23
29 22 21
26 21 21
35 22 21
31 21 19
35 31 28
31 27 26
30 26 23
32 26 26
13 23 14
25 21 20
22 21 19
27 22 19
35 33 30
35 23 18
23 25 23
23 23 19
24 24 20
19 18 18
28 24 23
26 17 16
27 25 22
21 35 20
29 50 31
29 55 31
34 61 37
36 62 39
39 64 41
37 68 40
39 66 41
39 69 42
98 106 98
101 110 101
96 107 96
97 109 97
90 100 90
91 103 91
44 92 50
45 93 51
45 89 49
46 90 49
44 92 49
46 92 50
49 98 54
47 95 52
47 94 51
49 97 54
48 96 53
45 90 50
50 100 55
49 99 54
49 96 53
47 96 53
50 100 55
48 99 54
49 100 55
48 96 53
44 90 49
45 94 50
48 98 54
46 94 51
43 88 47
40 83 44
41 82 45
43 88 48
42 86 46
38 77 42
40 81 44
41 83 45
39 79 43
38 80 42
38 79 43
39 77 42
39 78 43
40 76 42
39 78 42
39 75 42
39 74 41
37 71 39
37 72 40
39 73 41
36 68 38
38 72 41
33 64 36
37 70 39
37 70 39
33 60 33
0 0 0
0 0 0
0 0 0
0 0 0
0 0 0
0 0 0
0 0 0
0 0 0
0 0 0
0 0 0
0 0 0
38 11 10
88 24 23
95 26 25
94 26 25
93 25 25
100 27 26
92 25 24
100 27 26
97 27 26
99 27 26
95 26 25
100 28 27
98 27 26
103 28 27
97 26 26
102 28 27
103 27 27
109 30 29
107 28 28
110 29 28
106 28 28
107 29 28
112 30 29
107 28 27
105 27 27
111 29 28
116 30 29
97 25 24
94 25 24
92 23 22
85 21 20
82 20 20
68 16 16
65 12 12
53 10 10
60 11 10
52 8 7
54 9 9
59 11 11
55 10 9
52 9 9
54 12 12
53 10 9
49 11 10
56 13 12
52 12 11
49 13 11
51 11 10
50 11 10
39 10 8
38 10 9
37 26 20
35 21 20
35 22 20
41 25 23
36 20 18
44 31 30
41 30 27
43 24 20
37 27 23
42 32 28
43 32 27
49 39 36
48 32 29
42 29 25
52 38 34
49 33 29
49 34 30
51 19 19
63 21 21
64 22 21
74 23 23
62 25 24
80 44 43
108 99 97
114 106 105
115 108 107
116 111 109
113 102 101
116 111 109
123 117 116
113 106 105
124 118 118
113 107 107
121 111 110
118 114 114
116 112 111
128 120 119
116 112 112
115 111 111
127 120 119
127 122 122
128 124 123
121 118 117
126 121 121
120 112 111
124 117 116
125 121 121
123 118 118
132 126 126
132 127 126
130 124 124
127 123 122
131 129 128
132 126 125
126 121 120
133 127 125
133 129 128
118 117 114
130 126 125
126 117 116
122 119 118
127 123 122
137 128 128
133 131 129
128 123 122
130 127 126
137 130 129
58 56 54
34 21 21
44 29 29
40 31 30
46 30 30
50 35 34
48 30 29
35 29 28
46 40 39
39 28 27
28 26 26
37 29 28
47 40 39
44 37 36
37 21 21
33 25 24
46 37 36
27 17 17
34 23 22
37 36 35
33 31 30
42 33 33
39 28 27
38 32 31
30 22 21
35 22 22
32 21 20
40 32 31
34 19 17
28 21 20
41 34 32
31 30 29
43 35 35
31 27 27
29 25 24
42 27 24
34 23 20
29 21 19
22 17 17
34 22 22
29 24 21
28 25 22
25 16 15
38 26 25
36 32 31
25 27 24
35 27 26
24 16 16
32 31 28
22 17 17
27 19 17
34 28 27
29 17 16
27 20 17
23 20 18
13 10 10
30 23 22
29 18 16
25 12 10
22 21 17
39 25 25
25 24 21
36 39 29
33 59 35
40 67 43
33 63 36
37 63 37
40 67 43
35 65 36
37 71 40
38 73 42
97 108 97
97 105 96
96 108 96
97 107 97
97 107 96
87 101 88
44 89 49
44 91 49
46 93 50
44 87 47
45 91 50
48 96 53
47 97 53
47 95 52
46 92 50
50 103 56
49 97 53
50 98 54
49 100 54
48 96 53
47 95 51
46 92 50
47 95 51
48 99 54
44 91 49
46 93 51
43 89 48
43 89 48
42 87 47
45 94 50
40 83 45
40 83 45
42 86 46
41 86 46
40 83 45
40 81 44
39 79 43
39 78 43
38 76 42
38 78 42
37 76 41
40 79 43
38 78 42
38 77 42
39 79 44
39 78 42
37 75 40
39 76 42
41 79 44
39 77 42
37 72 40
38 70 39
39 72 41
36 68 37
36 67 38
30 56 31
0 0 0
0 0 0
0 0 0
0 0 0
0 0 0
0 0 0
0 0 0
0 0 0
0 0 0
0 0 0
0 0 0
42 11 11
96 26 25
98 27 26
91 25 24
91 25 24
95 26 26
89 25 24
92 25 25
92 25 24
97 27 26
93 26 25
99 26 25
96 26 25
98 26 25
105 29 28
103 27 27
106 28 27
102 28 27
112 30 29
109 28 27
108 29 28
102 27 27
106 28 27
104 27 27
113 29 29
97 26 25
101 26 25
105 27 27
96 25 24
90 23 22
97 25 24
83 20 19
72 17 17
72 15 15
59 12 12
69 15 14
58 10 10
60 10 10
59 12 11
53 9 9
54 11 10
45 7 6
51 9 9
55 13 12
50 11 10
55 11 10
48 11 10
55 14 12
39 9 8
39 9 7
42 30 28
45 34 27
45 36 29
44 36 31
41 29 27
45 32 28
50 37 31
54 43 42
46 39 34
48 36 30
50 32 30
57 40 38
54 42 34
57 50 46
52 36 30
50 35 30
53 37 31
49 40 34
57 28 27
57 21 20
54 23 22
60 30 29
68 33 32
81 41 40
115 105 104
121 115 113
115 107 105
120 114 113
114 106 106
117 113 112
116 107 106
108 103 101
114 108 107
120 114 114
121 113 112
118 112 112
119 113 113
121 115 115
114 108 108
121 118 117
118 112 112
126 119 118
126 119 119
123 117 115
129 124 123
122 115 115
121 116 114
123 115 115
123 119 118
127 120 119
126 120 119
128 121 120
121 114 114
131 125 124
137 129 129
127 122 122
126 124 122
134 127 127
132 127 126
138 134 133
132 128 128
132 128 127
125 121 119
135 133 131
136 131 129
129 126 125
134 130 129
133 129 127
64 60 59
49 40 38
33 29 28
40 38 37
50 38 38
50 39 39
39 27 26
48 40 39
32 23 23
38 27 26
43 29 28
41 32 31
30 24 22
47 37 36
49 36 35
36 32 29
43 36 35
42 36 35
38 32 31
44 38 38
37 20 20
39 33 33
37 30 28
46 31 30
40 22 22
36 30 30
39 32 31
36 31 30
29 23 23
38 32 31
39 25 22
46 37 35
27 27 26
38 32 32
32 24 24
28 22 22
31 25 23
34 22 22
30 26 24
34 23 22
31 29 27
33 24 24
38 29 27
25 19 16
22 16 16
28 18 18
34 28 25
41 31 30
44 42 39
25 25 21
30 29 28
18 19 18
35 21 20
35 29 28
29 21 20
24 18 16
27 19 18
29 17 15
25 22 20
22 19 14
28 26 25
34 25 23
26 39 26
33 55 35
37 56 39
35 62 38
37 65 39
35 61 38
35 63 37
42 68 44
44 71 46
92 102 90
98 106 95
99 109 99
97 105 95
93 104 93
96 107 96
64 96 66
44 88 48
47 95 51
44 87 48
47 92 51
46 95 51
47 92 50
46 93 51
49 98 53
48 95 52
50 97 54
47 96 52
46 92 51
48 98 54
50 101 55
47 96 53
47 95 52
48 94 52
47 95 52
45 91 50
46 93 51
46 93 51
44 89 48
45 93 51
40 82 44
42 85 46
41 81 45
42 86 47
41 83 45
41 84 45
40 82 44
38 78 42
37 76 41
37 75 41
39 81 43
38 78 43
38 78 42
39 78 43
37 72 40
36 73 40
37 71 40
37 72 40
36 70 38
39 74 41
35 68 38
37 71 40
38 70 39
35 67 38
38 70 39
31 59 32
0 0 0
0 0 0
0 0 0
0 0 0
0 0 0
0 0 0
0 0 0
0 0 0
0 0 0
0 0 0
0 0 0
42 11 11
95 25 24
90 25 24
88 23 23
93 25 25
91 25 24
92 25 24
100 27 26
96 26 25
92 25 24
98 26 25
93 26 25
96 26 26
110 29 29
98 27 26
98 26 25
102 27 26
108 28 27
107 28 28
104 28 27
100 26 26
101 27 26
112 30 29
109 29 28
108 28 28
107 27 27
100 26 25
105 27 26
101 26 25
93 23 22
92 22 22
82 19 19
79 18 18
60 12 12
66 14 13
56 10 10
49 7 7
56 11 10
47 7 7
50 8 8
57 10 10
60 13 12
53 12 11
54 10 10
56 13 12
51 10 9
56 12 11
44 10 9
46 11 10
44 24 24
54 43 40
52 34 28
47 40 34
48 35 32
47 32 26
54 37 35
51 35 34
48 40 36
51 40 35
51 38 35
48 33 32
52 41 35
63 41 35
54 47 44
51 42 35
55 45 42
59 39 35
48 37 34
51 21 20
62 24 24
60 26 25
66 26 25
71 31 31
72 33 33
103 94 93
116 107 106
123 116 115
111 102 102
117 112 112
114 110 110
112 107 104
132 124 123
120 114 113
122 116 114
116 111 110
117 112 111
122 116 114
119 114 113
128 120 120
120 115 115
112 108 107
116 108 107
117 114 113
121 117 117
125 122 121
132 129 128
121 117 116
123 119 118
130 124 123
128 123 122
126 121 120
123 118 116
117 113 112
130 128 127
121 117 116
131 121 120
131 127 126
124 118 117
131 126 126
123 119 119
126 120 120
133 127 127
122 118 117
139 134 133
124 122 121
137 135 134
126 122 119
143 138 137
55 45 44
41 30 29
42 32 32
51 41 40
51 36 35
37 28 27
46 36 35
35 32 30
42 31 31
47 35 34
45 33 32
33 26 26
43 38 38
33 29 26
49 41 41
38 34 31
39 31 31
49 41 41
48 33 32
27 23 21
45 26 26
39 29 29
31 23 23
36 30 29
27 19 16
36 27 25
32 24 24
32 25 25
42 36 35
39 34 34
37 32 29
34 31 29
40 25 24
34 30 29
28 24 20
32 23 22
33 25 25
35 30 28
36 32 29
22 18 17
15 10 9
32 33 31
30 28 25
29 27 26
28 19 18
35 28 26
36 24 22
32 27 25
31 26 25
34 36 33
21 16 16
20 18 16
18 15 15
24 18 16
21 23 19
44 30 29
38 31 30
32 23 21
34 33 30
26 24 20
23 17 17
26 19 18
27 36 22
30 56 32
36 56 37
32 57 34
32 59 35
38 65 40
34 67 37
41 71 43
46 75 48
97 108 95
97 110 97
101 111 101
97 108 96
97 110 96
94 106 93
97 105 94
57 96 60
43 88 48
45 93 50
46 93 50
48 95 52
47 93 51
46 93 51
46 93 51
49 96 54
48 97 53
47 96 52
49 100 55
46 95 52
48 98 53
47 97 53
47 95 52
48 98 53
47 96 53
47 96 53
46 92 51
43 88 48
46 94 51
41 83 45
41 85 46
40 83 45
40 82 45
39 82 44
39 82 44
40 82 44
38 77 42
38 77 42
38 79 43
38 77 42
38 80 42
38 76 42
38 78 42
39 79 43
39 77 43
40 77 42
37 71 39
39 76 43
38 74 41
37 70 39
37 72 40
38 71 40
37 70 39
36 70 39
36 67 37
35 67 38
0 0 0
0 0 0
0 0 0
0 0 0
0 0 0
0 0 0
0 0 0
0 0 0
0 0 0
0 0 0
0 0 0
46 12 12
90 25 24
86 24 23
90 25 24
95 25 25
89 24 23
95 25 25
99 27 26
97 27 26
93 26 25
98 26 25
98 26 26
101 27 26
101 27 27
96 25 24
109 29 28
102 28 27
101 27 27
104 28 27
107 28 28
112 29 29
104 27 27
112 30 29
106 28 27
107 28 28
104 28 27
95 24 23
98 25 24
99 25 25
93 22 22
79 20 19
86 21 20
79 17 17
75 17 17
68 14 13
59 14 13
62 12 11
56 10 10
55 10 9
46 7 7
54 10 9
60 13 12
58 10 10
47 11 10
56 11 11
46 12 10
49 11 10
45 10 9
47 22 22
52 34 31
48 30 28
57 44 41
50 39 37
54 43 39
56 39 36
57 45 42
51 38 34
49 34 31
51 31 26
48 30 27
57 42 38
46 40 35
58 40 35
57 36 33
63 47 44
59 37 35
55 37 34
58 51 44
53 25 23
49 13 13
54 23 23
64 21 21
73 41 40
67 34 33
113 103 102
117 111 110
115 106 104
120 116 115
117 111 110
123 115 115
118 112 111
122 117 117
118 109 108
131 123 123
114 102 101
117 111 111
127 121 121
115 110 109
111 105 105
123 118 117
122 117 117
122 118 117
123 116 115
124 119 118
122 119 118
123 116 115
122 117 116
124 118 118
124 121 120
130 123 123
125 119 118
121 114 113
125 120 119
132 127 127
131 127 126
131 126 126
132 126 125
128 125 123
121 119 117
122 120 120
132 126 125
135 132 131
128 123 123
126 123 122
125 121 120
134 127 127
131 123 122
130 127 126
65 58 58
49 42 41
47 37 36
50 42 41
49 43 43
39 29 28
51 39 38
44 37 35
49 34 32
40 31 31
43 35 33
51 37 37
42 38 37
40 34 32
40 30 29
39 29 28
38 30 30
28 21 21
36 29 29
44 33 33
42 36 35
30 24 23
49 35 35
32 31 28
43 34 33
43 36 35
37 30 28
37 33 33
41 31 30
32 29 28
33 21 18
40 26 25
26 24 23
22 18 16
36 33 32
46 33 32
40 32 30
30 17 17
29 22 21
32 27 24
32 26 25
29 24 24
43 26 25
36 32 31
39 28 26
27 17 16
34 33 29
33 21 17
30 22 20
31 25 24
33 26 25
32 26 24
20 16 13
25 19 17
25 16 14
28 23 22
36 31 31
36 31 29
29 26 26
29 29 27
29 24 23
37 31 30
26 34 21
32 51 32
32 59 34
30 56 32
28 56 31
39 66 42
35 65 37
38 69 41
42 73 45
92 103 91
102 112 101
98 111 98
101 111 99
96 107 95
93 109 94
100 112 99
93 107 91
61 95 64
45 89 49
46 91 50
48 94 52
47 94 51
47 97 52
49 100 55
49 99 54
46 90 49
48 95 52
48 98 53
48 96 53
45 90 49
46 94 51
49 98 54
49 101 55
47 96 52
43 87 48
45 91 50
41 84 46
41 87 47
43 88 48
44 89 49
41 85 46
40 85 45
40 82 44
39 81 44
39 81 44
37 75 41
38 78 43
38 78 42
38 77 42
37 76 41
37 75 41
37 74 41
39 78 41
37 72 40
38 76 41
37 73 40
37 71 39
41 79 44
39 74 41
39 76 42
37 68 38
37 71 40
35 70 38
34 68 38
33 60 33
0 0 0
0 0 0
0 0 0
0 0 0
0 0 0
0 0 0
0 0 0
0 0 0
0 0 0
0 0 0
0 0 0
40 11 10
86 24 23
93 25 25
94 26 25
91 25 25
90 25 24
97 25 25
95 26 25
96 26 25
96 26 25
90 25 24
97 26 25
87 23 23
103 27 27
105 28 27
110 29 29
107 29 28
101 28 27
100 27 26
109 29 28
105 28 27
112 29 28
106 28 28
101 27 26
97 27 25
105 28 28
105 27 26
98 25 25
101 25 25
95 24 23
81 20 19
78 19 18
76 17 17
72 15 15
57 11 11
58 12 12
49 8 8
53 8 8
52 9 9
48 9 9
49 10 10
50 9 8
46 9 9
50 12 11
49 12 11
48 11 10
55 13 12
50 32 29
43 25 22
64 46 44
47 38 35
53 39 35
52 28 24
61 43 41
54 40 38
60 40 38
58 39 36
62 51 47
54 39 37
53 34 31
64 51 46
47 32 30
54 43 39
54 42 40
60 43 40
60 41 39
68 49 47
58 39 37
56 29 28
48 15 15
58 23 21
60 26 25
67 23 23
77 34 33
106 97 97
117 110 110
113 106 106
115 110 110
111 108 106
111 106 105
123 114 112
109 104 103
120 114 113
117 111 110
116 111 111
111 105 104
119 111 110
116 110 109
122 118 117
118 111 111
124 119 118
123 116 116
128 123 122
119 109 108
122 118 117
119 114 114
129 126 125
118 113 113
117 112 111
116 112 111
126 121 120
128 123 122
130 125 125
129 124 124
132 128 127
130 124 123
131 127 126
129 123 122
122 118 118
129 127 126
128 124 123
132 128 127
127 123 123
130 124 123
124 119 118
137 130 130
130 124 123
128 124 122
53 41 39
42 33 33
39 31 29
49 34 32
51 37 36
45 41 40
43 38 35
42 27 26
51 32 31
46 40 39
45 32 31
33 28 27
44 34 34
40 36 35
38 34 33
46 39 38
41 29 28
33 30 28
38 29 29
32 28 28
44 31 31
31 22 22
30 25 24
40 29 28
42 30 29
27 22 21
30 25 24
37 26 25
32 20 19
36 27 26
29 25 24
31 25 25
34 29 26
36 24 21
29 24 22
31 26 24
32 24 22
43 37 35
33 27 26
36 31 30
40 37 36
32 23 23
39 25 23
39 27 27
37 28 26
34 32 31
32 28 27
33 26 25
34 21 21
25 19 19
19 9 9
30 25 24
29 26 25
24 21 19
30 24 22
22 20 19
26 19 18
32 25 22
25 23 20
20 21 20
18 16 14
26 19 17
34 40 28
32 53 34
27 49 29
36 60 38
38 64 40
35 65 38
32 62 35
39 70 42
40 71 43
94 103 93
99 111 99
96 105 94
95 107 95
106 118 106
99 110 97
95 107 94
94 108 95
102 109 99
59 94 62
47 96 52
46 94 51
46 94 51
46 89 49
48 98 53
46 93 50
48 97 53
50 100 55
45 92 50
48 100 54
46 95 52
48 98 53
48 98 54
48 98 53
46 95 52
45 93 51
44 91 49
45 93 51
45 91 50
42 86 47
40 84 45
42 86 46
43 88 48
40 84 45
40 83 45
38 79 43
40 81 44
36 73 40
37 76 41
38 77 42
37 77 41
38 78 42
36 74 40
36 73 40
39 79 43
35 70 39
37 75 41
37 72 40
36 70 39
39 74 40
35 68 38
39 70 40
36 65 37
38 70 39
34 65 36
33 60 34
0 0 0
0 0 0
0 0 0
0 0 0
0 0 0
0 0 0
0 0 0
0 0 0
0 0 0
0 0 0
0 0 0
34 9 9
85 24 23
90 25 24
89 24 23
96 26 26
99 28 27
92 25 24
94 26 25
101 28 27
101 27 26
91 25 24
105 29 28
104 28 27
97 25 25
105 28 27
103 27 27
107 29 28
107 28 27
100 27 26
109 29 28
106 27 26
106 28 28
108 29 28
108 29 28
105 27 27
112 29 29
104 27 27
101 27 26
93 25 24
92 22 22
88 21 21
79 19 18
79 18 18
67 13 13
62 11 11
61 12 11
57 9 8
49 9 8
44 7 7
49 10 9
46 8 7
55 11 10
58 13 13
48 10 9
43 8 8
56 13 12
50 35 32
56 41 40
56 39 35
50 34 32
58 46 45
65 54 52
65 51 50
61 56 52
59 47 45
63 51 48
61 46 43
60 46 44
61 45 40
59 43 40
58 43 39
61 53 50
62 44 41
59 41 38
57 47 41
66 52 48
63 46 41
56 41 34
54 27 27
58 21 19
64 18 17
66 25 24
68 28 27
70 29 29
116 106 105
121 107 107
112 101 101
119 111 110
113 106 106
122 112 110
123 115 114
120 113 113
115 112 110
123 114 113
119 113 112
121 114 114
124 117 117
117 112 111
125 119 118
120 114 113
127 120 120
125 122 121
124 121 120
113 111 110
123 116 116
125 120 119
131 127 126
126 118 117
123 120 119
126 120 119
123 118 117
123 119 119
129 125 124
138 132 131
130 126 126
130 122 122
127 122 122
129 124 123
129 123 122
132 128 126
123 119 119
125 123 121
127 122 121
129 127 126
133 128 127
134 129 128
129 125 123
132 129 129
64 57 56
49 38 37
46 37 37
50 34 33
49 32 32
49 38 38
44 32 31
51 43 42
44 31 30
41 36 35
47 26 25
38 27 27
46 37 36
32 26 26
41 36 35
37 34 34
41 36 36
38 33 32
47 38 37
41 38 35
36 27 27
43 28 27
22 16 16
37 32 32
36 25 24
47 33 32
31 25 23
38 27 26
39 30 29
30 21 20
33 26 25
30 22 22
37 27 26
37 28 28
26 24 23
45 23 22
37 31 30
30 25 23
24 20 16
33 28 27
34 26 26
34 22 21
24 18 17
29 27 22
26 21 17
31 24 23
23 26 23
37 31 29
31 17 17
34 29 27
23 21 20
31 23 20
27 21 20
35 28 26
31 26 25
25 24 22
26 16 16
29 23 20
33 18 17
17 12 9
17 18 15
33 22 19
29 37 24
36 60 37
34 60 36
36 62 38
35 63 37
34 60 36
38 69 41
36 64 37
42 68 44
99 113 100
102 113 100
100 111 98
100 108 97
103 112 100
100 116 101
100 108 97
98 107 95
102 114 102
97 109 96
67 95 67
46 93 51
45 92 50
46 93 50
49 96 52
48 96 52
46 93 51
48 97 53
48 95 53
49 98 54
47 97 53
45 93 50
46 95 52
46 91 50
47 95 52
46 93 51
43 87 47
45 92 50
44 88 48
43 88 48
43 89 49
41 85 46
39 80 43
37 79 42
38 78 42
39 79 43
37 80 42
38 77 42
38 80 43
37 75 41
36 75 41
38 77 42
37 74 41
38 74 40
36 70 39
38 75 41
37 73 40
36 70 39
39 74 41
36 71 39
39 73 40
37 69 39
35 67 38
37 70 39
38 67 37
30 57 32
0 0 0
0 0 0
0 0 0
0 0 0
0 0 0
0 0 0
0 0 0
0 0 0
0 0 0
0 0 0
0 0 0
45 12 11
86 23 23
87 24 23
95 26 25
94 26 25
88 24 23
94 26 25
99 27 26
94 26 25
92 25 24
97 27 26
98 26 25
100 26 26
104 28 27
109 29 28
100 27 26
107 28 28
104 28 27
98 26 25
110 30 29
105 28 27
99 26 26
105 27 27
108 28 27
103 27 26
106 27 27
105 27 26
109 27 26
101 25 25
92 23 23
84 20 20
81 19 19
73 17 16
71 15 15
67 12 12
54 11 11
58 11 11
51 8 8
59 12 12
47 9 9
52 11 10
49 10 10
54 12 11
46 11 10
47 9 8
51 27 26
51 35 33
53 28 27
63 47 46
66 56 52
52 41 36
54 37 33
61 49 47
56 37 36
66 50 47
51 35 32
67 51 49
65 49 46
56 48 45
60 46 44
69 41 39
62 45 42
51 37 35
59 44 41
66 43 40
70 48 47
63 50 43
61 47 45
60 28 25
58 24 24
60 20 19
68 29 28
64 28 27
71 39 39
105 93 93
117 107 107
105 100 99
113 106 105
116 109 108
111 104 102
111 102 101
120 111 111
125 117 117
116 112 111
113 105 104
120 114 114
107 99 98
122 115 114
129 122 121
115 110 109
120 114 114
122 115 114
119 115 114
124 116 115
121 112 111
117 114 114
121 118 117
119 114 113
120 116 114
123 114 113
126 123 122
134 131 131
115 111 109
132 128 127
129 123 123
131 123 123
123 118 117
133 127 126
134 129 128
130 128 127
132 126 125
125 120 118
123 117 116
125 123 122
132 127 127
128 124 123
130 127 125
133 129 128
68 62 62
41 28 27
48 44 43
52 41 39
52 48 47
47 43 42
52 42 41
44 39 38
50 36 35
44 31 31
51 32 32
37 31 30
46 40 39
45 38 37
29 25 25
46 38 37
30 24 22
37 30 28
38 36 34
36 26 26
26 19 19
37 26 26
40 29 29
40 31 30
40 29 29
38 28 28
41 34 34
32 29 26
37 34 33
31 21 19
26 23 21
45 35 34
32 22 22
36 32 30
31 26 25
33 24 22
37 23 22
33 32 30
32 21 19
41 36 34
25 24 23
37 31 29
35 27 27
29 27 26
26 26 24
20 16 13
21 23 20
34 24 21
17 16 15
38 27 24
25 23 21
39 25 23
30 21 20
20 17 15
26 22 20
25 16 14
35 29 25
29 21 19
34 23 22
26 16 16
30 23 23
24 20 19
23 36 21
39 58 39
32 59 35
37 58 36
38 65 40
35 62 38
36 68 39
37 64 40
45 72 48
104 115 102
104 112 101
109 115 105
98 114 98
107 119 107
101 114 101
97 110 96
101 113 101
98 109 97
93 110 93
95 110 95
62 99 64
47 96 52
45 92 50
50 101 55
46 93 50
48 97 53
48 96 53
49 99 54
49 98 54
47 94 52
49 100 54
46 94 51
47 94 51
47 97 53
45 93 50
51 102 56
47 95 52
41 83 45
43 87 47
42 83 45
39 84 44
41 84 46
39 79 43
39 79 42
38 78 42
40 82 45
37 78 42
38 80 43
37 77 42
37 77 41
37 76 41
36 73 40
36 73 40
39 76 42
37 74 41
38 75 41
38 74 41
35 69 38
37 70 39
36 67 37
38 71 40
36 68 38
35 67 38
38 70 39
30 56 32
0 0 0
0 0 0
0 0 0
0 0 0
0 0 0
0 0 0
0 0 0
0 0 0
0 0 0
0 0 0
0 0 0
34 9 9
85 23 22
92 26 24
90 25 24
96 26 26
92 25 24
92 25 24
97 27 26
91 25 24
101 27 27
99 27 26
106 27 27
99 26 26
95 27 26
101 26 26
103 27 27
108 29 28
109 28 28
114 31 30
102 27 26
107 28 28
101 26 25
104 28 27
109 28 28
110 29 28
107 28 27
101 25 25
103 27 26
94 25 24
88 23 22
89 22 22
77 18 17
70 15 15
51 12 11
62 14 13
60 12 12
48 8 7
65 9 9
46 8 8
49 9 9
54 10 10
45 7 7
46 8 7
52 9 9
54 30 28
53 35 33
60 40 37
56 36 35
57 36 34
58 44 42
59 46 46
61 41 37
60 42 39
67 53 51
57 46 44
66 51 49
58 36 34
61 34 32
57 43 41
80 57 55
58 39 37
73 49 44
56 43 40
66 49 47
66 47 41
61 37 33
67 50 47
66 44 42
58 25 22
63 33 32
60 26 26
57 22 22
66 27 27
66 37 37
109 100 100
112 107 105
105 96 95
117 109 108
119 110 109
121 112 111
117 109 108
121 114 114
118 113 112
114 110 109
114 110 110
120 113 113
108 104 103
122 113 112
122 117 116
119 109 108
126 118 117
122 117 117
116 111 110
121 116 115
115 109 108
115 112 110
129 121 121
122 118 117
125 121 120
127 121 120
129 124 124
124 120 118
128 122 121
116 114 113
124 118 118
125 124 123
126 121 119
129 125 124
126 121 120
126 124 122
126 122 121
137 132 132
128 122 122
131 126 124
126 124 122
131 128 127
125 122 120
135 129 129
67 59 58
46 36 35
52 37 36
52 40 39
50 43 41
41 32 32
54 41 40
40 33 33
47 42 41
43 33 32
53 43 42
40 35 34
46 33 32
37 28 26
51 35 35
41 29 28
44 37 37
42 36 35
26 15 13
40 30 30
49 42 41
43 34 33
21 17 17
35 28 27
36 33 30
35 29 28
44 30 30
38 31 28
40 35 33
36 26 26
23 19 17
36 28 28
29 23 23
43 28 28
38 35 35
37 31 28
40 29 29
47 43 41
32 27 25
23 19 16
39 34 33
33 33 32
31 28 27
28 29 27
29 19 18
33 27 26
30 30 28
36 27 27
32 18 18
29 24 23
29 25 25
23 18 18
38 34 32
19 15 15
20 18 17
24 15 11
26 16 16
36 27 24
23 19 16
34 25 24
22 18 17
38 32 29
25 39 26
37 58 39
33 62 36
38 62 40
32 56 34
44 67 47
39 66 42
45 74 48
40 72 42
99 111 97
97 110 97
102 114 101
104 116 103
102 112 100
102 111 100
104 118 105
98 107 94
99 111 99
101 113 101
104 113 102
99 112 98
64 99 67
47 95 53
47 94 51
48 97 53
50 99 54
48 96 52
48 96 53
48 97 53
48 96 53
45 91 50
45 91 50
50 102 56
47 93 51
48 96 53
46 92 51
46 92 51
42 85 46
42 87 47
41 84 46
43 87 48
38 80 43
41 83 45
40 82 45
38 81 43
39 79 43
38 78 43
39 79 43
38 79 42
39 77 42
37 75 41
39 77 42
37 73 40
36 70 39
37 74 41
37 73 40
41 77 43
38 74 41
35 67 38
37 70 39
34 67 37
38 71 39
36 67 37
38 68 39
32 60 33
0 0 0
0 0 0
0 0 0
0 0 0
0 0 0
0 0 0
0 0 0
0 0 0
0 0 0
0 0 0
0 0 0
41 11 10
90 24 23
86 23 22
94 25 25
91 25 24
95 25 25
98 27 26
101 27 26
95 26 25
92 25 24
103 28 27
98 26 26
96 26 25
108 29 29
103 28 27
99 26 25
109 29 29
109 29 29
106 28 27
110 29 29
113 29 28
106 28 27
106 28 27
108 28 28
105 28 27
110 28 27
101 26 26
105 27 27
101 26 25
79 18 18
78 19 18
77 19 18
70 14 14
70 16 15
62 13 13
59 11 10
52 10 9
50 7 7
53 11 11
51 10 10
48 10 10
51 11 10
49 12 10
50 17 17
52 36 32
53 33 30
57 37 35
62 41 38
61 48 45
59 42 42
50 39 34
54 35 32
63 40 37
64 36 36
60 42 40
63 43 43
59 42 38
55 40 38
68 47 45
61 40 38
64 43 40
61 38 37
66 48 45
56 45 42
64 41 40
54 44 40
66 47 46
60 31 29
59 20 17
53 16 16
56 22 21
57 21 21
62 22 22
72 32 31
110 101 100
114 106 105
120 111 111
117 109 108
120 112 111
110 105 104
111 103 103
118 113 112
115 105 105
115 110 109
116 111 111
118 112 112
119 112 111
114 111 110
115 113 113
117 114 113
116 109 109
127 122 121
125 117 116
119 113 112
118 113 112
123 120 119
124 120 119
133 128 127
125 119 118
123 120 118
133 129 129
126 120 119
121 116 115
130 124 122
122 118 118
124 117 116
123 121 120
128 122 120
123 119 118
133 129 129
122 115 113
128 124 123
135 131 129
134 130 128
130 128 127
133 129 128
122 121 119
128 125 124
69 56 56
49 40 39
43 28 27
66 51 50
45 39 39
40 34 32
44 36 35
52 44 44
36 29 29
48 37 36
46 37 37
45 37 37
43 33 32
41 32 31
36 28 27
42 29 28
44 33 31
40 36 36
27 24 23
36 31 30
38 33 31
39 34 33
30 25 25
46 33 32
28 22 21
26 18 18
39 33 32
38 27 26
37 27 25
49 43 42
37 32 30
37 27 26
37 25 25
31 21 21
30 28 27
32 23 21
44 38 37
36 25 25
31 29 27
34 22 21
29 25 24
31 29 28
36 25 23
22 21 21
40 31 29
29 22 20
28 25 22
28 21 20
24 22 20
27 17 16
27 20 19
24 22 18
28 18 18
26 19 18
28 22 19
43 30 29
33 25 24
29 26 25
27 25 23
21 14 12
22 16 13
24 23 20
27 32 17
30 54 33
34 64 37
32 56 34
32 58 35
34 60 36
40 67 43
41 67 43
44 71 46
94 105 94
106 116 105
104 109 101
99 113 98
100 112 100
106 114 104
95 110 95
98 112 97
98 109 98
98 110 97
106 118 106
97 109 95
101 115 101
65 96 67
48 96 52
49 98 53
46 93 50
47 96 52
47 98 53
48 96 53
46 94 51
47 96 52
46 95 52
48 98 54
48 97 54
46 93 51
46 94 51
43 87 47
43 88 47
42 86 47
45 92 50
41 85 45
42 86 46
40 83 45
39 80 43
41 83 45
39 80 44
39 80 43
36 76 41
37 77 42
38 77 42
37 75 41
37 75 41
38 77 42
36 74 40
36 72 40
36 70 39
38 74 40
40 73 41
37 72 40
37 71 40
37 70 40
38 72 40
33 64 35
35 66 37
30 60 33
0 0 0
0 0 0
0 0 0
0 0 0
0 0 0
0 0 0
0 0 0
0 0 0
0 0 0
0 0 0
0 0 0
44 12 12
91 25 24
90 25 24
88 24 23
89 24 24
93 25 24
98 27 26
92 25 24
99 27 26
101 28 27
93 26 25
94 25 24
95 25 25
101 27 26
98 27 26
103 28 27
100 26 25
102 27 26
108 29 29
109 29 29
108 28 28
109 28 28
102 27 27
104 28 27
100 26 25
108 29 28
106 27 27
99 26 25
105 26 25
95 24 24
89 21 21
83 20 19
74 17 17
71 15 15
68 16 16
52 10 10
44 8 7
49 9 8
53 12 11
41 7 7
59 13 13
57 14 13
46 25 24
55 40 38
54 33 32
64 45 43
62 46 44
54 28 25
55 40 38
65 51 49
61 42 38
64 38 38
58 39 37
64 39 39
64 42 41
68 46 45
65 39 36
68 48 46
69 40 40
69 44 42
55 30 27
58 31 30
61 42 41
71 48 45
68 38 37
72 40 39
50 23 21
54 22 22
55 21 20
62 24 24
59 23 23
61 24 24
69 27 27
78 48 47
105 95 95
123 114 114
119 113 112
110 103 103
117 109 109
119 114 112
116 107 107
116 113 112
115 109 108
111 104 103
122 115 114
113 108 107
128 120 120
119 112 111
122 117 116
118 114 113
116 114 113
115 107 107
117 112 110
118 113 112
128 122 121
130 124 124
127 122 122
126 122 121
120 113 113
127 122 121
128 122 121
126 121 121
123 118 117
126 121 121
128 121 120
113 106 106
121 115 114
132 123 122
132 128 127
126 121 120
138 133 132
132 127 126
130 126 125
132 126 125
130 125 125
130 128 127
133 128 127
130 125 124
69 62 61
50 38 37
46 36 35
48 37 37
59 43 41
56 41 41
45 35 35
41 30 28
44 34 32
56 46 45
44 33 33
40 31 31
39 32 32
40 24 24
38 29 28
42 35 34
46 34 33
42 29 28
42 31 31
34 28 27
45 37 36
36 27 27
46 41 40
39 25 25
38 30 29
39 34 30
44 37 34
37 30 28
35 20 19
41 32 31
40 29 28
38 26 24
40 27 26
37 28 28
43 38 36
38 38 34
25 21 19
33 28 27
34 33 32
36 29 26
35 18 18
33 24 22
32 24 23
30 28 27
35 18 15
36 30 28
25 25 22
28 21 21
35 30 29
26 25 24
41 33 32
28 21 21
29 26 26
22 19 15
28 25 21
28 20 18
27 26 24
20 14 11
28 24 21
31 27 25
32 31 30
22 17 15
28 37 25
36 59 38
37 60 39
36 60 37
32 57 34
32 64 36
37 64 39
37 64 39
40 71 43
94 109 93
102 116 102
108 115 105
111 117 107
103 114 102
106 113 104
101 116 99
98 113 99
104 116 103
100 114 100
103 116 103
105 113 102
102 115 100
103 118 104
69 100 71
47 97 52
45 94 50
49 99 54
49 99 54
48 94 53
49 99 54
49 97 53
47 95 52
47 94 52
47 96 52
46 96 52
44 88 49
43 89 48
42 86 47
42 86 47
41 82 45
40 84 45
40 84 45
37 76 41
39 83 44
39 82 43
41 84 46
40 81 44
38 81 43
37 76 42
38 78 43
36 74 40
36 73 39
36 73 40
37 73 41
35 70 39
36 71 39
38 73 40
38 73 41
39 71 40
36 70 38
38 68 38
36 69 38
34 65 37
38 70 39
32 59 33
0 0 0
0 0 0
0 0 0
0 0 0
0 0 0
0 0 0
0 0 0
0 0 0
0 0 0
0 0 0
0 0 0
43 11 11
82 22 22
89 24 24
91 25 24
88 23 23
89 24 24
96 26 26
93 25 24
96 27 26
100 26 26
97 26 25
97 26 25
102 27 26
101 26 26
94 26 25
96 25 25
101 27 26
101 26 26
104 28 27
102 28 27
96 25 25
98 26 26
102 27 26
101 27 26
113 29 29
99 26 26
101 26 25
107 27 27
92 22 22
92 23 23
95 23 23
76 20 19
66 15 14
63 13 13
65 13 12
52 9 8
49 9 8
47 9 8
47 8 8
48 9 9
62 13 13
57 40 39
61 42 41
57 38 35
64 42 41
52 38 34
59 46 44
63 41 41
61 41 41
67 44 43
63 33 32
53 27 26
58 33 31
56 36 35
56 34 32
60 42 38
68 39 38
62 29 29
65 39 38
61 30 29
59 31 30
62 35 32
56 32 32
57 30 29
62 27 25
55 31 31
48 22 21
59 26 26
56 21 20
56 18 18
52 26 26
59 20 19
63 26 25
67 33 33
110 101 100
111 104 103
111 105 104
113 108 107
117 109 109
119 115 114
122 113 112
122 112 112
117 112 111
125 119 118
122 117 116
124 119 118
124 118 116
114 106 105
112 106 105
121 114 113
115 107 106
116 110 109
126 120 119
116 110 109
121 115 113
123 118 118
121 113 113
121 118 117
131 127 126
117 114 113
119 116 115
126 120 119
124 121 120
125 120 120
133 129 129
125 119 118
126 121 121
121 115 115
130 125 124
136 131 130
128 125 124
117 114 113
131 128 127
132 127 126
130 127 125
129 124 124
127 123 122
128 124 123
59 51 51
43 36 35
57 47 46
51 41 39
46 38 37
39 27 26
46 35 35
41 35 33
43 39 38
47 37 36
45 29 28
41 35 33
42 38 37
37 27 24
43 37 35
40 36 35
47 37 36
43 30 29
32 23 23
39 31 30
47 41 41
38 32 30
43 35 34
34 26 25
30 28 26
30 20 20
40 27 26
30 18 17
42 32 30
38 34 33
33 29 28
38 30 29
44 35 35
28 27 24
26 25 24
24 20 19
28 26 25
31 24 23
40 27 27
34 29 26
40 31 31
40 26 26
27 21 19
24 20 19
41 35 34
31 24 23
34 31 29
32 30 28
30 31 27
25 23 22
20 19 17
24 21 19
23 24 20
28 17 16
27 22 20
29 26 25
35 26 24
29 19 17
28 20 17
24 20 18
16 20 15
37 34 31
29 45 31
38 57 39
31 55 34
31 57 33
36 62 38
34 63 36
37 62 39
37 65 40
45 70 46
94 102 90
105 117 104
107 118 107
103 114 101
105 115 104
103 113 101
105 118 105
105 118 105
99 112 99
102 112 100
105 117 105
96 108 95
104 114 102
101 115 102
106 118 104
68 100 71
48 96 53
46 93 51
47 93 52
47 95 51
49 98 54
48 97 53
48 96 54
47 95 52
47 95 52
48 99 54
46 92 50
44 91 50
43 88 47
43 88 48
43 90 48
40 85 45
42 86 47
40 82 44
41 85 46
38 80 43
38 77 42
37 76 41
36 74 40
38 77 42
35 74 40
37 75 41
36 74 40
38 75 40
37 74 41
37 74 41
34 68 37
37 72 40
35 68 38
37 71 39
35 70 38
35 69 38
34 67 37
33 64 36
34 67 37
30 58 32
0 0 0
0 0 0
0 0 0
0 0 0
0 0 0
0 0 0
0 0 0
0 0 0
0 0 0
0 0 0
0 0 0
35 10 9
92 25 24
91 25 24
89 23 23
91 26 24
94 25 24
97 27 26
96 26 25
90 24 24
95 25 25
101 27 27
100 27 26
102 28 27
104 29 28
100 26 25
102 27 26
97 26 25
105 29 28
107 29 28
113 29 29
115 31 30
97 26 25
109 30 29
101 26 25
104 27 27
110 28 28
97 25 25
105 27 27
96 24 24
92 23 22
84 20 19
66 15 15
76 18 17
58 11 11
57 11 11
55 8 8
55 10 10
52 9 9
47 9 8
51 9 8
55 24 23
59 45 45
51 30 29
56 36 35
49 37 35
53 35 32
60 38 37
59 33 31
61 29 29
71 50 48
65 37 34
52 25 22
55 32 30
66 40 39
57 25 24
57 42 41
55 30 28
58 27 26
55 33 29
56 30 28
59 32 32
65 41 40
61 27 27
66 33 32
57 24 24
53 23 22
59 30 28
61 27 26
51 20 19
57 20 20
62 18 18
63 25 24
70 28 27
75 44 44
117 107 106
116 106 105
122 115 114
118 114 112
116 103 102
116 104 104
118 114 113
121 115 114
114 108 107
119 109 109
121 114 114
121 115 115
114 106 105
121 115 114
121 118 118
126 121 120
116 111 110
121 115 115
127 120 120
118 114 113
120 115 113
117 114 114
120 112 111
119 114 113
120 114 113
123 119 118
123 117 116
125 121 119
117 113 112
127 122 120
135 129 129
127 123 123
120 115 114
132 126 125
123 116 116
129 124 124
125 121 120
135 131 130
131 126 125
129 122 121
130 126 125
122 119 117
135 133 132
131 128 127
69 58 57
51 39 38
46 33 33
47 38 36
53 39 38
46 40 38
55 47 47
46 38 37
47 37 36
42 34 34
50 47 45
55 50 48
42 39 38
53 43 42
44 29 29
54 43 42
41 40 38
43 34 33
35 26 25
48 36 35
37 28 27
38 21 21
44 32 32
31 21 19
45 35 35
47 33 32
22 17 17
32 31 31
43 39 38
36 29 29
41 34 32
36 34 31
34 35 34
42 31 31
28 17 16
23 23 21
40 36 34
40 37 35
45 31 28
27 10 9
32 30 30
39 27 27
27 22 20
31 29 28
32 26 22
32 30 29
27 16 16
44 35 35
21 13 12
34 30 28
30 31 29
31 20 19
32 31 29
33 25 23
27 24 19
26 25 22
25 25 21
31 25 25
21 19 16
31 24 20
18 17 15
35 31 29
30 37 27
33 53 33
33 57 35
33 63 36
32 53 34
38 60 40
37 65 40
38 64 40
37 68 40
100 113 99
104 116 104
103 115 103
107 118 107
106 114 104
103 112 100
98 108 97
97 112 98
106 115 104
99 113 98
105 119 105
104 115 103
103 116 104
99 109 95
98 111 98
92 111 93
61 98 64
49 100 54
47 95 52
50 98 55
48 97 53
49 98 54
47 98 53
48 98 53
48 99 54
45 92 50
45 94 51
44 93 50
41 85 46
43 89 48
42 88 47
39 82 43
39 80 42
38 77 42
37 77 42
39 81 44
38 77 41
36 73 40
37 77 41
39 78 42
35 75 40
38 79 42
37 73 40
37 74 41
36 71 39
37 75 40
37 73 40
35 71 39
38 71 40
36 71 39
35 68 38
36 66 37
35 66 36
35 68 38
37 66 37
29 52 29
0 0 0
0 0 0
0 0 0
0 0 0
0 0 0
0 0 0
0 0 0
0 0 0
0 0 0
0 0 0
0 0 0
40 11 10
86 23 22
84 22 22
91 25 24
90 23 23
93 25 24
91 25 24
99 26 26
90 24 24
92 25 24
100 27 26
97 25 25
92 24 24
104 28 27
105 28 28
110 29 28
104 27 27
99 26 25
101 27 26
108 29 28
110 29 28
105 27 27
113 30 29
102 27 26
101 26 26
103 26 26
98 25 24
100 26 25
99 25 25
95 24 23
79 19 19
75 18 18
65 15 14
70 16 16
56 11 10
52 9 9
52 9 9
48 8 8
41 7 7
48 16 16
58 42 40
56 38 36
55 37 34
61 44 44
57 41 38
59 31 30
55 32 30
59 33 32
63 40 40
64 35 33
55 35 32
56 29 29
56 32 27
63 26 25
71 41 40
56 30 28
60 30 29
53 29 29
63 26 26
71 33 33
59 26 26
55 22 22
63 28 28
54 22 21
64 31 30
56 21 21
60 34 34
59 33 32
60 22 22
55 21 20
45 17 15
55 28 28
66 31 30
68 28 28
113 103 102
114 104 104
117 110 109
112 106 106
120 113 112
118 108 108
124 118 118
124 113 112
117 111 110
108 103 103
124 119 118
116 112 111
122 115 115
120 112 111
127 118 118
117 111 111
122 117 116
125 119 118
118 113 112
123 118 117
128 124 123
124 120 119
135 131 130
123 119 119
115 107 106
121 113 112
128 124 123
124 118 116
125 120 119
124 113 113
132 127 126
129 125 124
132 129 128
126 123 121
125 118 117
127 126 124
126 122 122
129 124 124
138 134 134
127 118 117
135 132 131
128 124 123
126 122 121
130 128 126
63 54 52
57 48 48
57 44 44
46 31 31
54 45 45
49 40 39
52 48 48
51 41 40
42 37 37
44 40 39
43 37 36
47 34 31
58 49 48
43 34 34
34 32 30
47 43 42
34 30 29
50 34 32
38 37 36
51 40 40
36 26 26
40 31 30
43 28 27
36 33 32
49 40 40
34 26 25
40 33 32
35 24 24
46 40 39
36 32 31
42 35 34
30 25 23
41 28 28
25 17 16
36 30 29
36 21 21
34 32 30
38 29 29
33 30 28
23 23 21
32 22 21
32 31 31
31 26 25
39 38 37
32 29 28
34 31 28
30 26 26
25 25 22
35 27 26
29 30 26
27 24 23
27 26 23
24 24 20
28 25 24
21 12 12
23 22 20
28 23 21
32 31 29
35 29 26
38 32 31
30 23 20
25 17 16
31 39 29
29 52 31
35 62 37
32 56 34
41 67 43
36 61 38
40 67 43
38 72 41
45 73 47
92 104 92
107 117 106
108 120 109
107 116 106
107 118 107
108 117 105
108 122 108
106 114 104
106 119 106
106 117 105
104 114 103
107 118 105
100 113 100
101 113 100
101 112 99
103 116 103
97 112 98
63 99 65
47 95 52
49 100 55
46 93 51
47 97 53
49 98 54
48 98 53
46 95 52
45 94 51
47 98 52
44 90 49
43 90 49
41 84 46
40 82 44
40 84 45
40 84 45
40 84 45
40 82 45
38 80 42
39 80 43
36 76 41
37 79 42
37 75 41
35 73 40
35 72 39
38 75 42
37 74 40
36 74 40
37 75 41
37 73 41
38 75 41
37 74 40
36 70 39
35 70 39
36 69 39
35 67 37
34 67 37
34 68 38
31 60 33
0 0 0
0 0 0
0 0 0
0 0 0
0 0 0
0 0 0
0 0 0
0 0 0
0 0 0
0 0 0
0 0 0
42 11 11
82 22 22
91 24 24
88 24 24
92 25 25
92 25 25
94 25 24
88 25 23
93 24 23
95 26 25
91 25 24
100 26 26
102 26 25
99 27 26
101 27 26
110 30 29
104 28 27
106 27 27
106 28 28
107 28 28
108 28 28
110 29 28
108 28 28
106 28 27
107 28 28
108 28 27
103 27 26
103 27 26
94 24 23
89 22 21
81 19 18
82 19 19
63 13 13
60 13 12
54 11 10
50 9 9
56 12 11
49 7 7
44 12 12
68 45 45
46 30 28
63 40 38
53 34 31
60 34 33
58 39 37
63 40 38
54 37 35
51 22 19
55 37 36
61 33 30
52 30 28
57 21 20
66 34 33
64 38 38
60 32 32
61 36 35
63 32 31
63 25 23
64 30 29
64 29 28
59 31 29
51 26 24
62 28 27
65 37 36
60 34 32
62 26 26
57 25 23
52 17 16
62 32 32
59 20 19
56 15 14
62 19 18
66 33 32
68 31 31
108 101 99
119 112 112
115 104 103
120 114 113
120 112 112
113 109 108
118 112 111
116 104 104
110 104 104
115 109 109
116 107 105
114 108 107
113 109 109
123 119 118
110 104 103
118 113 112
123 118 117
113 105 105
121 117 116
125 120 119
116 114 113
119 115 114
127 124 124
131 123 122
125 118 118
126 121 120
121 117 116
117 115 113
122 117 116
125 123 122
130 123 122
140 134 133
123 119 118
125 121 119
131 128 127
125 120 118
121 118 116
131 125 124
128 124 123
131 128 126
128 124 122
135 131 128
128 124 122
125 122 120
66 57 57
45 35 34
39 31 30
45 38 38
42 37 37
47 40 40
42 40 38
45 42 41
48 41 39
54 50 49
44 37 37
52 41 40
45 42 41
50 36 36
46 41 40
43 34 32
41 33 32
43 39 38
52 41 41
41 39 38
43 38 35
35 34 32
32 27 26
48 37 37
40 36 34
45 30 30
38 27 26
38 31 30
41 30 29
37 24 24
35 29 28
46 38 37
40 36 35
39 32 31
30 29 26
33 18 18
30 22 19
35 23 22
34 23 22
40 34 33
28 22 22
32 24 22
26 21 20
36 30 29
35 29 26
30 24 22
34 21 19
35 28 27
45 40 37
34 29 28
20 25 21
30 24 24
29 19 19
25 25 23
29 24 21
29 24 21
33 28 25
38 24 24
35 29 26
25 25 21
27 26 24
27 26 25
26 41 25
32 54 34
32 59 35
35 61 36
36 60 36
41 67 42
38 62 40
36 65 39
41 69 44
105 117 105
111 119 110
105 117 106
109 122 109
113 121 111
100 112 100
104 116 103
114 126 114
103 115 101
110 120 108
109 118 105
100 113 101
108 119 107
100 115 99
101 113 99
105 117 105
100 109 99
96 110 95
55 96 58
46 94 51
48 97 53
48 98 53
46 93 51
47 95 52
48 97 53
47 95 53
45 91 50
45 92 50
43 88 48
46 93 51
42 87 47
38 80 43
40 82 44
40 82 44
38 79 43
38 77 42
37 78 42
39 81 43
37 78 42
35 74 40
39 78 43
37 75 41
37 76 41
39 78 43
35 72 39
37 73 41
35 70 38
35 68 38
37 73 40
38 70 39
37 71 39
37 70 39
36 67 38
37 70 39
37 66 37
33 61 34
0 0 0
0 0 0
0 0 0
0 0 0
0 0 0
0 0 0
0 0 0
0 0 0
0 0 0
0 0 0
0 0 0
33 8 7
87 24 23
93 26 25
90 24 24
90 25 24
89 24 23
93 24 24
102 27 27
90 24 23
96 26 26
97 26 26
99 26 26
97 26 26
101 27 27
107 30 29
105 28 27
98 27 26
107 28 28
109 29 28
103 27 26
106 28 28
109 28 28
106 28 27
105 28 27
101 26 26
97 25 25
95 25 24
100 26 25
98 24 23
87 22 21
89 22 22
73 16 16
66 15 15
58 12 11
54 8 8
54 8 8
50 9 9
54 27 27
53 30 30
58 39 37
53 38 36
51 26 26
51 26 26
58 30 29
64 34 32
63 38 37
58 31 29
57 31 27
53 24 23
60 29 26
68 33 32
61 29 28
64 36 35
67 29 27
65 26 25
58 36 35
67 25 25
63 32 30
58 26 24
63 26 24
67 22 22
59 27 25
64 35 33
59 31 31
63 33 31
65 29 29
66 30 30
69 32 32
60 21 20
66 28 27
66 20 20
67 27 27
62 23 23
78 46 46
115 106 105
112 104 104
121 114 114
113 106 105
114 108 107
112 107 105
117 108 108
114 106 105
118 111 110
121 114 114
123 115 113
121 114 113
114 108 107
117 110 109
120 113 112
123 120 120
122 118 116
123 118 118
118 113 112
129 123 122
121 117 116
118 113 112
117 111 109
121 116 115
123 117 116
121 115 115
126 122 121
122 117 117
122 116 116
125 119 118
120 117 115
131 124 124
128 123 121
127 125 123
133 128 127
128 124 123
120 118 116
131 129 128
127 123 122
128 125 125
127 121 120
129 125 124
131 129 127
131 126 125
65 54 52
54 44 44
48 36 35
51 40 39
50 42 41
57 45 44
51 42 41
54 44 43
44 36 36
45 37 36
48 38 38
51 40 39
43 29 29
45 33 32
43 34 33
33 28 26
36 31 31
41 31 30
49 35 34
36 35 32
52 37 37
40 31 31
40 31 30
38 29 27
33 19 19
47 30 30
33 26 26
35 23 23
41 35 33
32 26 23
32 30 28
42 28 27
30 25 24
40 26 26
37 27 27
20 18 16
42 29 28
37 28 27
36 31 31
33 24 24
36 30 28
34 22 20
34 29 26
41 34 32
28 26 22
28 26 25
31 26 24
43 35 35
41 30 28
27 27 23
19 22 18
28 19 16
31 22 22
27 29 26
25 22 21
39 28 26
22 19 17
36 31 28
34 33 30
21 19 16
22 23 19
27 22 22
27 32 24
31 49 31
35 61 38
30 58 33
35 61 38
40 61 42
39 66 42
37 66 40
37 64 40
100 114 100
114 121 113
102 114 101
105 118 105
108 119 107
103 116 102
104 117 104
112 120 111
113 125 112
100 112 100
109 118 107
102 117 101
95 113 95
100 116 100
103 113 102
102 118 103
103 117 104
102 117 102
101 115 100
62 101 65
47 95 52
48 98 53
47 96 52
46 94 52
44 92 49
44 90 49
46 96 52
44 90 49
44 89 49
42 88 47
43 87 48
41 85 46
40 84 45
40 84 45
41 84 46
36 76 40
40 83 45
37 77 41
37 78 42
37 77 41
37 76 41
37 76 41
35 74 40
37 74 40
38 73 40
36 71 39
34 68 37
39 77 42
37 72 40
39 72 40
37 69 38
36 70 39
36 69 39
35 69 38
36 66 37
34 62 35
0 0 0
0 0 0
0 0 0
0 0 0
0 0 0
0 0 0
0 0 0
0 0 0
0 0 0
0 0 0
0 0 0
30 7 7
92 24 24
86 24 23
92 25 24
96 26 25
96 26 25
97 26 25
99 26 26
98 26 25
98 26 25
95 25 25
99 26 25
101 27 27
101 27 27
105 27 27
101 27 26
103 28 27
109 28 28
106 28 28
107 27 27
101 27 26
109 28 28
107 27 27
106 28 27
104 27 27
104 28 27
104 26 26
100 26 25
89 22 22
90 23 22
91 22 21
73 18 18
67 14 14
60 12 11
51 10 9
55 8 8
45 23 21
60 40 40
51 28 26
53 19 19
50 29 28
54 32 30
63 38 38
63 38 36
61 27 25
57 27 24
57 34 31
59 27 26
63 32 32
61 36 35
72 30 30
66 31 31
66 37 36
70 33 32
60 29 29
72 33 33
65 32 32
62 33 33
60 20 20
61 35 32
65 27 27
61 21 21
65 22 21
66 33 33
60 31 30
63 27 26
59 25 25
55 21 19
66 18 16
64 31 30
65 30 30
72 23 23
60 20 19
72 44 43
104 93 92
119 112 112
109 103 103
120 114 114
112 104 103
112 104 103
111 105 104
112 105 105
117 110 109
118 116 114
121 107 106
116 109 109
118 113 113
124 116 116
121 116 115
112 109 107
122 119 118
129 125 125
122 115 115
113 110 109
119 115 114
125 120 120
117 111 111
122 114 114
117 114 113
115 112 111
125 121 121
115 110 109
125 121 121
126 122 122
128 127 126
120 116 116
125 121 121
131 128 127
127 124 124
125 120 118
126 121 120
134 132 131
125 121 120
126 122 121
126 123 122
129 122 121
133 129 128
127 125 124
53 46 44
54 40 39
55 50 50
40 31 31
43 35 33
55 44 43
47 42 41
41 36 35
55 37 37
42 36 35
50 43 42
44 32 30
43 34 32
49 38 37
44 31 30
39 33 32
39 33 32
45 39 39
45 28 28
43 32 31
35 29 28
42 36 34
34 23 23
30 26 25
44 36 34
40 25 24
40 35 33
39 30 28
34 27 25
45 35 34
39 30 29
34 31 29
31 25 24
35 31 29
42 35 34
37 36 33
28 24 23
28 26 25
40 34 33
29 24 22
35 25 23
33 25 25
25 16 15
36 28 25
31 32 30
33 29 28
30 27 25
33 31 31
31 23 22
38 21 16
35 28 27
31 27 24
26 22 21
34 33 31
29 26 23
28 26 25
36 25 22
31 26 25
26 25 22
29 23 22
24 22 20
25 22 17
29 37 25
32 53 34
32 58 34
35 56 36
36 60 38
41 61 41
34 64 37
49 74 52
40 69 42
91 102 91
109 120 108
109 121 108
107 117 107
101 113 100
108 119 107
107 120 108
112 123 110
106 118 104
119 127 118
102 114 103
102 115 100
106 119 105
101 117 102
105 115 103
100 112 99
103 114 101
105 116 103
102 113 102
96 107 95
65 104 69
46 94 51
48 99 53
47 97 53
44 91 48
46 95 52
45 93 51
43 88 48
40 85 45
40 84 44
40 84 45
40 82 45
40 83 44
38 79 42
37 78 41
37 78 42
38 80 43
37 76 41
37 76 42
37 75 41
38 77 42
38 75 41
36 73 40
37 74 41
37 76 41
35 70 38
36 72 39
37 69 39
35 69 38
35 68 38
36 69 39
36 69 39
38 68 38
37 66 37
36 67 37
30 57 31
0 0 0
0 0 0
0 0 0
0 0 0
0 0 0
0 0 0
0 0 0
0 0 0
0 0 0
0 0 0
0 0 0
51 13 13
89 24 23
95 26 25
84 24 22
94 25 24
91 24 24
97 27 26
90 25 24
96 25 24
96 26 25
100 28 27
108 29 28
101 27 26
101 27 26
96 25 25
103 27 26
105 28 27
106 28 27
102 27 26
109 28 28
106 28 28
106 27 27
109 27 27
103 27 26
100 27 26
100 27 26
101 26 25
98 24 24
93 23 23
90 23 22
83 20 20
84 19 19
71 15 15
58 13 12
56 11 11
53 36 35
58 34 34
59 30 27
54 39 37
61 38 38
63 42 42
60 26 25
60 29 28
63 33 33
60 35 35
55 22 22
57 33 31
64 37 35
61 37 37
61 25 23
54 27 25
70 29 29
61 24 23
71 25 25
60 27 23
67 30 28
57 31 29
61 29 29
59 19 19
59 24 21
66 28 25
67 40 38
66 29 27
71 38 37
66 26 26
68 31 30
65 35 32
64 21 20
57 24 24
63 24 24
62 21 20
60 27 26
63 22 22
69 38 37
105 93 92
111 102 102
114 108 107
116 111 109
110 105 104
111 104 103
116 108 108
105 99 99
115 109 109
127 121 121
115 109 107
122 113 112
121 115 115
114 112 111
116 107 106
113 107 107
118 114 113
122 116 115
122 117 116
129 124 123
124 122 121
127 122 121
128 123 122
122 115 114
133 129 129
120 117 116
133 129 128
127 121 121
117 114 113
125 119 118
125 121 120
124 119 118
125 121 119
122 116 116
122 119 118
123 120 119
128 123 123
130 131 129
125 121 120
126 124 122
118 117 114
129 125 123
131 129 127
122 117 115
61 53 52
47 45 43
54 47 45
54 45 45
42 34 34
45 34 34
56 46 44
50 37 37
40 35 35
53 38 37
43 36 35
51 35 33
53 38 38
38 30 29
34 28 27
47 35 35
47 40 39
36 32 31
48 41 40
35 31 31
43 30 30
42 33 32
32 29 28
32 25 25
42 35 35
41 34 33
36 34 32
45 27 25
37 26 25
29 21 19
41 34 33
34 25 25
52 37 35
38 32 32
32 27 25
39 34 32
35 25 24
30 24 22
29 13 11
27 18 17
34 29 28
31 23 22
31 26 25
35 22 22
38 25 25
35 27 24
31 27 24
25 13 13
27 18 14
32 30 28
39 27 25
28 27 25
31 26 24
42 40 37
30 25 25
25 26 22
39 35 29
36 29 27
23 25 21
36 29 27
27 23 22
24 20 16
36 49 32
38 56 38
25 44 27
32 56 34
38 61 39
39 66 41
38 65 40
39 68 41
37 62 39
106 117 104
119 125 115
106 117 105
109 121 109
109 121 109
108 118 107
108 124 108
107 120 107
109 124 110
107 120 107
110 120 107
104 119 105
101 112 102
99 111 99
105 116 104
103 115 101
103 114 102
102 116 102
98 111 98
98 111 97
97 109 96
64 101 68
50 101 55
46 94 51
47 97 53
43 88 48
43 88 48
44 92 50
43 89 48
40 83 44
40 84 45
39 83 44
41 86 46
37 78 42
35 74 40
37 76 41
39 81 43
37 77 41
37 74 40
36 75 40
38 79 43
35 73 39
37 75 41
37 75 41
36 73 40
36 71 39
37 72 40
36 73 39
33 67 37
36 68 37
37 70 39
35 67 38
38 72 39
36 69 38
33 65 36
32 60 33
0 0 0
0 0 0
0 0 0
0 0 0
0 0 0
0 0 0
0 0 0
0 0 0
0 0 0
0 0 0
0 0 0
37 10 10
87 24 23
90 24 23
94 25 24
91 24 24
86 24 23
98 26 25
98 26 25
102 28 27
99 27 26
91 26 24
93 24 24
99 26 26
101 26 26
102 27 26
104 27 26
107 27 27
103 28 27
105 28 27
103 27 27
103 27 27
104 27 27
105 27 26
111 30 29
98 25 24
111 27 27
101 25 24
95 24 23
87 22 21
92 22 22
79 19 18
82 21 20
75 16 15
62 14 14
56 38 35
58 39 36
60 34 32
60 40 39
58 34 32
65 42 40
62 32 31
58 33 31
55 19 18
50 21 21
60 34 34
62 33 32
60 26 26
67 33 32
62 39 36
72 36 33
61 23 23
63 31 30
69 23 22
59 31 31
72 32 30
61 23 22
65 27 26
66 24 24
69 21 20
64 26 25
66 39 38
53 24 23
64 25 23
72 28 26
60 26 23
65 39 37
56 20 19
67 23 22
78 33 31
61 25 25
69 29 29
64 25 24
63 31 30
70 36 36
109 101 100
110 102 102
113 106 106
109 102 101
116 110 109
113 106 105
121 115 114
125 116 115
116 109 109
119 113 112
121 116 115
113 108 108
120 116 116
116 111 110
116 112 112
119 117 116
120 115 114
121 118 116
123 119 118
125 119 119
115 110 109
122 117 117
127 121 120
120 113 112
122 117 116
129 121 121
125 119 118
123 118 117
120 114 114
122 121 119
126 122 120
122 117 116
125 121 120
126 124 122
136 131 131
133 130 129
126 124 123
134 130 129
116 111 109
122 115 114
129 125 124
120 113 112
130 125 124
126 125 123
69 63 61
56 45 44
55 45 45
52 47 45
49 46 45
48 39 38
33 27 26
46 37 36
50 36 36
48 35 33
51 44 42
41 36 35
42 32 31
40 29 29
46 38 38
42 36 35
42 34 33
40 30 30
47 40 39
40 36 34
38 32 30
50 36 35
39 27 27
45 34 33
44 31 31
37 32 31
36 29 27
37 32 32
30 24 24
45 32 32
39 32 31
39 35 33
36 27 27
33 24 21
37 27 27
32 26 23
35 33 30
31 25 22
41 31 28
28 16 14
46 34 33
30 22 19
27 23 22
34 26 25
42 37 35
36 30 30
31 22 22
31 25 21
36 26 26
26 19 18
27 27 25
35 29 26
38 32 30
32 30 26
35 26 25
23 24 19
29 26 23
28 20 20
29 23 19
29 26 24
30 25 24
24 23 20
27 31 20
30 49 30
33 59 36
37 58 38
32 57 34
39 65 42
38 67 40
38 63 40
45 70 47
105 116 105
110 118 109
106 118 106
111 120 110
106 119 105
106 114 106
105 116 105
110 119 108
111 117 108
112 123 112
106 114 105
97 114 98
104 113 103
102 112 101
103 114 102
103 115 102
104 115 104
103 116 103
106 115 105
99 115 99
93 108 94
103 113 102
60 98 63
46 94 51
46 96 52
47 96 52
46 96 52
45 92 49
40 83 45
39 82 44
37 77 41
36 76 41
40 83 45
43 88 48
38 80 43
36 76 40
38 79 42
38 77 42
38 76 42
36 75 40
35 73 39
37 76 41
35 72 39
37 74 40
36 75 40
34 68 37
37 70 39
36 71 39
35 69 38
35 69 38
35 68 38
40 73 41
35 67 37
36 68 38
36 69 39
31 61 33
0 0 0
0 0 0
0 0 0
0 0 0
0 0 0
0 0 0
0 0 0
0 0 0
0 0 0
0 0 0
0 0 0
41 11 11
87 23 23
93 24 24
90 24 24
92 24 23
87 24 23
96 26 25
95 25 25
96 26 25
90 24 23
108 29 29
100 26 25
95 26 25
103 28 27
106 28 27
103 27 27
106 28 27
99 26 25
109 29 28
106 27 27
100 27 26
110 29 29
105 28 27
105 27 27
105 27 26
105 27 27
106 27 27
95 24 24
93 24 23
80 20 19
71 16 16
76 16 16
64 15 15
66 42 41
67 46 44
56 40 39
61 34 31
62 38 35
65 45 45
73 40 39
65 35 33
66 43 41
75 49 48
69 38 37
65 35 35
63 35 34
64 30 29
60 33 30
64 38 37
69 38 35
72 42 42
62 28 27
72 40 38
60 30 29
66 26 23
67 31 29
68 33 33
67 32 32
72 41 40
70 34 33
67 35 34
67 27 27
64 29 28
69 36 35
71 32 30
62 30 29
70 32 30
68 27 27
62 29 27
57 24 23
72 32 31
65 26 25
63 22 21
64 25 24
109 100 100
113 104 103
118 112 112
115 109 108
112 107 107
119 113 113
119 112 112
114 109 109
111 106 106
119 112 111
115 108 108
112 106 105
121 116 116
123 115 115
115 109 109
118 115 113
117 109 109
118 112 112
118 112 112
125 122 122
119 113 112
127 119 119
118 113 112
126 121 120
118 110 110
117 111 111
125 119 118
127 124 123
119 115 114
123 118 117
124 121 120
124 121 119
120 118 117
122 117 115
127 123 121
130 126 125
135 129 128
124 120 118
128 120 119
127 123 121
127 123 121
135 131 130
131 128 127
131 127 124
60 55 54
42 32 32
46 39 36
41 36 35
56 47 45
48 43 42
40 36 34
47 40 38
45 36 36
52 44 43
48 42 40
43 39 38
47 39 38
39 34 32
49 39 38
31 21 21
44 33 33
41 28 27
39 29 28
36 27 27
39 29 29
28 23 22
44 34 33
33 29 27
43 42 39
33 28 26
40 34 33
42 37 36
39 30 29
35 30 27
31 25 24
32 23 22
36 31 30
25 17 16
44 39 38
37 29 26
32 25 24
30 24 24
31 27 27
27 22 22
31 19 18
33 26 23
38 28 27
41 33 31
29 25 24
31 28 26
41 42 39
31 24 23
29 24 21
37 27 25
31 30 29
28 20 19
28 27 24
24 19 16
30 28 25
32 29 26
29 30 29
30 21 18
26 22 20
29 30 26
28 19 18
27 26 24
26 36 24
34 55 35
37 60 40
35 54 35
38 65 40
37 62 39
37 60 38
40 64 40
37 66 40
109 119 109
114 125 114
116 122 114
111 123 111
110 119 109
107 118 106
106 121 107
105 117 104
107 118 107
101 116 102
101 114 102
105 116 104
103 116 102
107 120 108
107 118 107
105 118 105
105 117 103
107 121 107
95 108 95
98 112 98
97 111 98
97 112 98
103 115 102
63 103 67
45 91 50
46 94 51
43 89 48
45 92 50
41 85 46
41 85 46
38 80 43
38 79 43
40 84 45
39 82 44
38 78 42
37 77 41
40 83 44
38 78 42
38 79 43
37 78 41
38 77 42
37 77 41
37 76 41
35 70 38
36 73 39
35 71 39
36 71 39
37 73 40
36 70 39
36 70 39
36 68 38
37 70 38
35 67 37
34 64 36
33 64 36
28 53 30
0 0 0
0 0 0
0 0 0
0 0 0
0 0 0
0 0 0
0 0 0
0 0 0
0 0 0
0 0 0
0 0 0
32 9 9
95 26 25
85 23 23
94 26 25
91 25 24
91 25 24
92 25 24
94 25 25
98 26 26
98 26 25
101 26 26
98 26 25
105 28 27
105 28 27
102 27 26
97 26 26
102 27 27
104 27 26
100 27 26
102 26 25
105 28 27
106 28 28
104 28 27
111 29 29
101 26 26
99 26 25
99 25 24
97 25 24
89 21 21
90 23 22
86 22 21
78 18 18
64 31 27
72 52 51
73 59 57
70 52 51
63 46 44
71 57 54
71 49 47
68 44 41
81 55 54
73 39 39
77 46 45
79 48 46
80 53 51
75 48 46
65 38 36
81 55 52
81 57 55
72 31 31
75 47 46
58 38 37
81 51 51
71 38 36
74 43 42
64 27 27
71 44 42
68 33 32
67 32 32
68 36 33
71 42 39
72 35 34
69 29 29
71 33 32
67 30 30
67 36 36
66 38 36
66 31 31
58 24 24
63 22 20
74 24 24
58 23 22
72 35 35
72 27 26
111 102 101
110 99 98
114 106 105
117 110 110
115 109 107
104 98 97
115 114 112
112 105 105
116 111 110
117 108 108
111 106 105
113 109 108
114 109 108
124 118 118
122 115 114
130 121 120
116 111 110
112 110 109
116 113 111
119 114 112
119 114 113
120 113 111
121 115 114
122 116 115
115 111 109
115 110 109
130 122 122
127 121 120
134 130 129
128 123 122
126 121 120
126 125 123
131 125 123
126 120 119
126 122 121
134 128 127
123 120 118
129 122 121
126 120 119
133 130 128
126 123 121
127 124 121
128 123 121
136 132 131
77 70 69
55 41 41
40 29 29
50 41 41
40 35 34
46 32 31
51 47 47
41 35 35
41 31 30
44 33 32
45 35 35
44 34 32
42 27 26
44 39 39
42 33 33
46 31 31
41 34 33
43 38 36
41 31 28
43 36 34
36 29 27
54 40 39
36 31 31
41 34 32
45 35 35
37 35 32
46 34 34
46 43 42
29 25 24
33 29 28
34 31 30
45 35 32
31 30 29
40 34 32
37 29 28
37 35 32
35 27 25
31 22 22
34 28 28
33 32 28
35 29 26
39 33 33
34 27 24
41 30 30
34 31 29
29 24 22
34 27 27
29 22 19
33 23 20
40 36 34
33 27 23
30 25 23
25 23 20
31 24 20
25 23 20
31 20 17
26 25 22
28 22 21
19 22 19
21 17 16
33 25 23
21 16 15
24 36 25
36 56 36
37 59 37
30 56 33
31 57 34
38 61 40
34 64 37
31 60 34
37 66 40
97 106 95
112 122 110
112 121 111
109 121 109
109 120 109
108 119 108
100 110 98
104 118 105
104 118 105
105 118 105
108 119 108
106 120 106
103 113 103
101 117 101
105 115 104
105 114 104
97 111 98
106 120 107
101 112 101
97 113 98
98 112 98
99 114 100
102 116 101
99 111 98
63 95 65
45 94 50
44 91 49
44 91 49
39 82 44
37 80 42
37 77 41
41 86 46
38 81 43
38 82 43
38 82 43
37 78 42
37 77 41
37 78 42
36 75 40
38 78 42
35 72 39
37 75 41
36 74 40
36 75 40
35 71 39
36 72 39
37 71 39
37 72 40
36 67 38
36 68 38
37 70 39
36 68 38
35 67 37
34 64 36
37 69 38
33 62 34
0 0 0
0 0 0
0 0 0
0 0 0
0 0 0
0 0 0
0 0 0
0 0 0
0 0 0
0 0 0
0 0 0
40 11 11
92 25 24
98 26 25
91 25 24
95 26 25
95 25 24
98 26 26
100 26 25
93 25 24
101 27 27
102 27 26
99 26 26
99 27 26
95 26 25
106 28 28
103 28 27
106 27 27
106 28 27
105 28 27
104 28 27
106 28 27
110 29 29
104 27 27
102 26 25
103 26 26
98 26 25
97 25 25
94 24 23
94 23 23
89 22 22
84 20 20
80 45 45
85 64 62
80 64 63
84 65 63
83 63 61
79 60 57
80 60 58
74 54 50
80 47 47
77 56 52
84 63 62
89 71 68
86 64 62
85 63 61
70 50 48
82 63 60
88 73 70
81 57 55
88 67 66
74 50 49
80 56 55
79 60 60
89 64 61
85 61 60
83 60 59
79 61 61
90 69 68
72 45 43
81 63 62
76 48 48
82 66 63
80 56 56
81 59 58
84 60 59
84 58 58
85 63 62
76 53 52
77 52 50
82 54 53
75 51 50
85 50 50
76 55 54
76 48 48
103 93 92
108 105 103
110 106 104
115 108 107
115 111 110
112 103 102
113 106 105
115 109 108
114 107 106
111 107 106
110 102 101
116 109 108
122 115 114
118 111 109
124 116 115
122 119 117
118 114 113
122 116 115
120 112 110
129 126 125
123 113 111
120 114 113
117 111 109
129 124 123
130 126 124
112 105 105
124 121 119
131 124 124
124 121 120
128 120 119
129 124 122
132 126 126
129 124 123
125 123 121
125 116 115
127 120 118
132 128 126
132 127 125
130 130 127
133 128 127
132 125 124
131 125 123
134 130 129
129 123 122
62 53 52
49 39 38
51 46 44
55 48 48
53 42 42
52 40 40
53 43 42
47 39 38
45 38 37
34 30 28
45 29 29
50 36 35
45 39 38
39 33 32
38 32 32
46 37 36
40 34 32
38 33 30
40 33 32
42 33 33
43 32 31
42 34 33
37 27 27
42 33 33
46 37 34
37 24 23
44 42 39
44 35 34
31 28 26
36 34 33
35 28 27
34 25 23
39 33 30
32 26 25
47 39 39
35 24 23
30 24 23
43 41 39
32 23 22
41 32 32
31 29 29
26 21 19
39 21 20
29 28 25
32 26 25
35 35 33
23 16 14
27 16 14
31 16 13
29 24 21
34 29 26
30 15 13
37 26 24
28 19 17
27 27 24
27 19 15
28 28 24
25 20 17
23 24 22
19 25 19
20 17 14
28 26 24
30 42 30
36 55 35
37 55 37
32 57 34
37 59 38
37 61 39
37 65 39
44 73 45
42 71 44
101 113 101
109 121 110
110 121 110
106 117 106
100 111 100
107 118 107
105 121 105
104 116 103
109 121 109
105 118 105
101 114 102
97 110 98
97 113 98
103 112 103
102 115 101
104 118 104
100 115 100
95 110 96
97 109 97
103 113 102
102 115 102
103 116 104
102 114 102
96 107 95
103 115 102
55 97 59
45 91 50
46 93 51
41 84 45
42 85 46
35 74 39
35 76 40
39 83 44
38 81 43
38 78 42
37 78 41
40 85 45
36 75 40
37 75 41
35 74 40
37 75 41
36 76 40
38 77 42
37 76 42
35 72 39
35 71 38
37 72 40
35 72 39
35 70 38
35 67 38
34 68 37
36 68 37
36 69 39
34 67 37
33 64 36
30 58 32
0 0 0
0 0 0
0 0 0
0 0 0
0 0 0
0 0 0
0 0 0
0 0 0
0 0 0
0 0 0
0 0 0
37 10 10
86 23 23
92 25 24
95 25 25
87 23 23
96 26 25
93 25 24
102 28 27
104 28 28
99 27 26
95 25 25
99 27 26
101 27 26
104 28 28
106 28 28
105 28 27
98 27 26
104 27 27
105 27 27
107 28 28
108 28 27
98 26 25
108 27 26
102 27 26
109 27 27
94 24 24
100 25 24
99 25 25
93 24 23
84 20 19
84 48 48
90 68 67
83 65 64
91 72 71
96 75 74
88 66 65
85 65 62
87 70 68
87 68 67
82 63 62
89 70 68
96 77 77
92 70 69
90 70 68
91 68 67
91 71 69
97 79 77
89 69 68
90 73 71
97 74 74
93 73 72
95 71 70
90 73 71
103 78 74
100 71 70
91 77 76
87 71 70
95 76 75
98 78 77
104 80 80
98 82 80
96 80 78
105 84 83
101 80 79
95 75 75
104 86 85
103 89 88
106 83 82
115 97 96
106 89 87
111 93 92
111 96 95
108 100 96
107 98 96
112 99 97
109 95 94
114 105 104
112 105 105
118 106 106
114 108 106
117 108 107
115 109 108
118 110 108
116 107 106
121 113 112
128 116 115
116 106 106
125 118 117
126 121 119
117 110 109
125 120 118
121 112 111
123 116 116
123 117 116
123 114 113
129 122 121
127 118 117
124 120 118
118 115 112
125 118 118
139 134 133
123 120 118
133 126 124
121 113 111
131 126 125
135 128 127
129 122 122
124 121 119
130 124 123
129 124 123
130 125 123
129 123 119
131 124 123
129 125 123
133 126 125
133 131 128
125 121 119
135 127 126
62 52 52
60 53 52
44 38 37
59 44 43
47 36 35
43 36 36
39 36 36
57 48 48
52 37 37
44 39 38
50 38 38
42 30 29
41 37 35
40 34 33
41 26 26
41 34 33
44 40 40
45 38 37
48 42 39
33 21 20
45 31 31
36 22 20
33 19 18
31 25 25
42 33 32
39 28 26
39 29 28
34 27 26
41 36 35
44 29 28
31 28 26
42 26 25
26 24 24
43 38 37
37 29 28
36 30 30
39 26 24
21 21 20
35 26 23
32 24 22
36 32 29
24 19 19
31 25 24
35 32 31
33 23 20
27 23 20
31 18 18
30 18 17
27 18 18
32 29 27
24 22 19
23 17 16
25 18 17
33 31 28
34 33 29
35 35 32
34 26 25
32 31 27
32 28 26
31 24 23
37 29 27
27 25 22
37 43 33
35 54 36
37 56 36
34 59 36
30 55 32
35 60 37
31 57 33
31 60 34
34 62 37
94 105 93
105 117 105
101 111 100
103 114 103
103 113 103
103 114 104
107 117 107
98 112 99
102 113 102
103 113 103
103 113 103
102 116 103
100 113 101
103 112 100
108 118 108
98 110 98
99 111 99
98 110 98
101 111 100
98 113 98
96 108 96
104 119 105
98 110 99
105 117 105
98 109 98
92 110 94
58 93 62
43 89 48
40 83 45
38 80 43
39 80 42
39 80 42
38 79 43
38 80 42
37 79 42
37 76 41
37 79 42
40 82 45
36 78 41
36 76 40
36 72 40
36 76 41
35 71 39
36 74 40
36 74 40
35 72 39
35 70 38
35 69 38
38 74 41
37 70 39
37 71 39
35 71 39
35 69 38
33 65 36
34 65 36
33 63 35
0 0 0
0 0 0
0 0 0
0 0 0
0 0 0
0 0 0
0 0 0
0 0 0
0 0 0
0 0 0
0 0 0
35 9 9
90 24 24
84 23 23
94 25 25
91 24 24
88 24 23
95 26 25
93 25 25
100 26 26
101 26 26
99 26 25
98 27 25
99 26 25
106 28 27
102 28 27
102 26 26
101 27 26
105 28 27
95 25 24
104 27 27
106 28 28
102 27 26
106 26 26
106 27 26
102 27 26
105 26 26
97 24 24
97 24 24
92 24 23
100 61 60
93 72 72
87 62 62
92 72 71
83 67 66
99 79 77
87 73 72
98 81 78
91 75 74
95 73 72
94 76 74
101 80 79
103 85 83
96 78 76
96 80 79
102 87 84
92 75 74
97 80 79
104 82 80
95 78 78
109 89 88
105 87 85
108 91 88
102 81 80
99 85 84
102 81 81
100 79 79
106 93 90
98 80 79
105 89 87
112 94 93
101 83 81
107 91 90
106 89 88
115 96 96
110 98 96
104 87 85
110 96 95
108 99 97
109 94 93
106 94 92
118 108 106
116 102 101
121 108 107
114 98 97
114 104 104
121 109 107
115 105 103
110 100 99
119 109 108
121 112 111
121 110 109
127 120 119
129 121 120
121 110 108
119 111 109
119 113 112
122 112 111
120 109 109
125 116 115
125 116 115
118 111 110
124 116 115
120 114 113
132 123 123
133 126 125
129 123 122
129 120 119
122 114 113
131 128 127
129 121 120
125 116 115
136 131 128
133 127 126
140 129 128
134 127 127
134 123 121
132 126 124
136 132 131
128 124 121
136 132 131
128 124 123
132 126 124
126 122 120
127 123 121
128 124 122
135 129 127
135 129 128
137 134 132
57 52 50
54 40 40
52 44 43
51 43 41
45 40 40
49 43 42
47 38 37
49 38 36
41 36 35
39 29 27
50 41 38
50 39 38
45 39 39
50 41 40
44 35 34
39 30 30
49 41 40
38 28 27
34 28 27
36 26 24
44 36 34
43 29 28
48 41 41
37 31 30
37 28 27
38 27 26
39 29 28
40 36 34
44 31 30
43 32 32
38 31 30
32 29 26
32 24 23
35 29 28
25 23 21
36 34 31
34 30 30
41 33 31
35 25 23
30 22 21
26 15 12
37 31 29
39 36 34
37 34 33
33 25 25
28 24 23
27 21 20
40 32 30
37 28 28
25 16 14
28 23 19
30 24 24
37 38 34
31 27 24
21 28 19
27 28 23
36 33 31
26 30 24
28 25 22
29 25 24
34 33 29
22 21 18
34 43 33
29 55 31
33 56 35
33 57 35
32 55 34
35 59 38
42 71 45
39 66 41
33 61 36
90 102 90
96 109 96
91 105 91
96 107 94
86 102 87
85 103 87
91 104 91
91 103 92
89 100 89
90 108 91
98 113 99
99 107 98
94 107 95
90 104 91
103 115 102
95 108 95
93 106 93
97 111 97
95 107 95
93 102 91
95 105 94
96 108 95
89 103 88
102 114 101
90 99 89
97 109 96
105 114 105
57 92 60
40 82 45
40 83 45
37 78 41
35 76 40
37 76 41
37 79 42
36 75 40
37 78 41
39 81 44
35 75 40
36 76 41
37 76 41
36 74 40
36 74 40
35 72 39
37 75 41
39 75 41
36 72 39
37 72 40
36 72 40
35 70 38
37 69 39
33 65 36
37 70 39
37 68 37
33 65 36
35 67 37
30 54 31
0 0 0
0 0 0
0 0 0
0 0 0
0 0 0
0 0 0
0 0 0
0 0 0
0 0 0
0 0 0
0 0 0
36 10 10
84 23 22
88 23 23
92 25 24
91 24 24
93 26 24
96 25 25
89 24 23
98 26 25
96 25 25
102 28 27
108 29 28
109 29 28
100 27 26
99 26 25
107 29 28
98 26 26
104 28 27
105 27 27
103 28 27
105 28 27
110 29 28
110 28 28
113 30 29
104 27 26
104 27 27
98 24 24
94 23 23
91 59 58
98 85 82
96 76 75
100 81 78
99 76 75
101 84 81
103 83 82
96 79 76
98 80 80
103 84 82
97 73 72
108 89 88
102 83 81
100 80 78
105 85 84
104 89 88
104 88 86
110 92 90
99 84 82
109 93 92
103 81 80
105 86 85
102 86 84
97 82 80
107 89 87
109 94 92
109 97 92
100 89 88
109 93 92
115 95 95
113 91 90
101 89 88
104 90 87
109 94 92
113 100 99
114 96 95
114 101 98
119 103 102
106 97 95
106 98 97
112 102 101
106 95 93
115 102 100
122 111 110
123 113 112
115 107 105
113 103 101
128 106 106
115 107 106
113 107 105
118 108 107
117 109 108
124 114 113
119 109 108
133 123 121
128 116 115
124 111 110
124 112 111
123 114 113
122 112 111
124 114 113
126 116 115
132 123 122
128 117 117
127 119 119
117 112 111
122 113 112
126 117 116
124 120 119
129 120 117
120 112 111
131 125 124
129 123 121
124 120 119
131 123 123
128 116 116
133 128 125
130 126 124
138 131 130
130 123 121
131 125 124
137 131 130
134 124 123
131 126 124
131 122 120
127 121 121
136 130 128
141 133 132
134 126 125
140 130 129
74 62 61
41 36 36
54 44 44
54 42 41
47 34 32
48 35 33
41 36 35
52 38 38
35 30 30
43 36 35
45 36 36
37 27 26
50 46 44
40 36 36
52 40 40
52 45 44
45 29 29
44 36 35
29 19 18
41 37 36
42 32 31
43 34 33
32 31 30
33 31 29
39 30 29
38 29 27
43 38 37
39 27 27
30 26 25
31 25 25
37 31 29
38 30 30
37 35 33
44 30 30
37 27 26
34 31 30
27 24 23
36 25 25
41 28 26
36 23 22
34 24 24
37 27 26
35 26 23
35 28 25
25 21 20
35 24 23
27 30 26
35 28 27
38 32 29
32 24 21
26 23 22
28 23 19
37 28 27
30 33 29
24 21 18
31 24 19
28 23 22
38 28 26
38 26 24
32 29 24
30 26 23
36 30 28
31 42 30
34 60 36
30 55 32
34 51 34
34 55 35
37 62 40
35 62 36
36 62 38
41 64 43
58 76 59
70 84 69
75 87 73
73 90 73
78 93 78
77 92 76
73 89 74
77 92 78
82 97 82
80 91 77
80 91 78
79 94 79
75 92 76
72 94 73
89 101 88
94 109 95
89 98 89
82 99 83
92 103 92
85 99 85
90 104 91
88 99 87
90 103 90
91 105 92
87 100 87
88 102 88
88 97 85
85 103 85
64 93 66
42 86 47
36 77 40
36 76 40
38 80 43
39 80 43
37 77 42
38 78 42
36 76 40
37 76 41
36 75 41
38 78 42
38 79 42
36 75 40
38 77 41
35 72 39
33 67 37
36 72 40
38 74 41
37 70 39
35 71 39
36 70 38
37 68 38
35 67 37
35 67 37
35 65 36
36 68 38
29 59 32
0 0 0
0 0 0
0 0 0
0 0 0
0 0 0
0 0 0
0 0 0
0 0 0
0 0 0
0 0 0
0 0 0
35 9 9
84 22 22
86 23 23
89 23 23
88 24 24
93 25 24
89 23 22
92 24 24
92 24 23
95 25 25
96 26 25
100 27 26
97 26 25
103 27 27
97 25 25
101 26 26
105 28 27
100 27 26
113 29 28
105 27 27
105 27 26
106 28 27
98 25 25
106 27 27
101 26 25
104 26 26
97 25 24
101 61 59
103 79 78
107 86 85
101 85 83
109 89 88
107 85 84
97 77 76
103 84 83
98 76 75
106 79 78
106 93 90
103 87 86
104 90 88
107 87 86
107 91 90
111 90 89
111 90 89
102 92 90
108 87 86
103 87 86
101 85 84
102 89 88
106 91 89
111 89 88
113 93 93
106 91 90
111 95 93
102 91 88
116 97 95
117 99 98
115 98 98
117 100 98
113 99 98
107 95 94
111 95 94
105 96 95
116 99 99
119 105 104
117 102 102
117 107 106
110 99 98
114 104 103
111 102 100
115 101 101
117 104 104
121 110 109
119 106 106
120 107 106
117 102 101
116 106 105
121 106 106
115 106 105
118 108 106
123 112 112
119 111 110
119 111 109
122 112 111
120 107 106
136 121 120
124 114 113
129 120 119
119 110 109
131 119 117
122 114 112
126 119 117
120 112 110
129 117 117
129 119 118
126 122 120
134 124 123
119 112 111
126 119 117
127 119 117
137 131 130
124 121 119
121 116 114
129 119 119
138 129 128
136 126 125
132 124 123
132 127 125
131 122 121
128 120 118
132 125 124
125 122 120
134 126 124
134 126 124
132 125 124
133 129 128
132 128 127
127 122 122
61 53 51
45 39 38
54 41 41
50 40 39
48 35 33
46 44 41
49 38 36
43 35 33
46 39 38
59 43 42
42 39 37
50 39 37
44 39 39
40 29 29
43 29 28
38 31 29
44 38 35
48 34 34
48 39 38
36 27 26
37 33 31
46 37 36
40 29 29
36 28 25
34 24 24
39 33 33
32 25 24
46 30 30
47 31 31
31 31 26
36 30 28
35 26 26
27 22 20
36 27 27
27 25 22
40 32 30
35 26 24
31 23 22
38 32 28
32 24 23
32 29 27
38 32 30
25 23 22
23 16 14
26 18 17
30 27 25
42 39 35
33 26 23
40 29 28
29 24 22
37 26 24
24 25 22
30 28 23
36 29 23
31 21 19
33 33 29
30 25 23
29 23 20
33 33 31
35 32 29
20 25 18
24 21 18
27 35 25
29 49 30
33 53 34
34 58 36
28 53 30
32 56 34
32 60 34
36 61 38
28 56 31
33 56 35
38 62 39
46 68 47
47 70 49
49 71 51
45 64 47
46 67 47
54 72 55
54 73 54
57 76 58
67 80 67
68 84 66
65 84 65
66 88 68
75 89 75
67 83 67
80 92 80
75 90 75
76 90 76
74 89 74
75 93 75
82 94 80
78 93 78
85 101 86
89 101 89
86 99 86
88 99 87
87 98 87
90 101 89
49 85 53
37 78 42
35 75 39
36 76 40
37 79 42
38 78 42
37 78 41
38 79 42
37 78 42
36 76 41
37 76 41
37 77 41
35 74 39
36 75 40
36 75 40
35 71 38
38 75 41
37 70 39
37 74 40
37 71 39
35 69 38
37 70 39
35 68 37
36 70 38
37 67 38
35 66 36
32 60 33
0 0 0
0 0 0
0 0 0
0 0 0
0 0 0
0 0 0
0 0 0
0 0 0
0 0 0
0 0 0
0 0 0
45 12 12
87 24 23
99 27 26
81 22 21
90 24 23
88 24 23
95 25 24
97 26 25
92 25 24
101 27 26
89 24 23
98 25 24
105 28 28
97 26 25
101 27 26
94 24 24
105 27 27
98 25 25
107 28 27
103 28 27
105 28 27
103 27 27
110 28 28
108 27 27
104 26 26
95 24 23
96 59 59
105 83 82
98 84 82
104 88 86
99 83 81
103 88 86
99 77 77
112 91 90
97 87 85
116 97 96
105 87 86
110 89 88
108 92 91
109 88 85
106 95 92
109 95 93
99 85 84
104 89 88
111 93 92
111 94 93
110 93 93
105 89 86
108 91 90
111 96 95
108 94 93
110 98 95
112 97 95
119 106 105
108 94 93
112 99 98
111 96 95
117 105 102
117 104 102
110 91 91
118 104 101
125 103 102
115 102 100
112 103 101
116 103 102
117 104 102
114 102 101
111 99 97
111 100 99
117 106 105
115 102 100
125 108 108
118 105 104
123 108 107
118 106 105
120 107 107
118 107 106
133 117 117
114 104 103
126 112 111
121 111 110
122 110 108
122 115 114
126 116 116
121 112 110
118 109 108
123 116 115
123 119 117
127 118 116
124 116 114
125 112 111
126 119 117
132 127 125
123 114 113
126 114 112
128 116 115
120 114 113
126 118 117
137 129 128
120 115 113
126 120 119
129 123 121
129 120 118
130 124 122
127 121 120
121 114 114
133 128 127
133 122 121
130 123 122
140 133 132
129 121 119
136 129 128
137 129 128
127 118 117
136 126 125
143 134 134
132 126 124
134 124 124
53 47 46
48 45 43
50 38 38
49 40 40
53 48 46
52 40 40
55 44 44
41 30 30
40 30 29
27 22 20
30 20 18
54 42 41
42 35 33
49 41 40
48 40 38
30 23 23
47 43 43
41 34 33
46 32 31
40 34 33
37 36 34
38 31 30
40 30 30
41 34 31
38 33 32
47 31 29
38 25 25
40 25 23
39 30 27
47 30 30
31 23 23
42 36 34
44 35 35
37 28 28
42 30 29
27 20 19
24 19 14
34 28 26
31 22 21
36 30 30
36 24 23
40 31 29
36 30 30
42 38 35
34 31 29
35 25 24
26 20 17
29 26 21
38 33 31
23 19 17
33 24 24
27 24 23
32 32 30
30 25 23
31 24 22
31 26 23
21 23 17
27 20 18
36 24 22
19 25 18
27 24 22
21 20 19
27 30 23
29 51 31
28 51 30
32 56 33
30 56 33
30 55 32
32 60 35
32 57 34
40 67 42
34 61 36
38 63 38
37 63 39
43 68 44
39 61 38
48 64 45
46 69 47
46 66 47
48 69 47
46 66 46
46 71 48
52 73 52
45 63 46
58 76 58
51 73 52
58 74 59
53 73 55
56 78 56
55 74 55
58 78 59
68 83 67
61 80 61
72 89 74
77 91 77
77 88 76
66 81 67
72 92 74
81 94 81
89 97 87
88 99 88
41 75 44
35 73 39
37 77 41
39 80 43
35 72 39
37 77 41
38 78 42
37 78 42
38 79 43
37 79 42
35 74 40
38 77 42
36 71 39
35 72 39
37 73 40
37 72 40
37 73 40
36 72 39
36 70 39
34 67 37
34 66 36
34 69 38
34 67 37
34 66 37
36 67 38
30 59 33
0 0 0
0 0 0
0 0 0
0 0 0
0 0 0
0 0 0
0 0 0
0 0 0
0 0 0
0 0 0
0 0 0
43 11 11
82 23 22
91 24 24
88 24 23
91 25 24
94 25 24
97 25 24
92 25 24
96 25 24
98 26 25
101 27 26
99 27 26
95 26 25
101 26 26
99 26 25
106 27 27
100 27 26
98 26 26
105 28 27
109 27 27
108 28 27
110 29 28
103 27 27
109 28 27
105 26 26
105 66 66
106 92 91
104 90 87
107 85 84
105 87 85
111 86 85
106 86 83
104 89 87
102 84 83
107 90 89
110 91 90
104 91 88
112 91 90
108 88 88
113 90 89
114 94 93
104 86 85
110 93 92
106 90 90
108 91 90
114 97 94
113 95 94
112 96 94
110 94 93
112 100 99
115 96 95
107 94 93
112 93 92
114 102 100
108 94 93
112 96 95
113 96 94
112 95 94
108 96 95
116 101 100
115 103 102
116 100 97
116 108 107
118 102 101
115 102 100
114 101 99
116 106 104
111 95 94
113 105 102
116 106 104
114 105 102
112 100 98
125 113 111
115 102 101
118 107 107
122 111 111
114 107 105
121 110 109
115 107 106
122 112 111
117 107 104
122 114 113
120 106 105
125 113 112
126 113 112
120 109 108
123 111 111
117 108 107
119 110 110
126 118 118
125 117 116
127 124 123
128 119 119
131 123 122
122 113 113
128 121 120
125 118 117
122 111 110
129 119 119
130 120 119
128 117 117
133 121 120
134 126 125
133 123 122
129 124 123
133 123 123
126 116 115
128 124 123
126 116 115
131 126 124
128 122 121
130 121 120
126 118 118
133 124 124
131 126 125
133 128 127
132 125 124
130 122 122
60 50 49
61 48 48
61 51 50
49 45 44
44 36 36
40 30 30
52 45 44
34 31 29
48 38 37
47 38 37
50 34 33
43 29 28
34 29 27
46 42 42
43 34 32
44 39 37
31 25 25
41 28 28
42 35 34
39 31 29
46 35 35
38 29 26
31 24 23
35 25 23
49 33 33
32 22 21
42 30 30
40 31 31
38 27 26
34 26 26
45 31 30
40 29 28
30 19 19
34 27 27
46 34 34
38 27 25
47 40 38
41 34 33
39 24 23
30 28 24
38 34 32
34 26 25
47 38 35
25 24 22
26 20 16
40 31 26
40 35 32
32 29 25
37 26 25
27 23 21
43 35 34
27 21 18
23 17 15
27 11 8
28 27 22
32 33 28
30 26 25
33 30 27
31 26 23
24 24 23
32 25 24
30 32 27
27 30 22
30 49 31
36 59 38
32 58 33
31 58 34
28 53 30
31 59 33
32 60 35
38 63 40
38 66 41
36 65 40
35 59 34
41 66 42
40 65 43
47 66 48
43 64 43
39 64 41
46 66 46
47 61 47
45 63 46
49 69 50
47 70 49
47 70 49
42 64 42
43 68 45
47 69 48
55 71 54
38 61 39
52 76 53
50 69 50
63 80 63
64 77 63
57 75 57
73 85 72
72 91 73
67 83 67
73 88 74
80 89 78
79 93 79
83 91 82
45 77 48
35 73 38
36 76 41
39 79 43
37 79 42
38 78 42
35 74 40
37 78 42
36 75 41
36 75 40
39 80 44
38 79 43
37 75 41
35 73 40
37 77 41
35 69 38
33 66 36
39 75 41
35 68 38
36 68 38
37 71 39
32 63 34
36 70 39
36 69 38
30 60 33
0 0 0
0 0 0
0 0 0
0 0 0
0 0 0
0 0 0
0 0 0
0 0 0
0 0 0
0 0 0
0 0 0
32 9 9
87 24 23
89 24 23
86 23 22
98 26 25
96 25 24
100 27 26
94 26 25
92 24 23
99 26 25
96 26 25
97 26 25
105 28 27
108 28 28
99 26 26
101 27 26
101 26 26
108 28 27
104 27 26
102 26 26
110 29 29
107 28 27
108 28 27
102 26 26
107 62 62
110 88 87
105 88 86
109 90 89
108 86 84
106 88 85
112 91 89
113 91 90
108 89 88
106 94 91
105 88 86
103 85 83
111 91 90
105 92 90
106 88 87
118 97 96
110 92 91
113 97 96
112 96 94
116 100 97
110 92 90
108 91 90
109 88 88
112 99 96
117 99 99
110 98 96
107 94 93
114 96 95
112 95 93
113 95 93
114 97 96
108 93 92
113 100 99
115 98 96
114 102 101
118 102 99
111 102 100
118 107 105
112 100 98
120 110 108
114 98 97
116 98 97
114 101 100
114 104 103
123 109 108
116 106 105
118 105 104
120 113 111
116 100 99
112 100 100
117 104 102
118 109 107
120 108 107
123 112 111
114 107 106
114 102 101
129 115 115
118 110 109
123 112 111
120 113 112
115 102 101
123 115 114
115 109 107
121 109 109
118 107 107
116 109 108
123 115 114
119 112 111
120 115 113
128 116 116
129 119 119
126 117 116
122 109 107
118 113 111
131 121 121
128 118 118
120 113 111
121 113 112
128 117 116
130 121 119
132 123 122
125 115 115
124 119 119
125 116 116
131 127 126
131 122 121
128 119 118
123 115 114
130 122 121
134 126 125
131 122 121
130 124 123
129 121 121
134 127 126
64 55 55
62 51 51
55 44 43
53 39 39
45 36 36
50 40 39
50 36 35
49 39 38
46 40 40
43 32 29
47 37 37
47 44 43
41 33 32
40 30 27
48 36 35
35 30 28
37 29 27
43 34 32
36 28 27
37 23 23
45 37 35
43 30 30
48 36 35
39 34 33
42 31 30
40 31 30
29 26 23
30 26 24
29 21 20
37 28 27
30 23 23
30 22 20
38 29 29
29 26 24
34 28 27
48 39 36
43 32 32
39 29 26
39 35 32
32 26 25
36 25 23
32 22 21
21 17 16
33 32 31
35 27 25
37 33 31
35 23 20
24 25 21
29 21 18
35 28 25
28 21 20
38 36 34
29 27 24
32 29 25
33 32 29
27 19 17
32 23 21
35 31 28
27 22 17
30 28 24
33 24 23
38 34 27
34 42 31
32 51 33
31 52 33
41 64 43
28 52 30
37 62 39
31 60 34
30 53 33
31 62 35
32 59 33
32 60 35
33 61 35
34 58 36
33 64 36
47 70 49
35 55 36
40 65 43
40 68 41
37 64 39
39 62 41
40 65 42
42 64 42
49 65 48
41 61 43
51 69 52
42 68 44
50 70 50
43 66 44
44 72 46
44 67 45
62 78 61
56 73 56
59 73 60
61 76 62
56 74 57
67 84 67
71 84 72
78 89 75
81 89 80
74 85 75
85 96 86
51 77 52
35 72 38
39 81 43
37 77 41
38 78 42
36 76 41
38 79 43
36 75 39
37 77 42
38 79 43
38 78 42
35 71 39
36 74 40
37 74 41
35 71 39
38 72 39
35 69 38
35 68 37
35 69 37
33 63 35
32 62 34
35 63 36
35 67 38
30 58 32
0 0 0
0 0 0
0 0 0
0 0 0
0 0 0
0 0 0
0 0 0
0 0 0
0 0 0
0 0 0
0 0 0
35 9 9
85 22 22
96 26 25
88 23 23
92 25 24
88 24 23
93 25 24
92 25 24
105 28 28
95 26 25
104 27 26
97 26 25
101 27 26
103 27 27
99 26 25
97 26 25
100 27 26
107 29 28
105 28 27
101 26 26
107 27 27
110 28 27
109 28 27
108 67 66
108 83 82
115 93 92
108 86 84
106 88 86
109 87 86
104 88 86
113 94 93
108 90 88
116 94 92
114 95 94
111 94 93
111 93 89
109 91 89
113 97 94
109 95 94
113 91 89
116 94 94
112 91 90
108 92 91
111 95 93
119 98 97
117 96 95
113 99 97
109 94 92
114 100 98
116 101 100
108 92 91
117 100 100
114 98 97
106 94 93
112 97 96
109 97 96
116 104 102
113 100 99
110 96 95
113 97 96
118 107 105
112 103 100
109 95 94
119 104 102
117 108 107
117 104 104
122 105 103
119 105 104
117 103 103
114 103 102
120 112 111
124 106 105
128 111 110
123 115 114
122 102 101
113 105 104
119 104 103
115 108 107
121 109 108
122 106 106
117 107 105
119 109 108
122 108 107
115 106 105
115 110 108
118 101 101
121 115 113
122 112 112
119 113 112
117 106 105
125 117 116
125 116 115
126 113 112
128 115 114
129 118 117
130 123 122
124 111 111
128 118 118
126 118 117
130 121 120
122 115 114
123 117 116
128 117 116
139 130 130
132 123 122
129 121 120
130 123 122
129 122 121
123 117 116
136 128 127
128 122 121
120 112 111
135 129 128
131 121 120
127 118 117
128 120 119
131 125 124
125 119 119
54 44 43
62 50 49
53 42 42
62 48 48
51 44 43
54 42 41
29 22 21
54 38 37
41 30 29
42 30 29
50 38 37
47 39 39
42 36 34
33 30 30
42 33 31
36 31 29
43 28 27
28 25 24
44 35 34
34 25 25
34 27 25
50 39 37
33 25 25
47 33 33
33 26 26
26 16 16
31 22 22
31 22 20
35 26 26
37 15 15
37 27 26
30 26 25
40 34 34
37 27 26
32 24 22
26 20 19
32 27 24
28 26 22
35 21 21
29 22 22
28 28 26
31 28 25
30 27 24
34 32 28
34 22 20
28 27 25
33 28 25
27 21 17
28 23 20
28 19 18
41 35 34
28 24 22
29 16 16
35 29 28
25 25 22
36 28 25
28 21 20
31 22 19
34 30 27
31 30 28
34 27 23
36 36 34
27 35 25
30 50 32
34 59 35
29 54 32
30 54 32
31 53 33
33 60 36
33 57 34
27 53 29
33 60 36
30 59 33
35 59 37
39 65 41
37 60 37
32 55 34
37 63 39
39 67 41
44 67 45
42 61 42
44 70 46
43 67 44
39 62 41
40 67 42
37 60 37
42 65 43
46 68 48
43 65 45
45 67 47
53 74 55
51 72 52
52 70 52
53 74 55
64 78 65
59 77 60
65 81 66
67 80 68
72 85 73
70 84 71
74 87 74
83 92 82
83 95 83
71 83 70
46 75 49
38 80 42
38 79 43
37 78 41
37 76 41
38 77 42
37 76 41
36 76 41
37 77 41
36 76 41
37 75 41
35 69 38
36 71 39
35 72 39
37 71 39
35 68 37
35 66 37
37 72 40
36 70 39
36 67 37
34 68 38
34 64 35
28 58 32
0 0 0
0 0 0
0 0 0
0 0 0
0 0 0
0 0 0
0 0 0
0 0 0
0 0 0
0 0 0
0 0 0
30 8 8
88 24 23
84 22 22
89 24 23
91 24 23
94 25 24
102 28 27
94 25 25
94 25 24
95 25 25
94 25 25
97 25 25
101 26 26
99 26 25
99 27 26
99 26 25
99 26 26
104 27 26
109 29 28
103 26 26
106 27 27
104 26 26
114 70 69
113 95 93
108 90 88
112 93 91
105 88 87
104 89 86
109 94 92
116 93 90
108 89 87
109 91 88
109 90 88
109 91 90
111 95 93
119 99 97
111 96 94
110 92 90
111 91 91
112 98 96
112 98 96
110 95 95
107 92 90
114 97 96
114 93 92
110 90 90
108 94 92
110 91 90
115 99 98
113 96 96
106 93 92
117 102 100
114 98 98
114 99 97
110 95 95
109 98 97
115 100 98
121 101 100
116 106 105
106 90 89
117 103 102
117 101 98
119 104 102
113 104 102
116 105 103
116 103 102
109 100 98
113 98 98
116 104 103
113 98 97
117 110 108
117 110 108
117 108 108
121 111 110
123 107 107
118 107 105
119 109 109
118 108 107
122 109 108
119 107 107
113 97 96
124 113 111
121 115 114
119 107 107
124 115 114
117 109 108
130 115 115
117 105 104
125 113 112
117 107 107
123 114 113
119 111 110
118 108 108
129 119 118
117 107 106
129 117 117
126 121 119
124 114 112
123 116 115
124 114 113
121 111 110
127 116 116
131 118 117
131 122 122
127 116 115
130 122 121
128 122 121
124 116 115
119 113 112
123 113 112
129 115 115
126 117 117
132 122 122
129 124 124
129 121 120
131 125 124
131 124 124
133 125 124
64 55 53
59 45 44
56 43 42
51 44 43
48 39 38
47 38 37
51 40 40
49 43 42
35 22 21
43 35 34
48 34 32
41 27 26
49 34 31
57 39 38
37 26 21
30 17 15
40 29 28
44 37 35
36 21 19
35 27 26
41 29 28
42 34 33
36 25 25
38 23 22
43 33 31
43 22 19
30 24 22
36 25 24
40 31 30
30 20 18
38 26 24
38 22 21
27 19 17
42 33 32
35 22 21
26 25 24
27 23 20
40 31 30
25 17 17
40 21 20
32 28 27
26 26 24
37 27 26
30 27 25
40 29 28
23 18 17
25 21 19
29 17 15
37 33 30
27 20 18
36 30 26
20 16 13
39 27 27
34 25 22
28 28 24
31 27 23
35 28 26
31 23 22
31 26 25
32 33 30
30 34 26
36 25 22
30 35 25
29 49 30
32 54 34
33 58 35
27 53 29
29 54 32
27 55 30
32 59 34
34 60 36
35 60 38
32 56 34
35 63 37
39 63 40
43 62 43
40 61 40
35 59 36
38 60 38
37 66 40
39 69 41
41 63 42
35 62 38
40 65 41
38 64 40
39 60 39
37 62 39
44 67 44
35 60 37
55 73 56
57 78 59
47 71 49
44 65 44
63 76 64
60 78 61
58 76 60
73 87 72
64 81 65
69 86 70
75 85 74
72 83 73
79 88 79
84 97 84
72 86 74
82 93 82
49 79 51
37 80 42
37 79 42
38 78 43
38 80 43
35 74 39
37 75 41
37 75 41
39 79 43
37 74 41
37 74 40
36 73 40
34 70 38
36 72 40
37 71 39
38 71 40
34 67 37
35 67 37
36 73 40
35 68 38
36 65 36
31 58 33
0 0 0
0 0 0
0 0 0
0 0 0
0 0 0
0 0 0
0 0 0
0 0 0
0 0 0
0 0 0
0 0 0
44 12 12
84 23 22
90 24 23
88 23 23
91 24 24
89 24 23
89 24 23
91 24 24
94 25 25
95 25 24
101 26 26
104 27 27
95 24 24
98 25 25
103 27 27
97 26 25
104 26 26
102 27 26
104 28 27
108 27 27
101 26 26
100 63 61
110 89 87
110 92 90
109 88 87
112 94 92
105 88 87
110 88 87
112 96 94
104 89 88
109 95 92
109 94 92
112 96 94
112 93 91
114 100 98
112 90 88
106 89 89
109 90 89
111 93 90
106 91 90
110 93 92
110 91 89
109 90 89
111 95 94
115 98 98
112 95 94
111 93 92
117 96 95
105 92 92
116 101 99
111 99 96
111 95 93
104 94 92
109 93 92
107 95 93
109 97 96
113 94 93
111 103 100
111 103 100
115 95 95
107 97 96
114 99 98
113 98 97
123 110 109
119 105 105
114 103 101
111 98 97
122 110 109
114 96 95
115 104 102
116 103 103
119 101 101
114 101 101
114 104 102
119 109 109
104 98 95
117 106 105
117 109 108
115 104 104
120 111 110
117 107 106
122 109 109
121 107 105
126 119 118
112 102 101
128 117 116
116 106 105
125 116 114
120 110 109
116 107 107
125 110 110
112 105 104
126 121 119
122 116 115
115 106 106
116 109 108
122 110 110
122 114 113
118 109 109
124 115 114
125 118 117
129 118 117
120 107 106
124 114 113
124 117 116
133 126 125
126 113 112
128 122 121
127 122 121
123 114 113
125 115 114
126 121 120
122 114 114
127 122 121
134 126 126
127 118 118
129 122 122
123 113 112
68 57 56
51 45 44
48 44 43
45 33 32
34 24 24
34 28 27
48 42 42
36 28 27
48 38 38
41 31 31
34 21 20
45 26 26
43 25 25
38 25 23
34 24 23
43 29 28
30 27 23
34 21 21
25 14 13
30 26 22
34 27 25
41 29 28
28 19 18
36 31 30
33 23 23
32 24 24
40 32 30
37 36 34
28 28 24
29 23 22
30 24 23
30 26 20
28 26 25
30 27 25
27 22 20
31 19 18
23 14 10
25 22 19
25 24 21
34 22 20
39 30 30
21 24 21
23 22 19
27 25 22
44 28 26
33 20 18
33 23 21
30 28 24
36 33 33
19 17 16
28 24 19
34 23 22
30 26 22
26 21 15
15 16 13
27 28 21
33 28 27
31 30 27
34 27 22
29 24 21
27 24 20
25 31 26
26 33 24
23 44 25
29 53 30
33 55 33
26 50 28
29 58 32
28 56 32
35 58 37
34 53 36
34 56 34
33 60 35
31 59 34
33 55 35
38 62 40
36 58 36
32 57 32
37 67 40
40 64 41
31 52 32
35 58 37
39 59 41
43 63 42
37 63 39
42 64 44
40 63 42
34 59 36
37 57 36
44 56 43
47 65 48
57 74 57
57 75 58
56 72 56
64 78 64
61 75 60
61 78 62
68 82 67
70 85 71
77 93 77
70 85 69
81 93 80
84 93 82
74 85 75
79 92 80
78 90 78
48 82 52
39 80 43
38 81 43
37 78 42
37 77 41
39 80 43
39 80 44
36 75 41
36 74 40
35 72 39
36 71 39
36 73 39
38 74 41
35 71 39
34 68 37
38 70 39
34 66 37
36 70 39
36 68 37
35 66 37
33 60 33
0 0 0
0 0 0
0 0 0
0 0 0
0 0 0
0 0 0
0 0 0
0 0 0
0 0 0
0 0 0
0 0 0
31 9 8
80 22 21
100 27 26
88 24 24
97 25 25
86 23 22
94 25 25
86 23 23
93 25 24
100 27 26
93 24 24
97 26 25
102 27 27
102 26 26
104 27 27
103 26 26
103 28 27
99 26 26
101 27 26
101 26 25
107 54 54
113 89 87
106 89 88
109 86 85
105 90 88
104 85 85
107 85 84
111 92 90
109 89 87
114 90 90
109 92 91
107 88 86
105 88 86
110 95 93
104 87 87
109 90 89
109 90 90
113 92 91
114 98 96
109 92 90
108 94 93
107 92 89
111 97 95
107 94 93
121 101 99
101 86 84
115 96 95
110 95 92
113 97 96
116 94 93
108 95 94
109 97 95
114 100 98
111 100 97
111 93 93
115 104 102
112 100 99
116 103 101
110 99 98
115 100 99
112 100 98
117 104 102
108 99 96
115 103 102
110 97 97
110 101 99
115 101 100
110 99 97
114 101 101
117 105 104
116 101 101
121 107 106
115 104 103
117 102 101
113 100 99
121 109 108
110 99 98
113 102 102
114 101 100
124 112 111
114 106 104
114 108 106
110 104 102
117 107 107
120 105 104
112 105 104
117 110 109
125 116 114
118 111 110
117 108 107
118 109 108
122 111 110
115 109 107
123 113 113
118 110 109
118 112 111
126 115 114
117 109 108
120 112 111
120 111 110
119 112 111
124 111 110
124 115 115
120 112 112
129 121 120
112 106 105
123 114 113
124 117 116
117 109 109
125 116 115
124 116 116
129 121 120
120 112 112
135 120 120
131 124 123
129 121 120
127 121 120
126 114 113
65 56 56
48 37 37
50 39 38
43 35 34
33 20 20
42 27 27
36 30 29
38 27 27
34 17 17
39 22 20
39 28 26
44 28 26
45 28 28
42 29 26
38 30 27
37 25 25
42 39 38
32 23 20
30 21 17
28 26 22
36 21 21
26 20 19
29 12 9
36 24 21
28 22 19
23 14 12
28 24 24
37 13 12
43 36 34
31 16 16
38 28 27
42 30 26
30 21 19
37 23 22
32 29 27
30 28 25
38 26 24
31 22 19
36 25 24
28 18 15
35 33 29
34 29 26
35 30 28
29 22 21
34 29 27
25 23 21
28 19 15
37 27 25
27 23 20
26 27 24
29 22 18
40 23 21
32 32 23
30 28 24
30 26 22
34 27 24
31 26 24
30 30 28
37 25 21
34 30 27
35 29 27
27 21 20
26 29 18
28 51 30
30 53 32
35 59 37
25 43 26
29 59 32
27 53 30
30 57 32
29 53 31
30 55 32
31 60 34
32 58 34
35 64 38
36 64 39
32 61 35
39 63 39
31 57 33
37 60 39
31 56 33
30 54 32
41 64 42
34 54 34
36 56 36
37 60 39
41 59 40
30 57 32
31 53 33
49 67 49
53 68 53
51 64 47
61 73 60
59 73 58
55 76 57
73 87 73
60 75 59
63 81 64
74 89 75
77 88 77
72 89 73
79 91 79
79 88 78
77 90 78
79 89 78
75 90 76
84 96 83
56 85 59
38 78 43
36 75 41
38 79 43
38 78 42
36 75 40
39 81 43
36 75 40
38 75 41
37 73 40
37 73 40
36 72 40
35 67 37
37 72 39
35 67 37
35 67 37
36 67 37
35 67 38
33 63 35
30 57 31
0 0 0
0 0 0
0 0 0
0 0 0
0 0 0
0 0 0
0 0 0
0 0 0
0 0 0
0 0 0
0 0 0
37 9 9
90 24 24
86 23 23
88 24 23
90 24 23
94 25 25
90 24 23
94 25 24
98 26 25
96 24 24
97 25 24
105 28 27
100 26 26
97 25 25
107 27 27
103 26 26
102 26 26
103 26 26
100 26 26
108 68 67
108 84 82
103 86 85
110 90 89
107 86 85
111 88 86
111 93 92
103 89 87
105 95 93
108 92 90
103 85 83
109 88 86
107 88 88
108 90 89
106 92 90
111 91 90
112 93 91
105 89 86
106 90 88
107 91 90
112 97 95
108 93 93
120 99 97
106 93 90
106 94 93
110 96 95
108 93 90
111 97 95
113 94 93
114 101 100
113 100 99
111 98 97
105 92 91
110 98 96
113 100 98
107 96 96
109 93 92
109 100 97
108 96 93
107 95 94
108 97 95
105 94 92
115 100 99
107 100 97
119 109 107
117 108 108
116 104 103
111 103 102
117 105 103
118 107 106
110 97 96
113 102 100
115 103 102
122 108 107
117 108 106
119 112 111
115 108 106
113 103 102
116 111 108
116 103 102
115 100 100
112 105 104
119 107 107
119 108 107
121 112 111
116 105 103
111 102 102
114 107 106
127 117 116
117 108 107
119 108 108
116 105 104
117 111 110
118 109 108
115 109 108
117 106 106
115 105 104
118 108 107
121 110 109
120 109 109
125 116 115
124 114 112
118 110 109
117 107 106
119 108 108
127 117 116
124 119 117
117 108 106
123 117 116
122 114 113
122 116 116
121 111 111
119 114 113
122 116 115
126 120 119
126 115 114
125 118 117
127 122 121
125 119 119
63 55 55
59 51 50
41 34 34
42 31 30
44 29 29
38 28 26
46 24 23
29 25 23
35 26 25
38 28 27
35 22 21
39 28 25
39 27 27
30 22 20
28 20 19
37 23 20
40 33 31
40 32 32
36 28 25
41 26 25
48 35 34
35 17 15
40 27 26
30 16 14
32 18 18
23 20 20
41 29 27
38 23 22
31 27 24
31 25 23
27 17 17
32 18 14
26 16 15
38 28 27
29 20 19
38 30 29
28 16 15
34 25 20
33 19 18
24 18 15
31 19 17
30 17 15
38 28 24
31 25 24
24 20 18
31 21 20
19 8 6
27 27 23
22 14 13
34 31 26
29 23 20
24 22 18
30 23 22
29 18 16
28 18 14
28 24 19
24 23 18
31 29 25
25 25 20
24 20 18
26 25 21
21 25 18
29 36 21
23 43 25
31 51 31
26 51 29
31 60 34
26 48 27
27 52 29
27 50 29
29 55 32
35 61 36
31 53 31
32 54 34
42 63 43
35 62 37
37 57 38
41 65 43
31 58 33
30 55 32
33 53 33
31 54 32
45 59 44
34 60 36
39 58 40
33 60 36
48 68 49
43 64 44
50 63 46
44 64 45
49 72 50
54 71 54
52 68 52
59 75 60
52 72 54
70 84 70
64 78 64
65 80 64
60 76 61
75 91 76
82 90 80
68 81 68
71 86 72
84 92 82
76 89 76
79 91 80
93 102 93
85 98 84
51 84 54
38 79 42
36 76 41
37 75 41
37 76 41
36 75 41
35 72 39
36 72 39
35 73 39
37 77 42
36 72 39
36 70 39
38 73 41
37 73 40
37 68 38
35 69 38
35 69 38
35 65 37
26 48 27
0 0 0
0 0 0
0 0 0
0 0 0
0 0 0
0 0 0
0 0 0
0 0 0
0 0 0
0 0 0
0 0 0
36 9 9
85 23 22
89 24 23
91 24 23
93 25 24
99 27 25
92 24 23
95 26 25
99 27 26
94 25 24
98 26 25
98 26 25
95 25 25
102 27 27
101 27 26
105 28 27
103 26 26
108 28 27
103 59 57
113 87 86
110 89 87
109 84 83
107 89 87
112 90 88
112 93 90
104 88 86
108 92 91
104 92 91
107 91 89
109 99 96
109 89 87
102 88 86
103 90 88
110 93 91
112 99 97
103 92 89
108 93 91
110 96 95
112 96 95
114 93 93
106 91 90
105 96 94
112 93 93
107 90 89
116 101 99
107 94 93
114 101 97
113 99 97
116 102 100
110 93 92
116 97 97
100 85 84
109 98 97
104 96 95
103 90 89
108 96 95
113 101 99
115 103 101
112 99 98
106 97 95
110 98 97
118 107 106
114 107 105
116 107 105
111 97 96
105 91 90
108 95 94
106 95 92
118 105 103
112 99 99
113 99 97
111 102 100
116 105 103
116 102 101
115 102 101
106 102 101
110 102 100
123 114 112
118 112 110
109 96 95
109 100 99
122 110 109
121 108 108
118 109 108
129 112 111
116 106 104
109 99 98
113 103 102
113 107 106
115 106 104
122 114 113
112 102 101
118 109 108
120 110 108
120 110 109
112 101 100
119 109 109
113 105 103
112 105 104
123 117 115
128 117 115
125 117 116
124 113 112
111 104 103
117 109 107
116 106 106
126 112 111
112 104 102
116 110 109
119 111 110
127 119 119
111 107 106
120 117 117
126 116 116
125 116 115
115 112 111
122 114 113
122 112 111
60 48 47
40 29 28
36 27 27
35 31 28
35 13 13
33 19 18
43 27 26
32 14 14
35 24 23
27 15 13
37 22 20
39 30 30
38 22 20
32 20 19
28 22 18
16 11 9
29 15 14
27 13 12
31 26 24
42 29 28
31 18 17
27 18 16
32 15 15
35 21 21
37 25 24
35 28 25
34 22 22
29 19 19
32 27 24
35 25 24
37 32 31
24 13 12
39 27 25
28 22 21
29 25 24
37 26 25
30 24 20
28 19 17
24 15 12
35 22 21
32 22 19
26 18 15
34 25 23
31 20 17
30 29 26
31 21 17
27 18 14
25 21 18
37 22 20
30 24 23
26 27 25
28 23 19
33 28 25
34 22 17
13 17 10
34 39 30
27 23 19
38 31 27
40 23 22
29 23 21
27 26 20
19 17 10
22 35 20
28 49 30
29 55 31
26 51 28
33 60 35
29 54 31
31 52 32
29 55 31
31 58 33
27 52 30
33 56 35
29 54 31
31 54 33
39 65 41
30 55 32
34 53 34
35 55 34
30 55 32
36 57 37
38 59 39
31 56 33
33 55 34
43 64 42
32 53 32
39 58 40
44 65 43
41 58 41
36 60 39
44 61 44
49 66 50
46 63 47
54 72 55
51 71 52
57 74 57
62 74 62
64 79 65
68 80 68
67 81 68
71 86 73
74 87 75
78 91 78
79 92 80
80 93 81
84 95 85
82 93 81
81 92 81
87 97 86
51 86 54
40 82 45
37 76 41
37 76 41
37 75 41
37 75 41
35 71 39
36 72 39
36 71 39
37 74 40
38 70 38
36 75 40
38 71 39
38 71 40
38 73 40
33 65 36
36 64 36
34 62 35
0 0 0
0 0 0
0 0 0
0 0 0
0 0 0
0 0 0
0 0 0
0 0 0
0 0 0
0 0 0
0 0 0
40 11 10
86 22 22
92 25 24
88 24 23
86 23 22
93 25 24
94 25 24
96 25 25
89 23 22
95 26 25
98 26 25
99 26 25
102 27 26
98 27 26
99 26 25
102 26 26
106 26 26
107 66 64
109 89 87
105 88 85
106 87 85
104 86 86
108 94 91
105 86 85
109 91 88
104 89 87
102 88 87
111 93 92
115 94 93
112 89 87
112 90 89
108 95 94
105 92 90
110 93 92
115 96 96
104 86 84
105 91 90
108 91 90
109 94 92
105 90 88
105 88 88
105 89 88
111 94 93
109 96 92
113 101 100
112 97 96
116 97 96
116 106 106
103 89 88
108 96 96
113 96 94
118 104 103
108 94 94
112 102 100
108 97 95
102 93 92
110 101 100
109 94 92
107 98 95
105 95 93
109 93 91
111 99 97
112 94 94
111 96 96
111 96 94
105 97 96
106 92 91
116 106 105
104 95 93
115 105 103
114 97 96
122 105 105
100 92 91
116 102 100
115 107 105
107 97 97
114 101 98
107 98 96
111 97 96
104 96 94
116 108 107
118 106 105
118 109 107
117 106 104
114 104 104
112 102 101
115 104 102
116 107 106
117 107 107
114 105 104
114 102 102
118 107 106
110 103 102
111 103 101
121 110 109
125 114 114
121 112 111
122 112 111
112 106 105
112 101 101
117 108 108
117 107 106
117 110 109
113 105 103
119 112 111
115 105 104
113 106 105
116 110 109
116 110 109
122 114 113
118 112 111
119 112 111
112 107 106
112 104 104
110 105 102
109 100 99
100 93 93
101 91 90
71 55 54
45 27 25
56 32 32
39 25 25
36 16 13
35 26 25
35 11 9
39 19 18
31 23 22
29 18 16
30 22 21
29 20 18
35 18 14
29 20 20
25 15 14
24 14 12
35 26 24
38 20 19
27 19 18
22 16 15
29 17 14
27 19 17
35 21 21
24 15 14
32 15 15
31 21 20
33 15 14
29 27 25
29 22 19
30 21 18
35 26 26
37 26 24
29 18 15
33 19 18
28 23 22
37 25 24
26 17 14
23 18 17
28 15 13
25 20 18
27 14 13
27 14 13
21 16 10
20 15 13
28 14 14
36 28 26
21 18 12
19 12 11
25 20 19
41 20 19
23 21 17
32 31 29
37 33 24
24 18 16
29 24 17
25 24 17
28 24 21
22 20 18
22 13 11
24 27 18
26 30 22
31 27 21
27 37 26
25 48 27
25 50 28
30 57 32
30 56 32
30 59 33
33 55 34
32 54 33
30 46 29
29 54 31
29 53 31
37 60 38
33 58 34
32 57 34
37 58 38
31 51 30
36 58 38
38 59 40
33 53 35
29 51 31
34 57 35
32 52 33
38 57 38
41 60 42
34 53 35
48 61 45
35 54 36
36 57 37
46 66 48
42 60 41
47 63 48
52 67 53
57 73 58
63 80 64
57 71 58
73 85 72
60 77 61
70 81 71
71 84 72
71 84 72
88 101 88
79 91 80
81 94 82
76 89 76
83 92 83
84 95 85
82 93 83
82 96 82
55 87 58
37 79 42
38 80 43
36 74 40
37 76 41
35 73 39
37 75 41
36 71 38
37 74 40
36 72 39
38 71 39
36 71 38
35 69 38
37 69 39
38 70 39
36 70 39
32 60 34
0 0 0
0 0 0
0 0 0
0 0 0
0 0 0
0 0 0
0 0 0
0 0 0
0 0 0
0 0 0
0 0 0
37 10 9
86 23 23
89 24 24
92 25 24
88 23 23
95 26 25
96 26 25
96 24 24
86 24 23
96 25 24
96 24 24
98 25 24
98 25 25
98 25 25
103 27 26
102 26 25
98 62 61
106 84 82
106 82 80
109 92 89
106 84 83
102 84 82
108 90 89
102 87 85
106 90 88
107 85 83
107 90 88
107 92 89
110 92 91
110 94 93
102 84 82
109 92 90
110 91 89
108 90 88
107 89 88
107 94 93
106 87 86
100 85 84
102 86 85
105 91 90
104 90 89
112 95 94
110 95 94
110 90 89
112 98 96
111 93 92
104 94 93
105 90 88
106 94 93
103 91 90
120 105 104
114 98 97
109 93 90
109 98 95
110 94 93
111 98 96
109 97 94
102 95 92
104 97 95
103 91 90
112 107 105
112 99 98
113 98 97
108 98 97
115 101 100
106 94 93
115 96 96
113 100 99
110 100 99
115 105 104
109 97 95
115 105 104
108 96 95
108 96 95
109 101 101
110 98 97
109 102 100
109 99 98
113 101 99
108 94 93
115 105 104
117 100 100
113 103 102
119 107 106
115 103 102
111 100 99
111 102 100
120 110 109
113 102 100
104 97 96
121 115 114
122 112 111
113 101 100
114 106 105
110 102 101
116 105 103
118 108 107
113 101 100
118 110 110
115 105 104
115 107 107
114 108 108
118 112 111
113 104 103
124 109 109
122 106 106
118 109 109
116 112 110
114 109 108
125 112 111
112 102 101
100 91 90
105 97 96
108 96 95
95 88 87
96 90 90
100 93 92
84 78 77
72 66 65
54 48 45
53 25 24
45 26 25
53 31 30
46 18 17
51 33 32
53 22 21
43 21 20
46 28 25
32 23 21
35 22 18
30 18 15
21 6 5
34 13 12
31 13 11
29 16 15
33 18 17
30 17 15
28 13 11
28 13 12
36 20 20
29 21 20
29 16 16
30 21 21
26 10 9
31 23 22
26 14 12
38 17 17
32 18 17
31 19 17
33 17 17
32 12 9
29 21 19
27 14 13
31 22 18
34 23 19
24 15 14
32 16 16
25 13 11
28 17 15
36 26 22
33 20 19
20 18 16
18 16 11
28 24 21
26 16 14
24 17 14
30 29 26
19 17 10
26 20 17
32 26 25
21 15 14
26 18 16
26 23 21
19 21 16
28 18 17
29 23 20
29 28 24
22 21 17
29 29 23
22 21 17
36 38 23
28 54 30
26 47 27
26 49 28
28 49 30
28 52 30
24 45 26
30 56 32
29 55 31
36 53 34
31 54 32
36 61 38
33 53 32
35 55 36
33 58 35
32 52 33
33 48 33
37 54 36
32 47 29
29 50 31
31 50 30
33 52 32
37 59 39
35 57 36
33 56 35
40 62 38
40 60 41
38 56 39
43 58 43
40 59 40
48 68 50
63 77 63
60 76 60
66 80 67
72 83 71
65 77 65
70 81 69
72 87 73
63 75 64
80 91 80
77 87 77
83 94 82
75 88 76
86 96 86
78 89 79
88 98 88
85 94 85
84 94 83
83 95 83
47 82 51
37 78 42
38 77 42
36 75 40
37 75 41
35 70 39
36 71 39
36 73 40
39 72 40
38 72 40
38 73 40
36 71 39
34 66 36
34 64 36
35 68 37
30 57 31
0 0 0
0 0 0
0 0 0
0 0 0
0 0 0
0 0 0
0 0 0
0 0 0
0 0 0
0 0 0
0 0 0
37 10 10
83 23 22
86 23 22
86 23 23
91 25 24
89 23 23
91 24 23
96 26 25
98 26 26
100 26 25
104 26 26
95 26 25
98 25 25
98 26 26
106 27 27
104 59 59
109 87 86
107 89 88
104 86 84
104 88 87
107 86 85
100 87 85
107 87 86
111 89 87
104 85 83
110 89 85
108 92 91
100 88 86
103 86 85
105 94 91
112 87 86
105 90 89
106 90 90
104 85 84
104 85 85
117 99 99
104 91 90
109 93 93
103 88 87
114 102 101
109 91 90
108 95 92
110 100 98
110 95 94
105 91 89
108 93 92
106 91 90
103 89 87
109 100 98
104 97 95
111 97 97
110 102 100
110 96 95
116 98 98
111 101 99
109 100 98
107 99 98
112 104 102
105 99 95
109 91 90
114 99 98
115 105 102
111 99 97
117 107 104
111 102 101
109 99 98
113 101 101
111 94 93
109 99 98
105 98 95
102 94 93
111 99 97
116 106 105
116 109 108
116 106 105
113 102 101
110 101 99
107 102 100
106 99 96
114 107 106
110 98 97
115 103 102
115 103 102
104 98 96
109 100 98
106 102 100
111 97 96
123 112 112
104 97 96
113 104 104
110 103 102
116 106 104
111 100 99
106 97 96
114 103 102
110 104 103
118 105 103
112 105 102
111 100 100
113 104 103
114 105 104
112 105 104
111 103 102
107 101 100
107 100 99
111 104 103
114 110 109
112 106 105
108 99 99
108 101 101
107 101 100
109 104 103
101 92 90
110 101 101
112 100 100
113 107 106
83 77 77
85 76 74
63 58 55
64 51 48
58 51 48
62 51 50
53 35 34
45 37 30
40 29 28
46 31 29
36 26 22
41 23 19
38 16 15
50 23 21
44 19 18
44 16 14
43 17 17
44 16 16
44 36 33
49 32 30
38 22 17
35 21 19
29 24 18
32 17 14
38 29 28
28 14 11
35 16 13
33 17 16
26 9 7
25 16 13
29 16 14
32 17 16
29 18 16
25 12 10
26 16 13
34 24 23
29 19 18
34 16 15
31 14 12
24 19 17
33 16 15
28 21 14
28 11 11
22 17 17
28 14 13
30 10 8
27 23 19
32 25 23
28 23 20
30 19 14
26 20 18
32 19 18
31 23 22
22 16 11
17 16 12
25 22 19
28 24 19
18 26 15
24 28 23
29 18 16
22 16 13
24 23 17
24 24 17
25 15 11
27 35 25
33 50 31
26 50 28
30 56 33
36 54 37
29 51 31
30 52 31
35 49 36
31 57 34
32 55 34
33 55 35
28 48 30
27 49 27
34 58 36
31 49 31
37 58 36
35 57 36
28 51 29
36 59 37
38 56 39
25 50 27
40 57 40
34 52 35
32 53 34
40 58 39
35 56 36
45 65 44
49 64 50
49 63 49
37 57 38
58 76 59
58 75 59
53 66 52
63 78 64
58 74 59
59 73 60
63 79 65
70 82 71
76 91 78
72 84 73
70 83 71
76 87 76
78 89 79
77 89 78
79 90 79
79 93 80
80 90 81
77 92 79
83 94 83
82 94 83
48 81 51
39 79 43
38 80 43
35 73 39
36 72 39
37 72 39
39 73 41
37 73 40
35 69 38
36 69 38
35 70 38
35 66 37
36 68 38
35 66 37
29 55 31
0 0 0
0 0 0
0 0 0
0 0 0
0 0 0
0 0 0
0 0 0
0 0 0
0 0 0
0 0 0
0 0 0
35 9 9
86 24 23
87 24 23
89 23 23
92 23 23
97 26 25
92 25 24
97 26 25
93 24 24
98 26 25
93 25 24
102 27 26
98 26 25
101 27 26
110 67 66
104 87 85
99 82 81
102 78 78
102 85 84
106 86 85
109 90 89
109 89 88
101 86 85
102 85 83
98 88 85
102 87 86
107 88 87
107 95 93
104 87 86
104 86 85
102 88 85
106 92 90
101 87 85
104 92 90
104 85 85
110 91 91
104 91 90
104 90 88
103 90 89
106 88 88
109 93 92
104 90 89
112 96 94
112 102 101
104 92 91
106 93 92
104 94 93
107 98 95
109 94 93
109 92 91
104 90 89
98 90 87
108 98 96
113 104 102
103 94 93
113 98 96
108 97 95
105 99 98
101 91 89
106 96 94
103 96 94
111 100 98
108 97 95
116 102 101
107 94 94
104 93 92
105 97 95
113 103 101
115 102 101
111 100 99
120 105 104
108 100 98
106 101 98
107 97 96
111 98 98
113 105 103
108 103 100
110 103 101
106 95 94
121 113 111
113 99 97
105 93 93
113 105 103
108 100 99
111 101 99
113 107 105
111 104 104
108 102 101
107 99 98
109 101 101
110 99 97
112 102 101
117 105 105
118 110 109
106 99 98
110 101 100
107 98 97
115 107 105
111 104 103
107 100 98
117 106 105
110 104 102
105 97 96
119 112 111
105 99 98
107 102 101
108 99 98
114 102 100
112 103 102
100 95 94
104 97 96
100 95 93
100 93 92
102 92 92
96 87 86
108 96 95
86 75 73
82 75 75
72 59 59
76 60 58
60 44 42
47 43 40
49 40 35
57 31 29
64 40 39
52 40 38
41 32 29
34 28 26
39 28 26
58 27 25
35 22 20
38 21 15
48 26 24
32 17 17
47 33 30
37 21 20
33 21 17
29 19 16
35 17 15
29 25 20
29 26 22
35 17 14
32 23 20
42 28 26
37 22 20
18 11 7
34 14 13
30 13 10
19 19 13
24 19 18
36 15 11
18 14 11
29 20 15
30 18 14
31 15 13
39 21 19
33 21 20
22 13 13
27 22 18
34 21 18
28 14 13
23 10 8
20 13 13
34 15 12
17 13 13
23 11 8
32 26 23
25 19 17
19 14 12
26 10 10
33 25 22
22 19 14
23 16 14
29 16 12
27 13 9
32 19 12
35 21 17
14 10 6
27 22 15
25 23 15
38 35 28
24 47 26
32 55 34
28 53 30
27 46 28
24 45 25
32 54 33
30 52 30
27 51 29
25 44 27
24 49 27
24 43 24
27 46 27
30 48 32
33 56 35
28 51 30
37 57 37
30 56 33
33 54 34
36 56 37
32 51 32
27 52 29
33 54 35
40 60 40
44 58 44
35 52 36
44 65 46
47 63 47
49 69 50
50 67 51
47 61 48
57 70 57
59 70 59
58 73 59
63 80 64
69 80 69
62 73 62
69 83 70
60 70 60
66 79 67
76 88 77
81 92 81
75 84 76
84 95 83
82 91 81
78 89 78
84 95 84
83 95 83
81 90 81
86 97 86
85 99 85
44 78 47
37 76 42
39 79 43
36 74 40
38 73 40
35 71 38
37 74 40
36 71 39
37 67 37
35 68 37
34 66 37
34 64 36
36 67 37
28 49 27
0 0 0
0 0 0
0 0 0
0 0 0
0 0 0
0 0 0
0 0 0
0 0 0
0 0 0
0 0 0
0 0 0
28 8 7
87 23 23
89 24 24
85 24 22
91 24 24
92 24 23
96 26 25
91 24 24
92 24 23
95 24 24
98 25 25
96 26 25
103 27 27
106 74 73
108 83 81
103 89 87
113 88 85
105 89 88
99 81 79
103 83 82
109 91 90
101 84 82
105 85 85
109 86 85
105 86 84
99 87 85
102 89 86
106 92 90
108 89 88
112 92 91
101 87 86
101 87 85
109 88 87
111 87 86
104 93 91
103 89 87
101 87 85
106 93 91
113 93 92
104 94 93
108 91 89
110 100 98
109 94 92
104 92 91
111 105 103
107 98 95
102 92 92
109 97 95
108 95 94
101 90 89
108 92 91
111 94 93
107 92 90
104 95 93
104 91 90
102 94 91
106 92 91
107 91 90
105 91 90
105 89 89
103 94 93
104 93 92
103 94 92
106 98 96
105 96 95
101 93 91
112 98 97
112 104 102
107 100 98
104 92 91
110 96 95
111 98 97
109 95 93
114 105 103
108 95 94
111 103 101
108 98 98
116 102 101
102 92 91
109 97 96
116 106 105
109 98 95
109 103 102
108 100 99
109 98 97
109 96 95
109 101 100
103 97 96
102 93 92
110 101 101
105 96 95
107 102 100
105 98 97
109 106 105
104 95 92
107 101 99
112 104 103
109 104 102
109 99 99
110 105 103
113 101 100
114 106 106
104 98 97
102 100 98
116 107 106
116 106 105
111 105 104
110 100 98
110 97 96
105 97 95
102 96 95
111 105 104
98 88 87
95 87 86
87 79 77
87 79 78
79 76 74
92 84 82
72 62 62
71 60 58
53 44 42
56 42 40
47 35 34
48 38 36
53 44 42
46 18 15
57 41 40
53 32 31
40 36 35
36 20 20
49 40 32
50 37 35
52 42 40
44 26 22
53 33 27
32 21 18
47 22 22
43 29 27
45 32 29
39 26 24
35 22 20
45 36 33
25 17 13
45 33 29
43 27 25
31 24 20
43 15 13
53 34 32
27 20 15
32 22 18
35 28 26
39 31 26
35 22 19
34 24 18
35 26 24
37 23 21
30 28 25
29 25 20
36 19 17
34 17 13
33 25 22
25 19 14
37 29 25
37 18 13
24 17 16
23 16 15
25 7 7
22 14 11
33 24 22
23 16 15
24 13 12
31 23 22
30 19 14
18 16 14
27 29 25
21 19 16
30 30 22
18 14 8
30 26 19
26 22 17
28 40 25
26 50 28
23 44 24
31 49 33
29 54 32
30 52 32
37 58 38
24 46 26
26 46 28
33 55 34
38 63 40
33 61 35
26 44 25
30 53 32
31 51 33
30 50 31
32 48 30
29 53 30
34 51 32
33 56 34
31 55 34
34 51 34
34 52 35
38 53 35
33 58 36
34 53 35
39 55 39
54 73 56
44 60 45
50 65 51
56 73 58
56 72 56
52 69 53
58 69 57
66 79 65
60 72 60
69 82 69
74 84 73
74 86 72
75 85 75
80 91 80
74 84 74
77 87 77
81 92 81
80 91 81
80 92 81
83 94 83
82 92 82
89 96 88
86 96 86
84 96 85
77 91 78
54 82 55
38 79 43
39 77 43
37 77 41
38 76 42
36 68 38
37 73 41
36 70 39
35 69 38
35 71 38
33 66 36
33 64 36
29 55 30
0 0 0
0 0 0
0 0 0
0 0 0
0 0 0
0 0 0
0 0 0
0 0 0
0 0 0
0 0 0
0 0 0
34 9 9
85 23 22
88 23 23
93 25 24
96 26 25
90 24 24
95 25 24
95 26 25
98 25 25
101 26 26
98 26 26
97 24 24
106 71 69
105 84 82
100 85 82
101 80 78
99 81 79
97 82 82
105 88 85
105 85 84
101 86 85
101 84 83
107 89 88
108 87 85
101 78 78
104 84 83
103 88 85
103 87 86
104 87 86
103 85 84
108 91 90
102 83 83
105 90 87
100 86 84
107 88 87
98 83 83
99 88 87
106 94 91
112 99 97
104 94 93
104 87 86
104 91 89
106 94 92
104 93 92
107 94 92
108 98 96
104 90 89
100 88 85
106 94 92
102 96 92
97 86 85
105 95 93
98 90 88
115 96 94
99 89 87
112 98 97
109 99 97
104 97 94
105 96 93
101 92 90
114 100 99
107 95 95
115 101 100
101 93 90
106 95 94
107 99 98
103 95 92
94 86 85
102 90 89
99 88 86
101 94 93
109 101 99
109 94 94
102 96 95
111 98 97
106 95 94
113 98 96
110 99 98
125 110 109
103 96 93
103 93 92
103 96 95
111 100 99
110 102 100
108 98 97
103 96 95
105 99 98
107 97 96
112 101 100
109 97 95
109 101 99
100 97 95
106 99 97
99 93 92
114 106 105
108 99 97
109 99 97
111 103 102
105 98 97
108 99 98
109 97 97
109 104 102
110 102 101
109 103 100
112 105 104
111 106 105
103 95 94
103 95 93
108 101 100
97 92 91
98 87 86
96 88 86
98 88 87
99 91 90
88 76 76
82 79 77
82 78 76
81 75 73
75 64 62
80 70 69
76 67 64
64 57 54
55 45 42
56 47 44
52 44 41
59 45 44
51 37 35
52 36 34
55 39 34
37 34 31
45 30 28
41 23 20
38 26 24
47 38 30
49 29 26
43 26 21
39 29 24
50 26 24
39 22 18
37 25 22
41 23 20
38 18 16
39 26 17
27 21 19
45 30 26
35 19 17
25 21 17
33 23 19
34 25 22
36 25 19
33 28 24
34 26 24
26 23 20
38 27 24
32 19 15
32 20 18
35 20 18
43 30 28
34 17 12
40 22 20
26 20 16
23 23 18
35 17 15
25 16 12
19 11 7
32 17 13
28 18 15
29 14 11
39 24 22
27 23 18
29 21 16
34 25 22
19 15 11
29 21 19
32 25 19
24 23 21
18 19 11
27 22 20
26 21 15
16 19 11
20 36 20
25 45 25
27 51 29
26 49 29
30 48 29
28 47 28
26 44 25
27 45 28
31 47 29
28 48 29
35 54 35
32 46 30
33 53 33
29 49 30
32 44 28
27 49 29
32 49 30
30 54 32
28 50 30
29 48 30
29 50 29
27 46 27
31 52 31
41 52 39
33 52 35
37 53 36
41 58 38
37 54 38
41 56 42
52 67 51
57 70 56
62 74 62
65 77 65
56 69 56
65 73 64
71 82 72
65 78 66
74 85 73
68 83 68
66 77 67
71 82 70
79 89 79
79 88 79
78 92 80
84 94 85
77 85 76
82 93 82
85 95 85
83 92 83
88 95 86
86 95 85
86 95 85
82 92 80
48 80 51
36 73 40
40 80 43
37 74 40
37 73 40
38 74 41
37 70 39
35 70 38
36 70 39
35 68 38
34 66 37
31 61 33
0 0 0
0 0 0
0 0 0
0 0 0
0 0 0
0 0 0
0 0 0
0 0 0
0 0 0
0 0 0
0 0 0
47 13 13
86 24 23
89 24 24
91 25 24
90 24 24
95 25 25
94 24 24
95 25 25
97 25 24
97 26 25
96 25 24
95 54 53
109 87 86
104 86 84
102 85 83
106 81 79
101 86 85
101 85 82
104 88 85
102 87 85
99 83 82
103 85 84
99 84 82
102 84 82
100 82 82
103 90 88
105 85 83
103 83 82
106 91 88
99 89 86
103 89 88
108 93 90
106 88 87
102 86 84
106 88 87
100 87 84
106 93 92
105 95 93
104 92 91
104 88 87
100 87 84
108 91 89
101 92 90
113 96 95
105 97 93
95 86 85
103 94 92
102 86 86
98 83 83
101 89 87
107 101 99
101 88 86
107 97 95
108 95 93
106 92 91
116 103 102
104 97 94
95 89 86
108 98 97
102 93 91
108 97 96
111 98 98
107 97 94
105 95 94
107 95 93
107 98 96
109 96 96
99 93 89
106 97 96
101 95 94
105 98 96
102 92 92
113 104 104
109 98 97
109 97 96
113 106 104
110 101 100
103 90 89
102 95 94
107 101 99
104 95 94
105 98 96
108 94 94
110 104 104
104 97 96
104 98 96
101 91 90
103 92 91
103 94 93
110 103 101
106 98 97
104 95 94
109 100 98
105 97 96
115 105 103
105 100 98
108 101 100
109 103 102
99 93 92
103 95 94
105 99 97
107 101 100
114 98 98
114 103 102
107 100 99
106 99 98
100 97 96
107 97 95
103 92 91
97 92 90
94 87 86
94 85 83
88 82 81
96 88 86
93 87 85
94 86 85
91 81 80
77 72 69
73 62 61
83 71 70
80 71 70
66 57 55
73 60 59
64 51 50
58 45 43
66 52 52
54 39 37
42 31 28
53 43 37
54 39 37
50 46 45
54 45 43
43 39 33
43 26 24
60 37 35
43 25 22
45 34 31
36 25 22
45 31 24
41 21 16
35 19 19
47 26 23
39 24 18
46 31 25
35 26 21
31 29 20
50 32 30
33 24 18
36 29 24
44 34 30
36 25 20
46 33 30
35 26 18
35 24 24
47 35 29
37 28 23
26 20 16
37 27 25
34 22 18
33 23 15
35 26 19
35 24 19
27 28 22
29 35 24
27 24 17
31 25 19
34 27 21
19 20 12
37 26 21
35 29 20
32 27 21
23 26 16
31 18 12
29 23 16
21 32 18
25 25 19
25 26 15
17 22 14
21 33 19
29 31 20
33 41 26
34 47 28
42 48 34
35 51 33
35 49 35
35 48 30
32 44 24
28 36 21
31 47 27
26 47 28
24 41 23
35 48 31
27 45 28
42 56 38
29 44 26
28 53 30
38 55 36
32 47 32
34 45 33
35 49 32
27 45 28
32 51 34
40 53 35
38 49 36
38 56 38
40 58 41
48 59 48
41 57 41
48 61 48
54 66 55
55 70 56
57 66 55
61 72 60
64 75 62
63 74 63
60 72 58
78 85 77
67 77 65
72 84 72
71 81 71
76 88 76
75 85 75
82 90 80
80 88 80
82 89 80
89 94 87
83 90 83
84 91 82
88 95 87
79 90 80
82 96 83
85 91 83
85 92 85
81 92 81
48 76 50
38 76 42
37 73 40
38 75 41
36 72 39
36 70 39
35 72 39
35 67 37
36 68 38
32 64 35
29 54 30
0 0 0
0 0 0
0 0 0
0 0 0
0 0 0
0 0 0
0 0 0
0 0 0
0 0 0
0 0 0
0 0 0
35 9 9
88 25 24
90 24 24
92 24 24
90 24 23
92 24 24
95 24 24
98 26 25
99 26 25
102 26 26
100 66 66
100 85 83
99 82 81
104 81 81
104 86 84
107 89 87
92 79 77
102 90 89
102 86 84
100 86 83
101 89 85
102 87 87
100 84 82
97 84 83
100 83 82
100 88 86
98 86 85
105 89 87
105 91 89
101 90 88
101 88 86
100 87 84
100 88 86
106 91 90
107 90 89
105 88 86
100 89 88
102 89 87
109 94 94
102 88 87
103 88 88
107 88 87
106 92 91
105 91 90
99 87 85
105 93 92
97 82 81
105 95 94
107 92 90
111 104 102
104 88 87
107 96 95
110 96 95
99 89 88
104 93 91
103 87 85
100 90 88
111 101 100
111 99 97
104 90 89
104 90 88
103 89 88
105 95 94
100 89 88
108 99 98
106 98 97
105 97 95
106 93 91
100 88 88
105 96 94
94 87 84
95 91 87
107 99 98
113 98 98
105 93 91
107 97 96
97 92 89
106 101 99
103 93 92
103 98 97
108 101 99
92 86 84
105 95 93
106 100 98
108 103 101
111 103 102
102 95 94
113 105 104
100 96 94
105 100 98
103 98 97
105 101 100
104 97 96
113 106 105
112 106 104
110 102 102
99 92 91
104 97 96
107 101 100
105 98 97
106 100 99
100 93 92
105 94 93
102 95 93
110 104 103
106 101 100
109 99 99
103 95 92
102 96 93
97 89 88
99 93 93
97 94 92
100 93 92
89 85 83
90 84 83
93 86 85
92 85 83
76 69 68
75 67 65
84 74 73
78 69 68
79 70 69
75 67 65
78 72 69
62 53 52
79 71 70
60 50 47
63 53 49
65 47 46
60 48 43
57 49 45
61 53 49
58 49 46
58 49 46
49 43 39
56 49 46
44 36 34
58 43 41
44 42 35
47 41 36
34 23 21
47 42 37
40 26 23
46 32 28
47 38 35
52 40 35
40 36 33
35 28 21
41 28 20
39 24 19
40 30 25
40 30 24
28 13 11
34 27 22
34 27 24
35 26 19
44 28 24
38 21 16
29 22 15
35 27 22
40 36 28
39 22 20
35 30 25
35 20 14
29 27 22
31 24 17
39 39 30
34 43 29
38 25 22
29 21 14
33 31 19
29 34 23
28 27 17
26 38 25
36 31 22
34 30 18
26 37 22
32 42 27
32 35 22
28 38 22
42 35 26
37 45 32
43 49 31
35 40 24
27 47 28
40 45 35
27 42 27
29 43 27
28 40 24
35 48 30
51 61 47
31 43 27
41 50 31
25 40 23
27 40 24
35 49 31
29 45 26
32 51 31
33 42 28
32 54 33
38 58 34
39 55 35
31 48 30
43 54 40
33 48 32
27 43 28
53 60 45
56 63 51
53 63 50
49 63 45
58 73 59
61 73 60
60 73 60
65 76 65
63 73 62
65 74 64
67 75 67
72 82 71
76 85 75
74 85 75
78 86 77
77 87 77
78 87 78
78 87 77
84 92 82
84 89 80
82 90 81
80 90 79
82 91 81
85 89 82
83 93 83
85 95 84
84 91 82
82 92 82
81 95 82
44 77 47
35 72 39
37 73 40
37 73 40
38 72 40
36 72 39
37 69 38
34 65 36
36 68 38
31 58 31
0 0 0
0 0 0
0 0 0
0 0 0
0 0 0
0 0 0
0 0 0
0 0 0
0 0 0
0 0 0
0 0 0
41 11 10
84 23 22
88 24 23
87 23 23
98 26 25
94 25 24
98 26 26
104 27 27
98 26 25
96 62 61
97 85 81
101 85 83
102 85 83
97 84 82
104 85 83
102 85 84
100 80 79
100 83 82
99 80 79
103 89 86
104 87 86
102 81 80
92 82 80
100 86 84
107 95 92
94 84 81
103 87 85
103 92 90
99 84 83
106 86 85
105 90 87
100 84 83
92 82 80
101 85 84
95 79 78
101 92 90
106 98 97
99 88 86
102 92 89
99 90 88
97 84 82
100 88 86
98 89 87
101 91 89
100 89 88
101 91 89
104 87 86
103 93 91
103 96 95
97 86 85
100 91 90
100 89 88
105 92 90
100 91 90
103 92 91
114 100 99
97 86 84
102 95 93
116 108 107
99 86 85
101 95 93
108 99 97
102 93 91
102 96 94
106 102 98
107 95 94
97 87 87
99 88 86
97 91 90
110 95 94
97 90 88
106 97 93
107 98 97
107 97 95
98 93 90
111 100 99
108 94 93
105 95 94
106 98 97
107 94 93
102 95 93
104 95 94
101 92 91
105 99 97
104 94 92
105 99 97
103 95 94
102 97 95
103 97 94
102 96 93
110 101 100
104 91 90
104 93 92
101 95 93
104 98 97
95 92 91
102 96 94
102 96 95
104 99 97
99 95 94
106 95 94
101 92 90
102 90 89
101 94 93
100 96 95
104 97 94
98 88 87
103 97 95
101 95 94
98 92 90
93 86 85
88 86 84
88 85 82
97 90 88
98 94 92
96 91 89
91 85 84
89 82 80
93 84 82
90 78 77
86 79 77
88 84 81
82 76 74
76 69 68
79 66 65
82 72 71
70 63 62
69 60 59
65 60 56
72 64 62
72 67 65
75 69 67
74 59 56
61 56 54
52 50 47
63 51 50
70 57 56
60 47 46
52 44 40
46 39 36
55 49 47
46 29 26
45 39 36
60 46 43
52 40 39
42 32 26
48 47 42
42 37 34
34 29 23
51 40 36
43 37 32
33 19 16
43 37 31
45 41 34
39 34 29
38 34 26
38 40 32
38 32 25
31 32 23
35 31 25
38 34 29
44 42 36
36 30 27
19 24 13
31 32 21
35 33 25
31 35 27
30 38 25
37 34 24
39 36 30
44 28 22
35 39 28
43 31 24
43 38 33
33 33 25
32 37 24
28 36 22
26 37 22
28 39 22
35 39 25
34 41 27
41 47 32
31 43 25
42 45 34
33 46 29
38 39 23
45 37 26
32 37 23
30 44 29
32 47 29
41 45 34
36 46 32
27 40 22
40 45 35
47 53 35
40 44 31
42 50 35
28 42 25
35 49 32
33 51 32
37 43 30
33 54 33
44 52 35
36 47 32
42 57 42
41 57 38
46 61 45
40 52 36
47 61 46
54 66 53
55 61 53
59 70 57
67 75 66
57 66 56
65 71 62
71 80 71
71 78 70
69 80 69
79 86 79
78 83 74
67 76 67
77 86 76
80 90 78
75 83 73
81 85 77
84 90 82
82 91 82
89 94 86
84 94 84
86 91 83
89 98 89
80 91 80
82 91 81
88 95 87
84 95 84
81 93 81
46 75 47
37 75 41
36 72 39
37 70 39
35 68 38
37 71 39
37 70 39
34 65 36
32 61 34
0 0 0
0 0 0
0 0 0
0 0 0
0 0 0
0 0 0
0 0 0
0 0 0
0 0 0
0 0 0
0 0 0
52 14 14
88 24 23
90 24 24
87 23 22
96 25 25
93 25 24
96 25 25
99 25 25
105 66 65
98 80 79
100 81 80
93 76 75
96 80 79
105 89 87
102 82 81
102 90 89
95 79 78
99 86 85
95 80 78
100 86 83
96 82 81
97 83 80
102 94 93
102 92 90
96 85 83
93 79 77
97 83 82
99 82 81
98 88 85
97 92 89
98 85 84
97 85 84
110 90 88
98 82 80
100 94 92
105 88 87
103 91 89
98 86 85
96 88 87
106 94 93
102 88 87
98 86 86
96 85 84
96 87 86
99 89 88
98 86 85
101 91 90
104 97 96
98 90 89
102 88 87
102 88 87
102 93 92
103 94 92
108 98 95
105 92 91
105 97 96
99 89 88
98 87 86
104 92 91
93 87 85
98 91 89
101 88 86
105 95 93
104 97 94
100 92 92
112 99 98
108 98 97
102 95 92
112 103 101
100 92 90
97 88 87
96 88 87
106 95 93
101 92 92
105 99 98
105 100 98
94 88 85
106 98 96
99 92 89
105 91 90
100 94 92
103 91 90
99 91 90
112 105 103
110 101 100
104 96 95
100 91 90
108 100 99
107 101 99
105 99 97
108 95 94
104 95 94
107 96 95
103 97 95
101 94 93
99 93 92
102 94 92
105 99 97
104 99 97
104 97 95
103 98 95
101 97 95
100 95 93
100 94 93
103 99 96
107 97 96
105 95 93
98 94 93
100 89 87
99 90 89
102 96 95
92 87 86
97 89 88
104 91 90
94 89 87
101 94 93
101 94 93
95 87 85
93 89 87
95 88 86
83 80 78
95 84 83
75 68 67
74 72 70
83 75 73
83 80 77
75 69 69
82 76 74
89 85 83
74 65 64
75 74 71
72 66 65
84 73 73
74 66 62
65 64 61
71 67 64
64 61 57
76 70 68
61 58 55
68 63 59
64 60 58
51 50 45
63 61 58
63 57 55
68 65 61
57 50 48
60 51 48
52 50 45
62 51 49
51 46 42
55 56 50
47 38 35
52 47 44
34 28 24
44 30 25
47 36 30
41 44 35
53 46 41
49 46 40
41 41 34
45 33 28
41 39 31
45 32 25
31 30 20
46 27 20
25 32 20
49 42 36
21 23 16
27 34 23
33 34 26
37 39 27
33 32 23
38 34 24
30 35 22
41 41 30
33 39 27
33 42 25
40 37 28
32 37 23
35 34 20
31 43 25
30 38 26
35 41 24
43 48 32
32 42 24
41 42 29
33 42 27
30 44 29
45 51 38
36 45 29
31 40 26
43 51 35
41 44 28
37 45 28
28 43 26
43 51 36
37 52 33
42 44 33
40 42 29
34 48 32
35 43 28
24 44 25
40 47 31
36 43 28
40 54 37
46 53 37
44 60 44
55 64 53
47 53 42
62 72 60
58 66 54
55 67 55
56 67 54
54 66 52
68 75 66
72 75 66
72 81 69
73 81 71
70 81 70
78 85 75
79 83 76
80 86 78
83 89 82
80 87 78
83 90 83
82 86 80
82 94 83
82 89 81
80 86 78
79 86 78
81 90 81
84 92 83
87 96 87
77 88 77
86 95 86
83 91 81
82 91 80
47 75 48
39 76 42
35 70 38
39 77 42
35 69 38
35 66 37
36 67 37
31 61 34
0 0 0
0 0 0
0 0 0
0 0 0
0 0 0
0 0 0
0 0 0
0 0 0
0 0 0
0 0 0
0 0 0
44 12 12
93 24 24
85 22 22
87 23 23
89 24 23
95 25 25
93 24 24
96 50 50
101 83 83
99 82 81
97 82 81
101 86 85
102 90 87
99 81 80
103 86 85
98 84 82
98 85 84
102 84 83
95 81 80
100 85 84
105 89 87
102 88 86
97 83 81
96 85 83
95 80 79
97 80 79
101 90 89
103 94 92
101 91 89
97 84 82
94 81 81
99 85 85
92 85 83
96 87 84
100 87 86
98 85 84
102 89 88
105 93 92
99 90 87
100 84 82
103 88 86
99 89 88
102 90 88
106 93 92
106 92 91
91 85 84
101 91 90
101 90 88
102 89 86
107 93 92
94 85 84
98 91 90
103 93 92
94 86 84
104 95 93
111 94 92
106 96 94
106 97 95
108 97 95
103 95 94
98 88 86
93 87 85
101 88 87
105 95 94
106 97 96
108 97 96
93 88 86
100 93 90
100 95 92
98 89 87
96 88 85
100 91 89
100 91 89
109 98 96
97 87 87
102 95 94
105 94 93
99 91 89
107 97 97
102 95 94
97 88 87
100 91 90
99 91 90
103 94 93
99 90 88
105 97 95
99 91 90
103 95 93
100 93 91
106 95 93
104 99 96
97 89 88
102 97 96
94 87 86
108 99 98
104 95 94
98 94 92
99 95 94
97 91 91
99 95 92
101 94 92
104 98 97
105 95 93
102 94 93
100 92 91
100 95 93
99 94 92
96 92 91
91 84 84
94 86 85
97 91 89
105 97 95
103 98 96
103 96 94
102 93 92
107 97 95
98 92 90
96 89 88
92 89 86
93 90 89
96 89 88
98 92 91
97 94 92
89 81 79
93 90 87
84 80 78
86 77 75
87 83 82
82 78 77
85 81 78
85 80 78
80 72 71
79 73 71
83 74 73
81 77 75
86 80 77
80 74 71
79 72 69
82 75 73
70 69 66
74 70 68
73 68 65
71 67 66
70 63 60
79 75 71
65 58 56
57 53 52
61 54 52
61 57 55
66 61 59
61 58 54
66 63 58
65 57 55
59 54 51
62 58 53
52 55 50
63 63 59
65 59 57
57 53 47
56 53 48
47 45 39
55 55 50
40 44 38
49 46 39
47 44 37
44 44 38
45 42 38
41 32 25
44 43 36
33 37 29
50 32 24
34 35 26
33 26 19
43 37 28
46 35 26
35 40 25
45 45 36
46 47 34
36 38 26
38 43 31
34 39 29
45 41 28
38 48 33
34 46 26
30 44 31
35 49 30
40 48 37
36 34 22
36 44 34
35 44 27
43 46 29
34 40 25
36 55 36
28 36 22
34 38 23
32 38 24
39 45 34
35 46 31
40 48 35
32 49 28
38 48 33
38 44 32
36 54 37
37 44 34
50 61 48
47 53 43
40 55 40
55 57 48
49 55 46
50 60 46
58 69 57
55 67 54
58 71 57
64 71 64
60 68 59
67 76 65
65 76 64
67 72 62
70 77 68
72 80 71
74 82 74
74 81 73
76 84 74
79 88 79
86 89 81
84 91 83
83 90 82
83 88 81
82 87 81
83 89 82
82 92 82
86 92 83
81 88 82
83 88 80
78 88 77
82 92 82
85 92 83
78 85 76
50 75 52
37 73 40
37 71 39
36 72 40
36 70 39
36 68 38
30 59 33
0 0 0
0 0 0
0 0 0
0 0 0
0 0 0
0 0 0
0 0 0
0 0 0
0 0 0
0 0 0
0 0 0
37 10 10
84 22 22
90 24 23
90 24 23
89 24 23
93 24 24
102 58 58
99 81 80
102 85 84
102 85 82
95 81 79
94 83 81
103 89 89
97 78 76
99 81 80
98 80 80
97 88 85
99 80 79
96 81 80
90 83 80
90 80 78
99 86 84
100 92 89
93 87 84
103 94 92
95 84 82
95 82 81
98 86 84
94 82 81
96 85 83
94 85 84
104 89 87
98 86 85
107 89 88
99 89 88
103 88 87
97 83 82
94 80 79
98 89 88
97 80 79
98 88 87
90 79 79
100 87 85
107 99 97
94 82 81
95 88 86
97 88 86
98 88 86
103 90 88
101 88 87
92 80 79
106 92 91
101 86 85
100 94 92
98 88 87
102 92 90
99 91 88
97 86 84
96 89 88
110 96 96
98 90 88
99 85 85
96 93 90
102 93 93
102 91 90
99 88 87
103 95 94
101 92 90
103 93 91
94 86 85
96 89 87
99 92 90
100 90 89
97 87 86
101 92 90
96 91 89
100 97 94
99 93 93
108 99 98
96 89 88
107 93 92
108 97 95
105 95 93
99 93 92
104 96 96
105 95 94
104 94 92
98 88 87
101 90 89
92 81 81
100 91 90
101 98 97
104 95 94
99 93 92
100 93 91
106 99 96
102 95 93
95 90 87
100 91 90
101 98 96
100 91 90
98 94 92
105 99 97
99 92 91
102 95 94
99 91 89
90 86 84
102 95 94
96 92 90
97 87 87
101 96 94
104 93 92
94 87 86
96 93 91
97 93 92
94 89 88
94 92 89
95 93 91
99 98 96
96 93 92
90 87 84
96 93 92
90 84 82
94 83 82
93 88 87
96 84 84
90 89 87
84 80 78
91 83 82
95 91 88
85 83 79
82 81 78
78 74 72
92 85 83
84 80 79
91 82 80
94 87 86
90 80 79
82 72 70
84 80 79
79 70 69
81 79 73
83 79 77
72 63 62
81 75 73
81 74 72
83 79 76
76 74 72
80 79 75
70 63 60
74 66 64
69 64 61
66 59 56
73 65 63
61 60 58
81 75 72
70 65 62
57 51 48
61 57 53
74 72 67
67 66 60
61 57 54
52 46 41
51 44 42
55 47 43
56 54 49
53 56 48
51 53 45
56 48 45
54 53 44
51 50 41
48 48 38
43 46 38
51 58 50
36 40 33
36 44 32
46 45 35
42 47 37
40 45 32
45 45 37
38 51 31
53 49 40
36 40 27
45 45 36
42 48 32
42 42 30
40 44 27
37 44 26
28 38 23
24 36 22
34 40 26
46 46 32
35 34 21
38 41 28
26 37 25
29 38 26
32 44 26
36 38 26
37 48 32
38 41 27
30 44 27
38 47 34
35 48 28
36 51 36
41 43 28
54 64 54
53 57 44
56 59 47
47 55 43
63 70 59
55 61 50
65 71 62
64 69 58
57 63 54
66 73 65
72 77 68
71 78 69
68 70 64
73 82 73
81 89 78
76 83 76
73 76 68
82 88 80
75 83 75
84 90 82
90 96 90
86 90 84
87 94 86
83 90 82
81 85 79
81 89 81
78 86 79
84 88 82
87 95 87
82 90 81
86 91 82
79 90 79
79 86 78
82 91 80
43 72 43
38 77 42
36 69 38
38 72 39
35 66 37
31 58 33
0 0 0
0 0 0
0 0 0
0 0 0
0 0 0
0 0 0
0 0 0
0 0 0
0 0 0
0 0 0
0 0 0
40 9 9
83 22 22
93 24 23
89 23 22
95 25 25
94 58 57
99 79 79
94 78 76
94 78 76
102 78 78
96 84 82
96 81 79
93 79 79
97 84 83
100 83 82
98 81 79
99 86 85
104 91 89
95 83 80
96 86 85
98 88 87
100 88 86
95 83 81
104 85 85
97 85 84
95 89 87
96 83 82
100 87 83
93 82 81
92 82 80
100 82 80
98 86 85
95 85 81
104 91 88
96 83 80
92 84 83
102 89 88
104 87 85
96 84 82
98 87 84
102 91 90
107 95 93
96 85 84
95 83 82
97 85 84
102 93 90
98 91 89
99 88 88
92 84 83
97 90 89
96 84 84
100 90 88
97 85 83
94 85 84
98 88 86
96 88 86
93 86 85
98 89 87
102 95 93
98 90 88
100 89 87
96 86 86
98 93 91
101 93 91
98 91 89
102 89 88
101 95 93
97 95 91
105 94 94
102 92 91
103 93 91
103 93 92
98 91 89
97 87 86
95 89 87
104 100 96
98 89 88
104 97 95
108 99 98
100 95 93
93 89 86
98 90 89
100 91 89
96 91 89
101 93 92
97 91 91
104 95 93
102 98 96
105 96 94
98 91 89
99 97 96
98 93 91
103 96 95
103 96 94
97 92 91
89 85 84
90 90 89
103 91 91
97 88 86
96 90 89
97 93 90
98 94 93
97 91 89
96 89 88
103 98 96
99 97 94
100 95 94
97 90 88
92 89 88
98 91 89
100 94 92
97 89 88
94 88 86
104 94 93
100 91 91
101 98 95
95 87 87
101 98 95
99 92 91
92 89 88
98 94 91
92 89 87
96 88 87
96 92 91
98 90 89
92 87 85
96 92 91
89 85 84
96 87 87
94 86 84
88 86 82
100 97 95
91 85 84
89 85 82
91 83 82
95 89 86
92 86 84
86 82 79
85 75 74
82 78 75
80 75 73
90 87 86
84 81 78
86 75 73
87 83 79
76 74 70
80 80 77
84 76 75
71 67 64
72 70 66
80 75 74
76 76 74
71 66 64
78 76 73
72 69 67
86 81 78
67 63 61
77 67 65
70 64 62
63 68 62
68 68 65
66 67 63
68 69 62
62 60 55
69 72 66
61 61 57
57 55 51
66 65 58
57 59 52
65 66 61
49 53 47
63 61 57
48 52 40
62 58 52
42 41 34
49 53 46
54 56 49
58 55 49
54 57 49
60 62 54
51 58 50
41 44 37
48 55 41
42 45 35
51 46 35
40 47 35
55 61 52
50 44 32
42 48 35
47 52 41
23 35 21
37 44 29
31 38 26
44 45 30
37 43 29
28 43 27
30 44 29
39 46 33
47 50 41
36 46 33
26 43 25
37 45 34
43 48 37
43 41 33
41 48 37
52 55 44
30 49 32
46 57 46
57 65 53
48 61 47
58 65 55
62 69 60
65 67 56
73 77 68
68 69 64
61 65 59
68 73 65
75 78 72
66 76 66
72 77 70
75 78 71
84 88 81
79 85 77
81 83 78
83 91 82
80 89 79
83 87 78
87 92 85
83 90 83
80 86 78
80 87 78
86 93 85
83 88 81
80 88 81
82 86 79
77 84 76
81 88 80
81 87 79
82 91 81
75 87 75
45 73 46
36 71 39
33 65 36
34 66 37
28 54 30
0 0 0
0 0 0
0 0 0
0 0 0
0 0 0
0 0 0
0 0 0
0 0 0
0 0 0
0 0 0
0 0 0
44 12 11
86 24 23
84 22 22
97 26 25
99 56 55
95 83 80
94 83 79
94 86 84
94 76 74
100 84 82
97 88 85
95 84 84
94 83 80
92 79 76
97 85 84
94 78 77
92 81 79
91 82 80
92 80 78
97 85 84
95 85 84
95 84 83
91 80 80
100 88 86
90 83 81
94 84 82
94 81 79
98 89 87
95 77 77
96 85 83
93 79 78
91 81 80
95 89 89
90 80 78
99 91 89
96 82 80
98 88 87
89 82 79
96 86 85
95 87 86
98 85 83
98 88 86
102 93 91
102 91 89
97 89 87
98 88 86
99 88 86
102 88 86
97 89 88
91 87 85
101 94 92
95 86 85
97 88 87
97 88 87
99 89 87
97 86 86
99 90 88
98 93 92
100 93 92
100 91 90
103 94 90
97 85 84
105 96 95
98 89 88
100 94 93
93 86 85
96 88 87
98 91 90
92 87 85
98 95 92
105 90 89
100 93 92
97 88 85
98 96 93
104 94 93
94 86 84
96 92 89
98 89 88
101 88 86
95 87 86
98 85 84
104 95 94
104 99 96
95 83 82
92 90 88
95 92 90
103 96 95
99 89 88
102 94 93
98 92 89
99 94 92
96 93 91
99 94 92
95 90 89
98 91 89
99 87 86
99 95 91
103 98 96
98 89 88
98 91 89
98 91 89
99 95 92
100 94 93
99 87 86
101 93 92
98 94 92
99 95 93
97 92 89
97 85 84
96 94 91
95 88 88
94 85 83
90 85 85
98 93 90
98 94 92
102 90 89
91 89 88
97 96 93
95 89 87
97 92 91
98 92 89
98 94 92
98 91 89
95 91 90
95 89 88
94 90 88
92 85 84
84 84 82
94 90 88
95 90 87
93 86 84
98 89 88
94 91 89
93 87 86
99 95 92
97 94 92
94 91 89
91 88 86
85 82 81
92 92 89
91 88 86
86 82 80
94 91 88
86 82 81
92 90 88
83 82 80
91 84 81
88 88 84
89 89 86
82 76 74
82 81 80
78 72 70
86 83 78
78 76 72
76 74 72
86 82 80
82 80 78
88 80 76
83 82 81
73 69 67
78 69 68
79 76 74
78 71 68
76 74 71
72 70 66
75 75 69
75 70 66
62 60 56
68 65 62
65 62 56
70 74 68
69 74 66
66 62 56
70 75 67
64 65 59
63 58 54
63 64 55
54 60 50
62 61 56
51 56 49
61 60 53
50 49 42
57 62 53
59 64 53
63 65 56
43 48 40
42 50 38
50 50 40
60 64 52
51 57 48
52 48 41
47 49 42
49 51 40
45 48 39
50 50 40
43 55 37
42 46 33
32 42 30
43 44 32
39 51 37
42 46 33
29 34 23
47 56 40
34 49 32
44 53 41
47 50 39
49 53 44
56 60 51
49 62 47
52 56 48
57 61 53
63 66 58
60 67 56
63 71 59
66 66 58
68 76 67
68 74 66
64 74 65
73 82 73
71 77 68
77 81 73
75 84 75
78 82 77
76 81 74
84 90 83
78 84 76
82 83 78
83 86 79
78 85 78
82 88 80
84 88 82
79 86 78
80 87 79
88 86 81
82 86 78
76 82 75
79 85 77
79 88 78
81 88 81
88 93 85
76 88 76
46 74 47
38 72 40
34 68 37
32 60 33
0 0 0
0 0 0
0 0 0
0 0 0
0 0 0
0 0 0
0 0 0
0 0 0
0 0 0
0 0 0
0 0 0
39 10 10
88 23 22
93 24 23
92 58 56
96 82 80
103 82 81
95 78 77
98 84 82
88 77 75
89 80 79
99 82 80
97 78 78
93 82 80
98 83 81
93 82 81
98 83 82
94 87 85
92 81 79
94 87 83
96 86 85
101 90 88
94 84 83
100 87 86
97 85 84
93 83 82
94 79 77
98 88 87
102 94 92
97 86 84
98 87 84
95 78 78
94 83 82
89 77 76
92 81 79
97 87 85
86 82 80
95 83 82
93 88 86
98 88 87
92 86 85
92 86 84
101 83 82
101 90 88
103 89 89
100 86 84
97 93 91
97 90 89
94 85 84
92 86 83
99 88 87
96 81 80
97 84 83
93 83 82
95 85 84
94 88 86
98 89 89
95 89 88
98 93 90
99 93 91
104 87 86
98 92 91
104 94 92
92 85 83
95 92 87
93 85 83
101 91 89
94 91 89
94 86 83
99 89 88
104 95 95
86 85 82
97 89 88
100 89 87
98 86 84
93 86 85
96 84 84
100 88 86
102 93 92
94 84 82
105 101 98
98 92 90
96 92 90
98 89 88
94 86 84
100 96 93
96 91 89
101 95 92
99 93 92
102 97 94
102 92 91
98 94 93
100 92 90
101 94 92
97 93 92
96 90 89
103 98 97
100 95 93
93 85 84
97 94 91
98 92 90
99 95 93
99 94 92
98 92 90
97 93 89
98 91 90
93 90 88
95 90 88
97 91 90
97 87 86
88 88 85
103 92 91
106 94 93
94 90 87
97 94 92
98 92 89
101 90 89
93 92 90
91 86 85
96 88 86
99 92 90
93 87 86
93 92 90
92 87 86
96 96 92
98 94 92
101 94 93
98 94 92
93 85 84
94 88 86
95 90 87
103 98 96
91 89 85
93 85 83
90 89 87
88 85 83
96 92 91
89 86 85
94 94 91
91 90 87
93 87 85
95 90 87
93 88 86
88 88 86
87 83 81
100 98 96
92 89 87
92 89 87
92 87 86
91 84 81
89 85 83
86 81 80
92 85 82
87 81 80
93 89 86
84 80 78
88 82 79
84 81 78
81 79 77
82 80 77
78 78 75
79 76 72
87 78 76
72 74 70
70 71 66
82 76 73
80 77 75
82 77 75
70 70 65
77 76 72
80 79 75
72 74 69
75 75 69
76 69 67
81 82 75
73 72 67
69 73 67
75 77 71
65 69 63
67 65 61
67 64 61
59 62 56
64 63 56
60 67 59
55 60 54
72 77 68
58 64 52
53 61 52
59 61 55
56 59 50
55 60 51
49 58 47
59 66 55
66 68 61
54 58 51
41 51 38
47 53 42
57 58 50
49 53 45
47 56 45
51 59 42
45 53 44
36 51 35
44 50 41
45 55 41
58 68 57
51 54 47
54 53 45
58 61 53
54 54 46
54 61 52
64 70 60
54 60 48
67 69 62
72 72 65
63 68 60
62 68 61
70 74 67
71 75 67
70 74 68
71 74 68
72 76 70
76 77 72
80 87 79
79 83 76
80 83 77
82 87 80
82 89 81
82 85 79
76 79 76
85 91 84
86 87 82
79 86 77
81 85 78
84 89 82
86 90 81
74 81 74
78 84 76
83 87 80
76 82 75
81 89 78
81 85 77
79 86 78
46 75 47
36 67 37
29 53 30
0 0 0
0 0 0
0 0 0
0 0 0
0 0 0
0 0 0
0 0 0
0 0 0
0 0 0
0 0 0
0 0 0
30 8 8
93 24 24
94 57 56
94 76 75
98 81 79
91 79 77
91 77 75
92 77 75
93 79 77
94 78 77
92 79 76
104 89 88
89 78 77
90 81 80
94 81 80
92 83 81
91 84 82
91 82 80
91 82 80
88 83 80
93 82 80
91 82 80
98 89 87
92 83 82
94 81 80
100 86 84
95 84 82
99 91 90
95 82 80
95 88 85
90 82 81
96 90 88
94 85 83
92 85 83
96 87 86
98 85 83
89 80 79
96 86 84
96 87 85
103 92 91
93 84 82
94 83 81
100 93 91
91 82 81
100 93 90
98 86 84
95 85 84
95 90 87
101 88 86
89 83 82
98 88 87
99 86 85
90 82 82
100 96 94
96 85 84
96 89 86
93 85 84
94 87 85
97 91 89
98 89 88
92 84 82
105 95 95
100 90 89
100 88 88
92 86 83
100 91 89
99 90 88
97 91 90
96 94 91
98 89 87
100 93 91
98 93 92
96 88 86
102 92 91
97 85 84
90 83 82
93 87 86
96 85 84
103 91 88
103 97 95
97 92 89
95 85 83
107 99 98
98 93 91
92 84 83
94 90 89
95 88 86
94 89 87
94 91 87
95 93 90
98 89 87
92 82 81
100 95 93
97 93 89
97 90 87
95 89 88
89 88 86
98 94 93
103 92 91
100 92 91
99 96 93
95 90 89
103 92 89
94 90 87
97 97 93
104 99 97
102 90 90
101 94 92
100 91 89
102 91 89
94 88 87
93 88 85
92 91 88
94 89 87
92 89 87
95 91 90
91 91 88
98 87 86
96 90 88
96 92 91
94 90 87
97 91 89
90 86 85
90 85 84
84 82 80
98 93 92
98 94 93
93 87 85
95 91 89
98 94 91
95 93 89
91 89 87
94 91 89
93 91 88
90 85 83
97 91 90
97 90 87
96 92 90
91 88 85
92 86 83
95 92 91
87 86 84
93 92 89
91 84 83
87 85 81
86 86 83
89 87 85
89 90 87
93 89 87
86 83 80
91 89 85
93 90 88
87 84 81
91 87 85
85 81 79
88 83 80
92 93 90
86 83 81
90 85 82
81 82 79
87 88 84
89 87 83
95 90 87
82 83 78
83 86 80
85 84 81
81 82 80
78 80 74
83 81 78
77 74 71
76 74 71
75 73 68
81 84 79
80 84 77
84 84 80
74 77 71
75 77 70
82 82 75
78 77 73
74 76 72
73 77 71
76 72 67
74 73 69
69 71 64
69 73 66
79 77 74
76 72 67
72 76 71
59 62 55
75 76 70
64 66 60
60 67 59
69 71 64
63 69 58
70 68 62
64 66 61
60 65 57
65 65 57
51 60 51
52 60 50
51 60 48
61 68 56
54 61 53
63 68 58
57 66 57
51 60 52
67 73 65
61 61 53
68 70 63
69 76 67
68 73 64
56 60 52
66 69 63
64 69 64
72 78 70
71 74 68
71 77 71
71 74 69
72 76 69
67 74 66
70 77 69
78 82 77
77 81 74
77 80 73
81 86 79
79 81 75
79 83 78
81 85 78
80 83 77
77 82 77
85 89 81
79 83 76
82 85 79
77 82 75
83 86 78
79 83 76
81 87 80
86 87 81
82 85 80
85 87 80
79 88 80
75 80 72
79 89 78
41 71 43
30 57 31
0 0 0
0 0 0
0 0 0
0 0 0
0 0 0
0 0 0
0 0 0
0 0 0
0 0 0
0 0 0
0 0 0
41 10 10
93 56 55
96 82 80
96 83 81
93 78 77
91 78 77
93 81 78
93 82 81
93 80 79
87 72 71
94 85 83
89 84 79
91 82 80
95 82 80
91 83 80
88 81 81
90 83 79
85 80 79
86 76 74
91 81 80
90 83 80
91 80 79
89 82 81
96 87 85
96 85 83
95 89 84
93 85 84
95 82 80
91 83 81
90 78 78
86 76 75
98 88 87
89 81 80
97 89 88
95 88 86
98 88 87
89 86 83
98 93 91
96 91 88
93 90 87
94 83 81
100 87 86
96 90 87
97 91 88
91 84 83
93 86 82
91 88 85
99 92 91
94 90 88
98 89 89
95 92 90
93 86 83
92 82 79
88 85 82
99 89 88
91 85 85
96 91 88
94 87 86
94 84 83
102 90 89
90 85 84
104 98 96
89 86 84
97 88 85
95 84 82
96 90 89
101 93 91
103 93 90
96 93 91
93 84 83
95 85 83
99 94 91
101 92 90
102 94 93
101 91 89
95 88 86
104 98 96
97 93 91
94 91 89
96 92 90
97 90 88
95 89 89
92 88 87
94 89 88
100 96 94
94 93 91
96 91 90
103 97 94
94 89 87
96 93 90
104 93 90
95 89 87
100 89 88
102 98 96
100 97 94
97 93 91
95 90 88
99 93 91
98 93 91
95 92 90
103 96 93
96 89 87
94 90 88
91 90 87
92 88 86
92 89 87
96 85 84
96 92 89
90 84 81
99 95 92
95 92 90
93 90 88
97 88 86
96 86 84
94 86 84
98 92 91
95 91 89
93 90 89
99 92 90
89 85 84
86 82 80
95 91 89
94 91 88
94 93 89
93 85 84
95 85 84
95 91 89
94 91 87
92 90 89
92 84 82
90 87 85
89 87 85
91 88 86
94 92 89
88 85 83
91 86 83
93 89 87
96 89 87
88 88 85
94 91 88
89 86 85
91 86 84
93 92 88
86 84 82
86 83 81
93 85 83
95 89 87
88 86 82
85 85 82
91 88 86
93 90 87
96 91 88
96 91 88
90 89 86
91 89 85
89 85 82
90 89 86
90 86 83
89 85 83
88 84 83
86 87 82
88 84 82
85 84 82
87 85 81
91 91 87
83 83 79
86 86 82
88 85 82
85 89 82
91 91 87
81 83 80
82 78 76
85 86 81
82 79 77
85 88 81
87 87 83
87 86 82
80 82 78
75 76 71
84 89 81
79 81 76
74 73 69
82 83 75
84 81 75
78 78 71
76 75 71
77 76 71
73 78 71
72 71 65
70 78 68
66 70 65
70 75 67
69 70 66
71 70 66
70 73 66
69 69 64
66 68 64
64 65 60
69 74 64
62 64 56
56 60 53
72 74 68
64 64 58
65 67 59
64 66 57
57 64 56
68 65 60
67 70 64
62 66 60
71 76 69
64 70 62
67 70 63
71 74 66
69 74 68
72 77 69
74 76 72
71 75 66
74 76 71
74 78 72
74 76 71
75 79 72
76 78 72
81 82 76
79 80 76
82 85 78
77 79 74
82 83 79
77 82 74
83 88 80
80 83 78
80 84 80
76 82 76
82 85 78
82 84 79
83 82 77
84 86 79
75 81 75
81 86 80
81 82 75
86 90 82
87 84 80
81 85 79
79 84 77
82 88 80
43 64 43
0 0 0
0 0 0
0 0 0
0 0 0
0 0 0
0 0 0
0 0 0
0 0 0
0 0 0
0 0 0
0 0 0
16 10 7
42 36 34
42 39 36
25 24 24
43 32 32
37 30 30
34 36 34
46 38 38
42 40 37
33 31 30
42 39 37
47 41 40
45 39 39
43 41 38
38 35 35
51 46 45
41 39 37
37 34 34
39 37 37
38 38 36
47 43 43
40 33 33
31 29 29
44 37 37
45 39 39
48 43 42
51 50 49
31 30 29
48 44 42
36 27 27
40 40 38
36 31 31
21 21 21
46 43 42
44 40 37
41 38 37
55 44 43
33 30 30
42 39 39
33 30 30
37 31 31
47 44 44
35 36 35
49 42 42
38 38 36
41 36 36
38 37 36
36 35 33
34 33 33
35 31 31
41 37 36
41 38 37
50 50 48
31 27 27
40 34 34
40 37 37
43 39 39
40 35 34
41 40 38
44 44 43
38 36 35
40 34 32
35 34 34
47 44 44
39 33 31
42 38 38
44 41 41
40 34 34
31 27 27
43 40 39
43 38 38
41 38 38
49 43 43
36 33 32
37 35 35
30 30 29
58 47 47
40 40 40
41 40 37
50 47 46
47 46 46
45 45 43
35 36 33
43 36 36
49 41 41
42 39 39
39 40 39
49 39 39
40 34 34
40 38 37
27 27 27
44 39 39
39 34 34
36 34 34
45 45 43
39 34 34
51 46 46
44 45 43
38 40 36
45 40 39
55 51 51
47 44 44
44 32 32
47 45 44
41 38 38
53 54 51
46 42 42
37 38 36
41 41 38
37 36 36
44 42 42
44 42 40
38 35 35
33 30 29
38 37 36
47 45 45
56 54 52
49 44 42
44 46 44
36 36 36
49 46 45
33 34 33
40 37 37
44 44 42
40 37 36
38 31 31
36 30 30
35 31 30
46 42 42
53 49 48
29 30 29
44 44 43
42 42 41
36 36 35
50 44 43
32 32 32
40 38 37
48 47 46
37 34 34
50 49 49
34 32 31
35 34 34
43 41 40
49 49 46
34 36 35
43 40 39
40 40 39
40 35 34
31 30 28
55 58 55
44 42 41
33 34 33
52 50 48
34 28 28
45 42 40
43 42 41
37 31 30
38 30 30
47 42 41
42 41 41
49 43 43
32 32 32
34 36 33
40 39 38
39 35 34
33 35 30
46 43 41
39 41 37
43 37 36
39 39 37
40 39 38
30 31 29
39 43 39
35 33 31
43 40 38
39 41 39
43 41 39
29 30 29
39 39 38
38 45 39
29 31 30
36 34 34
42 43 40
28 28 28
32 35 32
42 39 38
41 41 39
44 48 44
35 38 34
33 35 33
26 29 26
33 38 33
34 38 34
23 22 20
40 43 40
38 39 36
31 32 28
38 37 32
32 34 32
34 36 33
24 25 23
33 35 33
30 32 30
33 30 28
28 35 29
31 33 30
29 32 30
32 31 30
33 38 34
33 32 29
26 28 25
33 32 29
32 31 29
38 39 37
36 35 34
29 25 23
29 33 29
30 30 28
33 35 33
37 39 35
38 41 38
31 34 31
37 37 35
32 34 32
33 36 33
34 37 34
31 34 31
40 41 39
36 40 36
38 39 37
34 34 32
34 32 31
40 43 40
37 39 35
27 28 27
40 41 39
44 49 45
36 34 32
35 38 36
31 35 32
30 33 30
29 29 26
41 44 41
36 35 31
25 28 25
0 0 0
0 0 0
0 0 0
0 0 0
0 0 0
0 0 0
0 0 0
0 0 0
0 0 0
0 0 0
0 0 0
0 0 0
0 0 0
0 0 0
0 0 0
0 0 0
0 0 0
0 0 0
0 0 0
0 0 0
0 0 0
0 0 0
0 0 0
0 0 0
0 0 0
0 0 0
0 0 0
0 0 0
0 0 0
0 0 0
0 0 0
0 0 0
0 0 0
0 0 0
0 0 0
0 0 0
0 0 0
0 0 0
0 0 0
0 0 0
0 0 0
0 0 0
0 0 0
0 0 0
0 0 0
0 0 0
0 0 0
0 0 0
0 0 0
0 0 0
0 0 0
0 0 0
0 0 0
0 0 0
0 0 0
0 0 0
0 0 0
0 0 0
0 0 0
0 0 0
0 0 0
0 0 0
0 0 0
0 0 0
0 0 0
0 0 0
0 0 0
0 0 0
0 0 0
0 0 0
0 0 0
0 0 0
0 0 0
0 0 0
0 0 0
0 0 0
0 0 0
0 0 0
0 0 0
0 0 0
0 0 0
0 0 0
0 0 0
0 0 0
0 0 0
0 0 0
0 0 0
0 0 0
0 0 0
0 0 0
0 0 0
0 0 0
0 0 0
0 0 0
0 0 0
0 0 0
0 0 0
0 0 0
0 0 0
0 0 0
0 0 0
0 0 0
0 0 0
0 0 0
0 0 0
0 0 0
0 0 0
0 0 0
0 0 0
0 0 0
0 0 0
0 0 0
0 0 0
0 0 0
0 0 0
0 0 0
0 0 0
0 0 0
0 0 0
0 0 0
0 0 0
0 0 0
0 0 0
0 0 0
0 0 0
0 0 0
0 0 0
0 0 0
0 0 0
0 0 0
0 0 0
0 0 0
0 0 0
0 0 0
0 0 0
0 0 0
0 0 0
0 0 0
0 0 0
0 0 0
0 0 0
0 0 0
0 0 0
0 0 0
0 0 0
0 0 0
0 0 0
0 0 0
0 0 0
0 0 0
0 0 0
0 0 0
0 0 0
0 0 0
0 0 0
0 0 0
0 0 0
0 0 0
0 0 0
0 0 0
0 0 0
0 0 0
0 0 0
0 0 0
0 0 0
0 0 0
0 0 0
0 0 0
0 0 0
0 0 0
0 0 0
0 0 0
0 0 0
0 0 0
0 0 0
0 0 0
0 0 0
0 0 0
0 0 0
0 0 0
0 0 0
0 0 0
0 0 0
0 0 0
0 0 0
0 0 0
0 0 0
0 0 0
0 0 0
0 0 0
0 0 0
0 0 0
0 0 0
0 0 0
0 0 0
0 0 0
0 0 0
0 0 0
0 0 0
0 0 0
0 0 0
0 0 0
0 0 0
0 0 0
0 0 0
0 0 0
0 0 0
0 0 0
0 0 0
0 0 0
0 0 0
0 0 0
0 0 0
0 0 0
0 0 0
0 0 0
0 0 0
0 0 0
0 0 0
0 0 0
0 0 0
0 0 0
0 0 0
0 0 0
0 0 0
0 0 0
0 0 0
0 0 0
0 0 0
0 0 0
0 0 0
0 0 0
0 0 0
0 0 0
0 0 0
0 0 0
0 0 0
0 0 0
0 0 0
0 0 0
0 0 0
0 0 0
0 0 0
0 0 0
0 0 0
0 0 0
0 0 0
0 0 0
0 0 0
0 0 0
0 0 0
0 0 0
0 0 0
0 0 0
0 0 0
0 0 0
0 0 0
0 0 0
0 0 0
0 0 0
0 0 0
0 0 0
0 0 0
0 0 0
0 0 0
0 0 0
0 0 0
0 0 0
0 0 0
0 0 0
0 0 0
0 0 0
0 0 0
0 0 0
0 0 0
0 0 0
0 0 0
0 0 0
0 0 0
0 0 0
0 0 0
0 0 0
0 0 0
0 0 0
0 0 0
0 0 0
0 0 0
0 0 0
0 0 0
0 0 0
0 0 0
0 0 0
0 0 0
0 0 0
0 0 0
0 0 0
0 0 0
0 0 0
0 0 0
0 0 0
0 0 0
0 0 0
0 0 0
0 0 0
0 0 0
0 0 0
0 0 0
0 0 0
0 0 0
0 0 0
0 0 0
0 0 0
0 0 0
0 0 0
0 0 0
0 0 0
0 0 0
0 0 0
0 0 0
0 0 0
0 0 0
0 0 0
0 0 0
0 0 0
0 0 0
0 0 0
0 0 0
0 0 0
0 0 0
0 0 0
0 0 0
0 0 0
0 0 0
0 0 0
0 0 0
0 0 0
0 0 0
0 0 0
0 0 0
0 0 0
0 0 0
0 0 0
0 0 0
0 0 0
0 0 0
0 0 0
0 0 0
0 0 0
0 0 0
0 0 0
0 0 0
0 0 0
0 0 0
0 0 0
0 0 0
0 0 0
0 0 0
0 0 0
0 0 0
0 0 0
0 0 0
0 0 0
0 0 0
0 0 0
0 0 0
0 0 0
0 0 0
0 0 0
0 0 0
0 0 0
0 0 0
0 0 0
0 0 0
0 0 0
0 0 0
0 0 0
0 0 0
0 0 0
0 0 0
0 0 0
0 0 0
0 0 0
0 0 0
0 0 0
0 0 0
0 0 0
0 0 0
0 0 0
0 0 0
0 0 0
0 0 0
0 0 0
0 0 0
0 0 0
0 0 0
0 0 0
0 0 0
0 0 0
0 0 0
0 0 0
0 0 0
0 0 0
0 0 0
0 0 0
0 0 0
0 0 0
0 0 0
0 0 0
0 0 0
0 0 0
0 0 0
0 0 0
0 0 0
0 0 0
0 0 0
0 0 0
0 0 0
0 0 0
0 0 0
0 0 0
0 0 0
0 0 0
0 0 0
0 0 0
0 0 0
0 0 0
0 0 0
0 0 0
0 0 0
0 0 0
0 0 0
0 0 0
0 0 0
0 0 0
0 0 0
0 0 0
0 0 0
0 0 0
0 0 0
0 0 0
0 0 0
0 0 0
0 0 0
0 0 0
0 0 0
0 0 0
0 0 0
0 0 0
0 0 0
0 0 0
0 0 0
0 0 0
0 0 0
0 0 0
0 0 0
0 0 0
0 0 0
0 0 0
0 0 0
0 0 0
0 0 0
0 0 0
0 0 0
0 0 0
0 0 0
0 0 0
0 0 0
0 0 0
0 0 0
0 0 0
0 0 0
0 0 0
0 0 0
0 0 0
0 0 0
0 0 0
0 0 0
0 0 0
0 0 0
0 0 0
0 0 0
0 0 0
0 0 0
0 0 0
0 0 0
0 0 0
0 0 0
0 0 0
0 0 0
0 0 0
0 0 0
0 0 0
0 0 0
0 0 0
0 0 0
0 0 0
0 0 0
0 0 0
0 0 0
0 0 0
0 0 0
0 0 0
0 0 0
0 0 0
0 0 0
0 0 0
0 0 0
0 0 0
0 0 0
0 0 0
0 0 0
0 0 0
0 0 0
0 0 0
0 0 0
0 0 0
0 0 0
0 0 0
0 0 0
0 0 0
0 0 0
0 0 0
0 0 0
0 0 0
0 0 0
0 0 0
0 0 0
0 0 0
0 0 0
0 0 0
0 0 0
0 0 0
0 0 0
0 0 0
0 0 0
0 0 0
0 0 0
0 0 0
0 0 0
0 0 0
0 0 0
0 0 0
0 0 0
0 0 0
0 0 0
0 0 0
0 0 0
0 0 0
0 0 0
0 0 0
0 0 0
0 0 0
0 0 0
0 0 0
0 0 0
0 0 0
0 0 0
0 0 0
0 0 0
0 0 0
0 0 0
0 0 0
0 0 0
0 0 0
0 0 0
0 0 0
0 0 0
0 0 0
0 0 0
0 0 0
0 0 0
0 0 0
0 0 0
0 0 0
0 0 0
0 0 0
0 0 0
0 0 0
0 0 0
0 0 0
0 0 0
0 0 0
0 0 0
0 0 0
0 0 0
0 0 0
0 0 0
0 0 0
0 0 0
0 0 0
0 0 0
0 0 0
0 0 0
0 0 0
0 0 0
0 0 0
0 0 0
0 0 0
0 0 0
0 0 0
0 0 0
0 0 0
0 0 0
0 0 0
0 0 0
0 0 0
0 0 0
0 0 0
0 0 0
0 0 0
0 0 0
0 0 0
0 0 0
0 0 0
0 0 0
0 0 0
0 0 0
0 0 0
0 0 0
0 0 0
0 0 0
0 0 0
0 0 0
0 0 0
0 0 0
0 0 0
0 0 0
0 0 0
0 0 0
0 0 0
0 0 0
0 0 0
0 0 0
0 0 0
0 0 0
0 0 0
0 0 0
0 0 0
0 0 0
0 0 0
0 0 0
0 0 0
0 0 0
0 0 0
0 0 0
0 0 0
0 0 0
0 0 0
0 0 0
0 0 0
0 0 0
0 0 0
0 0 0
0 0 0
0 0 0
0 0 0
0 0 0
0 0 0
0 0 0
0 0 0
0 0 0
0 0 0
0 0 0
0 0 0
0 0 0
0 0 0
0 0 0
0 0 0
0 0 0
0 0 0
0 0 0
0 0 0
0 0 0
0 0 0
0 0 0
0 0 0
0 0 0
0 0 0
0 0 0
0 0 0
0 0 0
0 0 0
0 0 0
0 0 0
0 0 0
0 0 0
0 0 0
0 0 0
0 0 0
0 0 0
0 0 0
0 0 0
0 0 0
0 0 0
0 0 0
0 0 0
0 0 0
0 0 0
0 0 0
0 0 0
0 0 0
0 0 0
0 0 0
0 0 0
0 0 0
0 0 0
0 0 0
0 0 0
0 0 0
0 0 0
0 0 0
0 0 0
0 0 0
0 0 0
0 0 0
0 0 0
0 0 0
0 0 0
0 0 0
0 0 0
0 0 0
0 0 0
0 0 0
0 0 0
0 0 0
0 0 0
0 0 0
0 0 0
0 0 0
0 0 0
0 0 0
0 0 0
0 0 0
0 0 0
0 0 0
0 0 0
0 0 0
0 0 0
0 0 0
0 0 0
0 0 0
0 0 0
0 0 0
0 0 0
0 0 0
0 0 0
0 0 0
0 0 0
0 0 0
0 0 0
0 0 0
0 0 0
0 0 0
0 0 0
0 0 0
0 0 0
0 0 0
0 0 0
0 0 0
0 0 0
0 0 0
0 0 0
0 0 0
0 0 0
0 0 0
0 0 0
0 0 0
0 0 0
0 0 0
0 0 0
0 0 0
0 0 0
0 0 0
0 0 0
0 0 0
0 0 0
0 0 0
0 0 0
0 0 0
0 0 0
0 0 0
0 0 0
0 0 0
0 0 0
0 0 0
0 0 0
0 0 0
0 0 0
0 0 0
0 0 0
0 0 0
0 0 0
0 0 0
0 0 0
0 0 0
0 0 0
0 0 0
0 0 0
0 0 0
0 0 0
0 0 0
0 0 0
0 0 0
0 0 0
0 0 0
0 0 0
0 0 0
0 0 0
0 0 0
0 0 0
0 0 0
0 0 0
0 0 0
0 0 0
0 0 0
0 0 0
0 0 0
0 0 0
0 0 0
0 0 0
0 0 0
0 0 0
0 0 0
0 0 0
0 0 0
0 0 0
0 0 0
0 0 0
0 0 0
0 0 0
0 0 0
0 0 0
0 0 0
0 0 0
0 0 0
0 0 0
0 0 0
0 0 0
0 0 0
0 0 0
0 0 0
0 0 0
0 0 0
0 0 0
0 0 0
0 0 0
0 0 0
0 0 0
0 0 0
0 0 0
0 0 0
0 0 0
0 0 0
0 0 0
0 0 0
0 0 0
0 0 0
0 0 0
0 0 0
0 0 0
0 0 0
0 0 0
0 0 0
0 0 0
0 0 0
0 0 0
0 0 0
0 0 0
0 0 0
0 0 0
0 0 0
0 0 0
0 0 0
0 0 0
0 0 0
0 0 0
0 0 0
0 0 0
0 0 0
0 0 0
0 0 0
0 0 0
0 0 0
0 0 0
0 0 0
0 0 0
0 0 0
0 0 0
0 0 0
0 0 0
0 0 0
0 0 0
0 0 0
0 0 0
0 0 0
0 0 0
0 0 0
0 0 0
0 0 0
0 0 0
0 0 0
0 0 0
0 0 0
0 0 0
0 0 0
0 0 0
0 0 0
0 0 0
0 0 0
0 0 0
0 0 0
0 0 0
0 0 0
0 0 0
0 0 0
0 0 0
0 0 0
0 0 0
0 0 0
0 0 0
0 0 0
0 0 0
0 0 0
0 0 0
0 0 0
0 0 0
0 0 0
0 0 0
0 0 0
0 0 0
0 0 0
0 0 0
0 0 0
0 0 0
0 0 0
0 0 0
0 0 0
0 0 0
0 0 0
0 0 0
0 0 0
0 0 0
0 0 0
0 0 0
0 0 0
0 0 0
0 0 0
0 0 0
0 0 0
0 0 0
0 0 0
0 0 0
0 0 0
0 0 0
0 0 0
0 0 0
0 0 0
0 0 0
0 0 0
0 0 0
0 0 0
0 0 0
0 0 0
0 0 0
0 0 0
0 0 0
0 0 0
0 0 0
0 0 0
0 0 0
0 0 0
0 0 0
0 0 0
0 0 0
0 0 0
0 0 0
0 0 0
0 0 0
0 0 0
0 0 0
0 0 0
0 0 0
0 0 0
0 0 0
0 0 0
0 0 0
0 0 0
0 0 0
0 0 0
0 0 0
0 0 0
0 0 0
0 0 0
0 0 0
0 0 0
0 0 0
0 0 0
0 0 0
0 0 0
0 0 0
0 0 0
0 0 0
0 0 0
0 0 0
0 0 0
0 0 0
0 0 0
0 0 0
0 0 0
0 0 0
0 0 0
0 0 0
0 0 0
0 0 0
0 0 0
0 0 0
0 0 0
0 0 0
0 0 0
0 0 0
0 0 0
0 0 0
0 0 0
0 0 0
0 0 0
0 0 0
0 0 0
0 0 0
0 0 0
0 0 0
0 0 0
0 0 0
0 0 0
0 0 0
0 0 0
0 0 0
0 0 0
0 0 0
0 0 0
0 0 0
0 0 0
0 0 0
0 0 0
0 0 0
0 0 0
0 0 0
0 0 0
0 0 0
0 0 0
0 0 0
0 0 0
0 0 0
0 0 0
0 0 0
0 0 0
0 0 0
0 0 0
0 0 0
0 0 0
0 0 0
0 0 0
0 0 0
0 0 0
0 0 0
0 0 0
0 0 0
0 0 0
0 0 0
0 0 0
0 0 0
0 0 0
0 0 0
0 0 0
0 0 0
0 0 0
0 0 0
0 0 0
0 0 0
0 0 0
0 0 0
0 0 0
0 0 0
0 0 0
0 0 0
0 0 0
0 0 0
0 0 0
0 0 0
0 0 0
0 0 0
0 0 0
0 0 0
0 0 0
0 0 0
0 0 0
0 0 0
0 0 0
0 0 0
0 0 0
0 0 0
0 0 0
0 0 0
0 0 0
0 0 0
0 0 0
0 0 0
0 0 0
0 0 0
0 0 0
0 0 0
0 0 0
0 0 0
0 0 0
0 0 0
0 0 0
0 0 0
0 0 0
0 0 0
0 0 0
0 0 0
0 0 0
0 0 0
0 0 0
0 0 0
0 0 0
0 0 0
0 0 0
0 0 0
0 0 0
0 0 0
0 0 0
0 0 0
0 0 0
0 0 0
0 0 0
0 0 0
0 0 0
0 0 0
0 0 0
0 0 0
0 0 0
0 0 0
0 0 0
0 0 0
0 0 0
0 0 0
0 0 0
0 0 0
0 0 0
0 0 0
0 0 0
0 0 0
0 0 0
0 0 0
0 0 0
0 0 0
0 0 0
0 0 0
0 0 0
0 0 0
0 0 0
0 0 0
0 0 0
0 0 0
0 0 0
0 0 0
0 0 0
0 0 0
0 0 0
0 0 0
0 0 0
0 0 0
0 0 0
0 0 0
0 0 0
0 0 0
0 0 0
0 0 0
0 0 0
0 0 0
0 0 0
0 0 0
0 0 0
0 0 0
0 0 0
0 0 0
0 0 0
0 0 0
0 0 0
0 0 0
0 0 0
0 0 0
0 0 0
0 0 0
0 0 0
0 0 0
0 0 0
0 0 0
0 0 0
0 0 0
0 0 0
0 0 0
0 0 0
0 0 0
0 0 0
0 0 0
0 0 0
0 0 0
0 0 0
0 0 0
0 0 0
0 0 0
0 0 0
0 0 0
0 0 0
0 0 0
0 0 0
0 0 0
0 0 0
0 0 0
0 0 0
0 0 0
0 0 0
0 0 0
0 0 0
0 0 0
0 0 0
0 0 0
0 0 0
0 0 0
0 0 0
0 0 0
0 0 0
0 0 0
0 0 0
0 0 0
0 0 0
0 0 0
0 0 0
0 0 0
0 0 0
0 0 0
0 0 0
0 0 0
0 0 0
0 0 0
0 0 0
0 0 0
0 0 0
0 0 0
0 0 0
0 0 0
0 0 0
0 0 0
0 0 0
0 0 0
0 0 0
0 0 0
0 0 0
0 0 0
0 0 0
0 0 0
0 0 0
0 0 0
0 0 0
0 0 0
0 0 0
0 0 0
0 0 0
0 0 0
0 0 0
0 0 0
0 0 0
0 0 0
0 0 0
0 0 0
0 0 0
0 0 0
0 0 0
0 0 0
0 0 0
0 0 0
0 0 0
0 0 0
0 0 0
0 0 0
0 0 0
0 0 0
0 0 0
0 0 0
0 0 0
0 0 0
0 0 0
0 0 0
0 0 0
0 0 0
0 0 0
0 0 0
0 0 0
0 0 0
0 0 0
0 0 0
0 0 0
0 0 0
0 0 0
0 0 0
0 0 0
0 0 0
0 0 0
0 0 0
0 0 0
0 0 0
0 0 0
0 0 0
0 0 0
0 0 0
0 0 0
0 0 0
0 0 0
0 0 0
0 0 0
0 0 0
0 0 0
0 0 0
0 0 0
0 0 0
0 0 0
0 0 0
0 0 0
0 0 0
0 0 0
0 0 0
0 0 0
0 0 0
0 0 0
0 0 0
0 0 0
0 0 0
0 0 0
0 0 0
0 0 0
0 0 0
0 0 0
0 0 0
0 0 0
0 0 0
0 0 0
0 0 0
0 0 0
0 0 0
0 0 0
0 0 0
0 0 0
0 0 0
0 0 0
0 0 0
0 0 0
0 0 0
0 0 0
0 0 0
0 0 0
0 0 0
0 0 0
0 0 0
0 0 0
0 0 0
0 0 0
0 0 0
0 0 0
0 0 0
0 0 0
0 0 0
0 0 0
0 0 0
0 0 0
0 0 0
0 0 0
0 0 0
0 0 0
0 0 0
0 0 0
0 0 0
0 0 0
0 0 0
0 0 0
0 0 0
0 0 0
0 0 0
0 0 0
0 0 0
0 0 0
0 0 0
0 0 0
0 0 0
0 0 0
0 0 0
0 0 0
0 0 0
0 0 0
0 0 0
0 0 0
0 0 0
0 0 0
0 0 0
0 0 0
0 0 0
0 0 0
0 0 0
0 0 0
0 0 0
0 0 0
0 0 0
0 0 0
0 0 0
0 0 0
0 0 0
0 0 0
0 0 0
0 0 0
0 0 0
0 0 0
0 0 0
0 0 0
0 0 0
0 0 0
0 0 0
0 0 0
0 0 0
0 0 0
0 0 0
0 0 0
0 0 0
0 0 0
0 0 0
0 0 0
0 0 0
0 0 0
0 0 0
0 0 0
0 0 0
0 0 0
0 0 0
0 0 0
0 0 0
0 0 0
0 0 0
0 0 0
0 0 0
0 0 0
0 0 0
0 0 0
0 0 0
0 0 0
0 0 0
0 0 0
0 0 0
0 0 0
0 0 0
0 0 0
0 0 0
0 0 0
0 0 0
0 0 0
0 0 0
0 0 0
0 0 0
0 0 0
0 0 0
0 0 0
0 0 0
0 0 0
0 0 0
0 0 0
0 0 0
0 0 0
0 0 0
0 0 0
0 0 0
0 0 0
0 0 0
0 0 0
0 0 0
0 0 0
0 0 0
0 0 0
0 0 0
0 0 0
0 0 0
0 0 0
0 0 0
0 0 0
0 0 0
0 0 0
0 0 0
0 0 0
0 0 0
0 0 0
0 0 0
0 0 0
0 0 0
0 0 0
0 0 0
0 0 0
0 0 0
0 0 0
0 0 0
0 0 0
0 0 0
0 0 0
0 0 0
0 0 0
0 0 0
0 0 0
0 0 0
0 0 0
0 0 0
0 0 0
0 0 0
0 0 0
0 0 0
0 0 0
0 0 0
0 0 0
0 0 0
0 0 0
0 0 0
0 0 0
0 0 0
0 0 0
0 0 0
0 0 0
0 0 0
0 0 0
0 0 0
0 0 0
0 0 0
0 0 0
0 0 0
0 0 0
0 0 0
0 0 0
0 0 0
